; HEADER_BLOCK_START
; generated by OrcaSlicer 1.7.0 on 2023-10-23 at 14:40:16
; total layer number: 171
; HEADER_BLOCK_END

; THUMBNAIL_BLOCK_START
; THUMBNAIL_BLOCK_END

; external perimeters extrusion width = 0.60mm
; perimeters extrusion width = 0.60mm
; infill extrusion width = 0.60mm
; solid infill extrusion width = 0.60mm
; top infill extrusion width = 0.60mm
; first layer extrusion width = 0.62mm

; EXECUTABLE_BLOCK_START
M73 P0 R56
;TYPE:Custom
M104 S216 ; set extruder temp
M140 S60 ; set bed temp
M190 S60 ; wait for bed temp
M109 S216 ; wait for extruder temp

G28 ; home all
BED_MESH_PROFILE LOAD=default;

G1 Z2.0 F3000 ; Move Z Axis up little to prevent scratching of Heat Bed
G1 X0.1 Y5 Z0.28 F5000.0 ; Move to start position


G92 E0 ; Reset Extruder
G1 Z2.0 F3000 ; Move Z Axis up little to prevent scratching of Heat Bed
G1 X0.1 Y10 Z0.28 F5000.0 ; Move to start position

G1 X0.1 Y200 Z0.28 F1500.0 E15 ; Draw the first line
G1 X0.4 Y200 Z0.28 F5000.0 ; Move to side a little
G1 X0.4 Y10 Z0.28 F1500.0 E30 ; Draw the second line


G92 E0 ; Reset Extruder
G1 Z0.5 F3000 ; Move Z Axis up little to prevent scratching of Heat Bed
M117 Godmode is enabled
G90
G21
M83 ; use relative distances for extrusion
; filament start gcode
M106 S0
;LAYER_CHANGE
;Z:0.26
;HEIGHT:0.26
;BEFORE_LAYER_CHANGE
;0.26
G92 E0

M73 P0 R55
G1 E-1.15 F3600
;_SET_FAN_SPEED_CHANGING_LAYER
G1 X111.288 Y111.079 F9000
G1 Z.26
G1 E1.15 F2400
;TYPE:Skirt
;WIDTH:0.62
G1 F1200
G1 X112.222 Y110.211 E.0778
G1 X112.868 Y109.796 E.0468
G1 X113.677 Y109.427 E.05427
G1 X114.376 Y109.218 E.04448
G1 X115.238 Y109.081 E.05319
G1 X138.8 Y107.596 E1.43985
G1 X140.279 Y107.558 E.09028
G1 X143.054 Y107.791 E.16979
G1 X145.365 Y108.299 E.14433
G1 X147.595 Y109.082 E.14412
G1 X149.832 Y110.198 E.15249
G1 X152.003 Y111.665 E.15978
G1 X153.871 Y113.325 E.15242
G1 X155.516 Y115.217 E.15295
G1 X156.903 Y117.306 E.1529
G1 X157.375 Y118.403 E.07282
G1 X157.612 Y119.754 E.08362
G1 X157.545 Y120.87 E.06821
G1 X157.419 Y121.445 E.03593
G1 X157.087 Y122.34 E.0582
G1 X156.022 Y124.087 E.12479
G1 X154.702 Y125.782 E.13101
G1 X153.188 Y127.333 E.13221
G1 X151.465 Y128.739 E.13559
G1 X150.239 Y129.559 E.08998
G1 X148.889 Y130.316 E.09439
G1 X147.46 Y130.974 E.09594
G1 X146.066 Y131.487 E.09057
G1 X144.696 Y131.878 E.08692
G1 X143 Y132.217 E.10548
G1 X141.774 Y132.366 E.07533
G1 X140.002 Y132.444 E.10817
G1 X114.848 Y130.873 E1.53709
G1 X113.677 Y130.573 E.07367
G1 X112.559 Y130.02 E.07612
G1 X111.784 Y129.43 E.05938
G1 X110.968 Y128.515 E.07479
G1 X110.584 Y127.902 E.04409
G1 X110.244 Y127.158 E.04987
G1 X109.992 Y126.295 E.05486
G1 X109.878 Y125.519 E.04785
G1 X109.878 Y114.481 E.67313
G1 X110.122 Y113.203 E.07938
G1 X110.584 Y112.098 E.07305
G1 X111.253 Y111.129 E.07184
G1 X111.716 Y111.483 F9000
G1 F1200
G1 X111.897 Y111.247 E.01813
G1 X112.766 Y110.518 E.06921
G1 X113.877 Y109.954 E.07599
G1 X115.291 Y109.643 E.08829
G1 X138.835 Y108.159 E1.43875
G1 X140.277 Y108.122 E.08799
G1 X142.974 Y108.35 E.16503
G1 X145.215 Y108.843 E.13998
G1 X147.369 Y109.599 E.13919
G1 X149.545 Y110.683 E.14828
G1 X151.653 Y112.107 E.15516
G1 X153.476 Y113.727 E.14873
G1 X155.071 Y115.564 E.14838
G1 X156.415 Y117.591 E.14829
G1 X156.79 Y118.429 E.05599
G1 X156.938 Y118.96 E.03364
G1 X157.052 Y120.059 E.06741
G1 X156.91 Y121.163 E.06788
G1 X156.461 Y122.329 E.07621
G1 X155.334 Y124.082 E.1271
G1 X154.019 Y125.699 E.12709
G1 X152.442 Y127.242 E.13459
G1 X150.824 Y128.502 E.12504
G1 X148.544 Y129.859 E.16185
G1 X147.173 Y130.482 E.0918
G1 X145.782 Y130.986 E.09023
G1 X144.569 Y131.328 E.07689
G1 X142.918 Y131.659 E.10269
G1 X141.18 Y131.845 E.10657
G1 X139.882 Y131.879 E.07922
G1 X114.937 Y130.316 E1.52432
G1 X113.877 Y130.046 E.06671
G1 X112.866 Y129.547 E.06874
G1 X112.159 Y129.008 E.05425
G1 X111.422 Y128.181 E.06754
G1 X111.026 Y127.531 E.04644
G1 X110.732 Y126.85 E.04522
G1 X110.44 Y125.466 E.08625
G1 X110.44 Y114.534 E.66675
G1 X110.663 Y113.362 E.07276
G1 X111.205 Y112.148 E.08109
G1 X111.679 Y111.531 E.04745
G1 E-.805 F3600
;WIPE_START
G1 F1200
G1 X111.897 Y111.247 E-.12324
G1 X112.389 Y110.834 E-.22176
;WIPE_END
G1 X117.624 Y120.393 F9000
G1 E1.15 F2400
;TYPE:Inner wall
;WIDTH:0.585913
G1 F1200
G1 X117.601 Y120.227 E.00958
G1 X117.621 Y119.536 E.0396
G1 X117.673 Y119.564 E.0034
;WIDTH:0.590444
G1 X118.201 Y119.797 E.03333
;WIDTH:0.62772
G1 X118.38 Y119.853 E.01159
;WIDTH:0.664997
G1 X118.559 Y119.909 E.01234
;WIDTH:0.702272
G1 X118.737 Y119.964 E.0131
G1 X118.601 Y119.989 E.00968
;WIDTH:0.674811
G1 X118.465 Y120.013 E.00926
;WIDTH:0.647349
G1 X118.212 Y120.103 E.01713
;WIDTH:0.616632
G1 X117.96 Y120.193 E.01624
;WIDTH:0.585913
G1 X117.676 Y120.362 E.01896
G1 X118.942 Y119.965 F9000
;WIDTH:0.748705
G1 F1200
G1 X119.143 Y119.943 E.01516
;WIDTH:0.788628
G1 X119.345 Y119.921 E.01603
;WIDTH:0.82855
G1 X119.546 Y119.899 E.01691
G1 X119.761 Y119.804 E.01965
G1 X120.161 Y119.53 E.04047
G1 X120.643 Y119.622 E.04096
G1 X120.65 Y120.89 E.10592
G1 X120.306 Y120.48 E.04471
G1 X119.769 Y120.112 E.05438
G1 X119.348 Y119.988 E.03666
;WIDTH:0.791327
G1 X119.145 Y119.977 E.01615
;WIDTH:0.750055
G1 X119.002 Y119.969 E.01074
G1 E-.805 F3600
;WIPE_START
G1 F1200
G1 X119.143 Y119.943 E-.04953
G1 X119.345 Y119.921 E-.06983
G1 X119.546 Y119.899 E-.06983
G1 X119.761 Y119.804 E-.08116
G1 X119.94 Y119.682 E-.07466
;WIPE_END
G1 X124.797 Y121.349 F9000
G1 E1.15 F2400
;WIDTH:0.684024
G1 F1200
G1 X124.782 Y120.145 E.08172
;WIDTH:0.655384
G1 X124.776 Y119.498 E.04194
;WIDTH:0.643987
G1 X125.412 Y119.345 E.04157
G1 X125.384 Y119.484 E.00896
;WIDTH:0.655384
G1 X125.377 Y120.093 E.03953
;WIDTH:0.684024
G1 X125.48 Y120.494 E.0281
G1 X125.337 Y120.601 E.01211
G1 X125.08 Y120.87 E.02525
G1 X124.827 Y121.297 E.03373
G1 E-.805 F3600
;WIPE_START
G1 F1200
G1 X124.788 Y120.298 E-.345
;WIPE_END
G1 X117.82 Y124.593 F9000
G1 E1.15 F2400
;WIDTH:0.668224
G1 F1200
G1 X118.007 Y124.594 E.01239
G1 X118.685 Y124.454 E.0458
;WIDTH:0.62
G1 X119.276 Y124.245 E.03825
G1 X119.834 Y123.901 E.03998
G1 X120.26 Y123.506 E.03542
G1 X120.492 Y123.184 E.02422
G1 X120.738 Y122.71 E.03252
G1 X120.847 Y123.19 E.02998
G1 X120.94 Y123.403 E.01417
G1 X121.154 Y123.747 E.0247
G1 X121.582 Y124.111 E.03426
G1 X122.106 Y124.35 E.03515
G1 X122.612 Y124.446 E.03143
G1 X123.152 Y124.4 E.03303
G1 X123.642 Y124.238 E.03147
G1 X124.107 Y123.924 E.03423
G1 X124.303 Y123.709 E.01776
G1 X124.527 Y123.368 E.02489
G1 X124.736 Y122.7 E.04265
G1 X125.013 Y123.353 E.04327
G1 X125.257 Y123.68 E.02489
G1 X125.65 Y124.015 E.03147
G1 X126.08 Y124.262 E.03028
G1 X126.619 Y124.455 E.03491
G1 X126.991 Y124.534 E.02319
G1 X127.994 Y124.587 E.06128
G1 X128.663 Y124.486 E.04125
G1 X129.254 Y124.289 E.03794
G1 X129.666 Y124.071 E.02845
G1 X130.078 Y123.756 E.03162
G1 X130.37 Y124.051 E.02534
G1 X130.555 Y124.166 E.01326
G1 X131.039 Y124.393 E.03262
G1 X131.457 Y124.439 E.02561
G1 X132.073 Y124.415 E.03761
G1 X132.921 Y124.421 E.05169
G1 X133.656 Y124.364 E.04499
G1 X134.422 Y124.2 E.04776
G1 X134.888 Y124.008 E.03073
G1 X134.983 Y124.122 E.00902
G1 X135.311 Y124.398 E.02617
G1 X135.846 Y124.721 E.03806
G1 X136.41 Y124.862 E.03551
G1 X137.052 Y124.881 E.03917
G1 X137.409 Y124.792 E.02243
G1 X137.914 Y124.59 E.03318
G1 X138.243 Y124.373 E.02402
G1 X138.444 Y124.466 E.0135
G1 X138.917 Y124.579 E.02964
G1 X139.387 Y124.538 E.02877
G1 X139.782 Y124.415 E.02526
G1 X140.078 Y124.226 E.02144
G1 X140.401 Y124.429 E.0233
G1 X140.814 Y124.569 E.02659
G1 X140.76 Y124.996 E.02625
G1 X140.785 Y125.424 E.02613
G1 X141.015 Y126.069 E.04178
G1 X141.341 Y126.515 E.03368
G1 X140.717 Y126.565 E.0382
M73 P1 R55
G1 X139.838 Y126.58 E.05361
G1 X139.217 Y126.556 E.03787
G1 X118.731 Y125.307 E1.25175
;WIDTH:0.665056
G1 X117.691 Y125.221 E.06875
;WIDTH:0.671558
G1 X116.774 Y125.162 E.06112
;WIDTH:0.706311
G1 X116.275 Y125.096 E.03538
;WIDTH:0.741063
G1 X115.777 Y125.03 E.03727
G1 X115.716 Y124.871 E.01261
G1 X115.714 Y124.205 E.04934
G1 X115.887 Y124.298 E.01457
G1 X116.233 Y124.428 E.02736
;WIDTH:0.731228
G1 X116.701 Y124.509 E.03471
;WIDTH:0.694216
G1 X117.169 Y124.59 E.03281
;WIDTH:0.668224
G1 X117.76 Y124.593 E.0391
G1 X117.814 Y124.013 F9000
;WIDTH:0.62
G1 F1200
G1 X117.908 Y124.014 E.00571
G1 X118.774 Y123.844 E.05384
G1 X119.203 Y123.646 E.02878
G1 X119.656 Y123.319 E.03412
G1 X119.995 Y122.917 E.03205
;WIDTH:0.663261
G1 X120.082 Y122.783 E.01049
;WIDTH:0.706523
G1 X120.168 Y122.649 E.01123
;WIDTH:0.749785
G1 X120.255 Y122.514 E.01198
;WIDTH:0.793047
G1 X120.341 Y122.38 E.01273
;WIDTH:0.836309
G1 X120.428 Y122.246 E.01347
;WIDTH:0.842844
G1 X120.428 Y121.752 E.04206
G1 X120.381 Y121.678 E.00745
;WIDTH:0.794571
G1 X120.334 Y121.604 E.00699
;WIDTH:0.746297
G1 X120.287 Y121.53 E.00653
;WIDTH:0.698023
G1 X120.24 Y121.456 E.00608
;WIDTH:0.64975
G1 X119.901 Y121.012 E.03587
;WIDTH:0.62
G1 X119.632 Y120.807 E.0206
G1 X119.359 Y120.669 E.01864
G1 X118.93 Y120.574 E.02682
G1 X118.486 Y120.599 E.02716
G1 X118.06 Y120.76 E.02778
G1 X117.688 Y121.062 E.0292
G1 X117.552 Y121.085 E.0084
G1 X117.275 Y120.992 E.01786
G1 X117.161 Y120.794 E.01391
G1 X117.055 Y120.257 E.03339
G1 X117.07 Y119.55 E.04309
G1 X117.154 Y119.15 E.02496
G1 X117.252 Y118.964 E.01279
G1 X117.462 Y118.858 E.01433
G1 X117.674 Y118.938 E.0138
G1 X118.192 Y119.213 E.03582
G1 X118.773 Y119.36 E.03653
G1 X118.994 Y119.344 E.01353
G1 X119.446 Y119.215 E.02864
G1 X119.833 Y118.936 E.02914
G1 X120.019 Y118.681 E.0192
G1 X120.14 Y118.774 E.00935
G1 X120.465 Y118.924 E.02178
G1 X120.966 Y118.986 E.0308
G1 X121.318 Y118.974 E.02146
G1 X121.315 Y120.306 E.08124
;WIDTH:0.64975
G1 X121.306 Y121.192 E.05693
;WIDTH:0.698023
G1 X121.283 Y121.321 E.00908
;WIDTH:0.746297
G1 X121.259 Y121.45 E.00977
;WIDTH:0.794571
G1 X121.236 Y121.579 E.01045
;WIDTH:0.842844
G1 X121.212 Y121.707 E.01113
G1 X121.214 Y122.113 E.03453
;WIDTH:0.826198
G1 X121.224 Y122.354 E.02007
;WIDTH:0.786149
G1 X121.234 Y122.595 E.01903
;WIDTH:0.7461
G1 X121.278 Y122.719 E.00981
;WIDTH:0.704067
G1 X121.322 Y122.843 E.00921
;WIDTH:0.662033
G1 X121.365 Y122.967 E.00861
;WIDTH:0.62
G1 X121.585 Y123.383 E.02873
G1 X121.916 Y123.656 E.02614
G1 X122.231 Y123.8 E.02109
G1 X122.647 Y123.883 E.02588
G1 X123.076 Y123.841 E.02632
G1 X123.37 Y123.744 E.01888
G1 X123.712 Y123.52 E.02492
G1 X124.016 Y123.129 E.03023
G1 X124.183 Y122.594 E.03419
;WIDTH:0.666223
G1 X124.212 Y122.554 E.00329
;WIDTH:0.712447
G1 X124.242 Y122.514 E.00354
;WIDTH:0.75867
G1 X124.272 Y122.474 E.00379
;WIDTH:0.804894
G1 X124.302 Y122.434 E.00404
;WIDTH:0.851117
G1 X124.331 Y122.394 E.00429
;WIDTH:0.855561
G1 X124.327 Y121.938 E.03938
G1 X124.301 Y121.811 E.01118
;WIDTH:0.808449
G1 X124.276 Y121.684 E.01052
;WIDTH:0.761337
G1 X124.251 Y121.557 E.00986
;WIDTH:0.714224
G1 X124.226 Y121.431 E.00921
;WIDTH:0.667112
G1 X124.201 Y121.304 E.00855
;WIDTH:0.62
G1 X124.2 Y118.976 E.14193
G1 X124.326 Y118.979 E.00768
G1 X124.909 Y118.887 E.03599
G1 X125.326 Y118.763 E.02654
G1 X125.606 Y118.532 E.02216
G1 X125.85 Y118.807 E.02244
G1 X126.174 Y118.976 E.0223
G1 X126.09 Y119.11 E.00965
G1 X125.959 Y119.526 E.02658
G1 X125.95 Y119.993 E.02847
G1 X126.054 Y120.329 E.02144
G1 X126.186 Y120.576 E.0171
G1 X126.365 Y120.751 E.01525
G1 X126.299 Y120.763 E.00406
G1 X125.824 Y120.98 E.03186
G1 X125.526 Y121.266 E.02521
;WIDTH:0.667112
G1 X125.446 Y121.404 E.01051
;WIDTH:0.714224
G1 X125.366 Y121.541 E.01132
;WIDTH:0.761337
G1 X125.286 Y121.678 E.01213
;WIDTH:0.808449
G1 X125.206 Y121.816 E.01294
;WIDTH:0.855561
G1 X125.126 Y121.953 E.01375
G1 X125.119 Y122.3 E.02995
;WIDTH:0.84655
G1 X125.145 Y122.36 E.00561
;WIDTH:0.811968
G1 X125.172 Y122.42 E.00536
;WIDTH:0.777385
G1 X125.223 Y122.526 E.00921
;WIDTH:0.738039
G1 X125.275 Y122.632 E.00871
;WIDTH:0.698692
G1 X125.327 Y122.738 E.00821
;WIDTH:0.659346
G1 X125.379 Y122.845 E.00771
;WIDTH:0.62
G1 X125.583 Y123.198 E.02487
G1 X125.84 Y123.439 E.02148
G1 X126.27 Y123.731 E.03175
G1 X127.032 Y123.971 E.04873
G1 X127.939 Y124.025 E.05538
G1 X128.485 Y123.95 E.03365
G1 X129.076 Y123.754 E.03794
G1 X129.323 Y123.623 E.01707
G1 X129.844 Y123.224 E.04003
G1 X130.214 Y122.763 E.03607
G1 X130.31 Y123.106 E.02173
G1 X130.438 Y123.322 E.01535
G1 X130.721 Y123.606 E.02438
G1 X131.184 Y123.847 E.03186
G1 X131.434 Y123.875 E.01537
G1 X132.079 Y123.851 E.03933
G1 X132.891 Y123.857 E.04956
G1 X133.538 Y123.813 E.03953
G1 X134.294 Y123.651 E.04714
G1 X134.774 Y123.433 E.03219
G1 X135.067 Y123.205 E.02263
G1 X135.114 Y123.334 E.00833
G1 X135.317 Y123.644 E.02263
G1 X135.66 Y123.955 E.02825
G1 X136.031 Y124.188 E.02672
G1 X136.446 Y124.299 E.02617
G1 X136.989 Y124.32 E.03315
G1 X137.614 Y124.106 E.04029
G1 X137.949 Y123.886 E.02444
G1 X138.177 Y123.611 E.02178
G1 X138.559 Y123.901 E.02931
G1 X138.951 Y124.016 E.02488
G1 X139.446 Y123.944 E.0305
G1 X139.748 Y123.768 E.02131
G1 X140.107 Y123.456 E.02902
G1 X140.15 Y123.532 E.00529
G1 X140.377 Y123.747 E.01905
G1 X140.84 Y124.003 E.03229
;WIDTH:0.625183
G1 X141.451 Y124.055 E.03775
;WIDTH:0.654114
G1 X141.9 Y123.914 E.03045
G1 X141.733 Y124.065 E.01459
;WIDTH:0.640823
G1 X141.458 Y124.415 E.02817
;WIDTH:0.62
G1 X141.35 Y124.754 E.02165
G1 X141.329 Y125.269 E.03146
G1 X141.5 Y125.767 E.03211
G1 X141.685 Y126.06 E.02113
G1 X142.091 Y126.408 E.0326
;WIDTH:0.622916
G1 X142.455 Y126.547 E.02386
;WIDTH:0.669487
G1 X142.567 Y126.577 E.00771
;WIDTH:0.716056
G1 X142.679 Y126.608 E.00829
;WIDTH:0.762627
G1 X142.791 Y126.639 E.00888
;WIDTH:0.809196
G1 X142.903 Y126.669 E.00946
;WIDTH:0.855766
G1 X143.015 Y126.7 E.01005
G1 X142.898 Y126.748 E.01094
;WIDTH:0.808613
G1 X142.781 Y126.797 E.01029
;WIDTH:0.76146
G1 X142.664 Y126.845 E.00965
;WIDTH:0.714306
G1 X142.548 Y126.894 E.009
;WIDTH:0.667153
G1 X142.431 Y126.942 E.00836
;WIDTH:0.62
G1 X141.603 Y127.059 E.05096
G1 X140.744 Y127.129 E.05257
G1 X139.832 Y127.144 E.05567
G1 X139.189 Y127.119 E.0392
G1 X115.896 Y125.699 E1.42326
G1 X115.448 Y125.571 E.02843
G1 X115.204 Y125.321 E.02126
G1 X115.091 Y124.92 E.02542
G1 X115.085 Y122.961 E.11949
G1 X115.671 Y123.471 E.04736
G1 X116.383 Y123.826 E.04855
G1 X117.188 Y124.008 E.05036
G1 X117.754 Y124.013 E.03452
G1 E-.805 F3600
;WIPE_START
G1 F1200
G1 X117.908 Y124.014 E-.05301
G1 X118.738 Y123.851 E-.29199
;WIPE_END
G1 X118.737 Y119.964 F9000
G1 E1.15 F2400
;WIDTH:0.708782
G1 F1200
G1 X118.942 Y119.965 E.01446
G1 E-.805 F3600
;WIPE_START
G1 F1200
G1 X118.737 Y119.964 E-.345
;WIPE_END
G1 X135.55 Y121.846 F9000
G1 E1.15 F2400
;TYPE:Outer wall
;WIDTH:0.697137
G1 F1200
G1 X135.637 Y121.644 E.01523
G1 E-.805 F3600
;WIPE_START
G1 F1200
G1 X135.55 Y121.846 E-.345
;WIPE_END
G1 X138.201 Y122.391 F9000
G1 E1.15 F2400
;WIDTH:0.903476
G1 F1200
G1 X138.151 Y122.736 E.03196
G1 E-.805 F3600
;WIPE_START
G1 F1200
G1 X138.201 Y122.391 E-.345
;WIPE_END
G1 X142.265 Y121.35 F9000
G1 E1.15 F2400
;TYPE:Inner wall
;WIDTH:0.768178
G1 F1200
G1 X142.207 Y121.28 E.00703
;WIDTH:0.724711
G1 X142.114 Y121.167 E.01053
;WIDTH:0.681243
G1 X142.021 Y121.055 E.00985
;WIDTH:0.637776
G1 X141.928 Y120.943 E.00916
;WIDTH:0.594309
G1 X141.835 Y120.831 E.00848
;WIDTH:0.550841
G1 X141.762 Y120.709 E.00761
G1 X142.104 Y120.117 E.0366
G1 X142.28 Y120.618 E.02841
;WIDTH:0.594309
G1 X142.309 Y120.76 E.00848
;WIDTH:0.637776
G1 X142.338 Y120.903 E.00916
;WIDTH:0.681243
G1 X142.368 Y121.046 E.00985
;WIDTH:0.724711
G1 X142.397 Y121.188 E.01053
;WIDTH:0.768178
G1 X142.426 Y121.331 E.01121
;WIDTH:0.811645
G1 X142.456 Y121.474 E.0119
;WIDTH:0.855112
G1 X142.485 Y121.616 E.01258
G1 X142.392 Y121.504 E.01258
;WIDTH:0.811645
G1 X142.303 Y121.396 E.01144
G1 E-.805 F3600
;WIPE_START
G1 F1200
G1 X142.207 Y121.28 E-.05219
G1 X142.114 Y121.167 E-.05024
G1 X142.021 Y121.055 E-.05024
G1 X141.928 Y120.943 E-.05024
G1 X141.835 Y120.831 E-.05024
G1 X141.762 Y120.709 E-.04904
G1 X141.824 Y120.601 E-.04279
;WIPE_END
G1 X146.471 Y121.577 F9000
G1 E1.15 F2400
;WIDTH:0.646538
G1 F1200
G1 X146.508 Y121.443 E.00888
;WIDTH:0.625495
G1 X146.593 Y121.151 E.01872
;WIDTH:0.590668
G1 X146.678 Y120.859 E.01758
;WIDTH:0.555841
G1 X146.918 Y120.012 E.04759
G1 X147.169 Y120.172 E.0161
G1 X147.465 Y120.288 E.0172
G1 X146.896 Y121.027 E.05043
;WIDTH:0.60119
