; generated by PrusaSlicer 2.6.1+win64 on 2023-10-15 at 13:23:07 UTC


;
;

;
;
; 

; external perimeters extrusion width = 0.60mm
; perimeters extrusion width = 0.60mm
; infill extrusion width = 0.65mm
; solid infill extrusion width = 0.60mm
; top infill extrusion width = 0.65mm
; support material extrusion width = 0.65mm
; first layer extrusion width = 0.60mm

; external perimeters extrusion width = 0.60mm
; perimeters extrusion width = 0.60mm
; infill extrusion width = 0.65mm
; solid infill extrusion width = 0.60mm
; top infill extrusion width = 0.65mm
; support material extrusion width = 0.65mm
; first layer extrusion width = 0.60mm

M73 P0 R62
;TYPE:Custom
M104 S216 ; set extruder temp
M140 S60 ; set bed temp
M190 S60 ; wait for bed temp
M109 S216 ; wait for extruder temp

G28 ; home all
BED_MESH_PROFILE LOAD=default;

G1 Z2.0 F3000 ; Move Z Axis up little to prevent scratching of Heat Bed
G1 X0.1 Y5 Z0.28 F5000.0 ; Move to start position


G92 E0 ; Reset Extruder
G1 Z2.0 F3000 ; Move Z Axis up little to prevent scratching of Heat Bed
G1 X0.1 Y10 Z0.28 F5000.0 ; Move to start position

G1 X0.1 Y200 Z0.28 F1500.0 E15 ; Draw the first line
G1 X0.4 Y200 Z0.28 F5000.0 ; Move to side a little
G1 X0.4 Y10 Z0.28 F1500.0 E30 ; Draw the second line


G92 E0 ; Reset Extruder
G1 Z0.5 F3000 ; Move Z Axis up little to prevent scratching of Heat Bed
M117 Godmode is enabled
G21 ; set units to millimeters
G90 ; use absolute coordinates
M82 ; use absolute distances for extrusion
G92 E0
; Filament gcode
M107
;LAYER_CHANGE
;Z:0.3
;HEIGHT:0.3
G1 Z.3 F7800
G1 E-1.4 F2400
G92 E0
G1 Z.8 F7800
G1 X29.019 Y126.333
G1 Z.3
G1 E1.4 F2400
;TYPE:Skirt/Brim
;WIDTH:0.6
G1 F1800
G1 X29.955 Y126.15 E1.46371
G1 X30.893 Y126.083 E1.52653
G1 X269.08 Y126.082 E17.43871
G1 X269.966 Y126.14 E17.49803
M73 P0 R61
G1 X270.811 Y126.291 E17.55537
G1 X271.888 Y126.626 E17.63072
G1 X272.724 Y127.011 E17.69221
G1 X273.51 Y127.491 E17.75374
G1 X274.236 Y128.059 E17.81532
G1 X274.87 Y128.684 E17.87479
G1 X275.565 Y129.572 E17.95012
G1 X276.005 Y130.307 E18.00735
G1 X276.374 Y131.112 E18.06651
G1 X276.71 Y132.19 E18.14194
G1 X276.864 Y133.067 E18.20142
G1 X276.92 Y133.983 E18.26273
G1 X276.92 Y138.018 E18.53229
G1 X276.855 Y139.005 E18.59837
G1 X276.684 Y139.913 E18.6601
G1 X276.409 Y140.795 E18.72182
G1 X276.019 Y141.667 E18.78564
G1 X275.544 Y142.459 E18.84734
G1 X274.96 Y143.215 E18.91116
G1 X274.288 Y143.895 E18.97503
G1 X273.541 Y144.488 E19.03875
G1 X272.727 Y144.987 E19.10253
G1 X271.891 Y145.373 E19.16405
G1 X270.983 Y145.667 E19.22781
G1 X270.045 Y145.85 E19.29165
G1 X269.107 Y145.917 E19.35447
G1 X30.95 Y145.919 E35.26465
G1 X30.065 Y145.864 E35.32389
G1 X29.19 Y145.709 E35.38325
G1 X28.112 Y145.374 E35.45866
G1 X27.333 Y145.019 E35.51585
G1 X26.571 Y144.565 E35.57511
G1 X25.685 Y143.871 E35.6503
G1 X25.04 Y143.214 E35.71181
G1 X24.475 Y142.488 E35.77327
G1 X23.999 Y141.701 E35.83471
G1 X23.627 Y140.89 E35.89432
G1 X23.291 Y139.812 E35.96975
G1 X23.14 Y138.969 E36.02696
G1 X23.082 Y138.102 E36.08501
G1 X23.08 Y133.983 E36.36018
G1 X23.145 Y132.995 E36.42633
G1 X23.316 Y132.087 E36.48806
G1 X23.591 Y131.205 E36.54978
G1 X23.966 Y130.363 E36.61136
G1 X24.455 Y129.542 E36.6752
G1 X25.039 Y128.787 E36.73897
G1 X25.71 Y128.107 E36.80279
G1 X26.459 Y127.513 E36.86665
G1 X27.274 Y127.012 E36.93056
G1 X28.143 Y126.615 E36.99439
G1 X28.933 Y126.36 E37.04985
G1 X29.096 Y126.87 F7800
G1 F1800
G1 X30.04 Y126.679 E37.11419
G1 X30.921 Y126.618 E37.17319
G1 X269.055 Y126.617 E53.08183
G1 X269.887 Y126.67 E53.13752
M73 P1 R61
G1 X270.701 Y126.815 E53.19276
G1 X271.68 Y127.12 E53.26126
G1 X272.459 Y127.477 E53.31851
G1 X273.194 Y127.923 E53.37594
G1 X273.871 Y128.451 E53.4333
G1 X274.481 Y129.053 E53.49055
G1 X275.114 Y129.861 E53.55912
G1 X275.538 Y130.568 E53.61419
G1 X275.88 Y131.319 E53.66932
G1 X276.185 Y132.3 E53.73795
G1 X276.334 Y133.145 E53.79527
G1 X276.385 Y133.991 E53.85189
G1 X276.385 Y138.009 E54.12031
G1 X276.325 Y138.922 E54.18143
G1 X276.161 Y139.798 E54.24097
G1 X275.903 Y140.619 E54.29846
G1 X275.537 Y141.432 E54.35802
G1 X275.094 Y142.169 E54.41547
G1 X274.547 Y142.873 E54.47503
G1 X273.919 Y143.506 E54.5346
G1 X273.222 Y144.057 E54.59396
G1 X272.462 Y144.522 E54.65348
G1 X271.682 Y144.879 E54.71079
G1 X270.835 Y145.152 E54.77024
G1 X269.96 Y145.321 E54.82978
G1 X269.079 Y145.382 E54.88878
G1 X30.975 Y145.384 E70.79542
G1 X30.114 Y145.33 E70.85305
G1 X29.3 Y145.185 E70.90829
G1 X28.319 Y144.88 E70.97692
G1 X27.569 Y144.538 E71.03199
G1 X26.861 Y144.114 E71.08712
G1 X26.054 Y143.482 E71.1556
G1 X25.452 Y142.872 E71.21285
G1 X24.925 Y142.196 E71.27011
G1 X24.479 Y141.463 E71.32743
G1 X24.121 Y140.683 E71.38476
G1 X23.815 Y139.702 E71.45341
G1 X23.67 Y138.89 E71.50851
G1 X23.617 Y138.076 E71.563
G1 X23.615 Y133.991 E71.8359
G1 X23.675 Y133.078 E71.89702
G1 X23.839 Y132.202 E71.95656
G1 X24.097 Y131.381 E72.01405
G1 X24.448 Y130.596 E72.0715
G1 X24.906 Y129.831 E72.13107
G1 X25.451 Y129.129 E72.19044
G1 X26.079 Y128.496 E72.25001
G1 X26.778 Y127.943 E72.30955
G1 X27.539 Y127.478 E72.36913
G1 X28.35 Y127.109 E72.42865
G1 X29.011 Y126.898 E72.475
G1 X29.172 Y127.408 F7800
G1 F1800
G1 X29.313 Y127.363 E72.48489
G1 X30.124 Y127.209 E72.54004
G1 X30.948 Y127.153 E72.59521
G1 X269.03 Y127.152 E88.50038
G1 X269.809 Y127.2 E88.55252
G1 X270.59 Y127.339 E88.60551
G1 X271.474 Y127.615 E88.66738
G1 X272.195 Y127.943 E88.7203
G1 X272.902 Y128.373 E88.77558
G1 X273.528 Y128.863 E88.82869
G1 X274.092 Y129.422 E88.88174
G1 X274.663 Y130.15 E88.94355
G1 X275.07 Y130.83 E88.99649
G1 X275.385 Y131.525 E89.04747
G1 X275.661 Y132.411 E89.10946
G1 X275.8 Y133.193 E89.16252
G1 X275.849 Y133.999 E89.21646
G1 X275.849 Y138.001 E89.48382
G1 X275.796 Y138.841 E89.54005
G1 X275.645 Y139.655 E89.59536
G1 X275.408 Y140.415 E89.64854
G1 X275.07 Y141.17 E89.7038
G1 X274.644 Y141.878 E89.759
G1 X274.135 Y142.53 E89.81426
G1 X273.552 Y143.116 E89.86948
G1 X272.904 Y143.626 E89.92457
G1 X272.197 Y144.055 E89.97982
G1 X271.475 Y144.385 E90.03285
G1 X270.688 Y144.636 E90.08804
G1 X269.876 Y144.791 E90.14327
G1 X269.052 Y144.847 E90.19844
G1 X30.999 Y144.849 E106.10167
G1 X30.193 Y144.8 E106.15561
G1 X29.411 Y144.661 E106.20867
G1 X28.525 Y144.385 E106.27066
G1 X27.83 Y144.07 E106.32164
G1 X27.15 Y143.663 E106.37458
G1 X26.423 Y143.093 E106.4363
G1 X25.865 Y142.53 E106.48925
G1 X25.357 Y141.879 E106.54441
G1 X24.946 Y141.199 E106.59749
G1 X24.616 Y140.476 E106.65058
G1 X24.339 Y139.59 E106.71259
G1 X24.204 Y138.839 E106.76357
G1 X24.152 Y138.05 E106.81639
G1 X24.151 Y133.999 E107.08702
G1 X24.204 Y133.159 E107.14325
G1 X24.355 Y132.345 E107.19856
G1 X24.592 Y131.585 E107.25174
G1 X24.93 Y130.83 E107.307
G1 X25.356 Y130.122 E107.3622
G1 X25.863 Y129.472 E107.41727
G1 X26.446 Y128.886 E107.47249
G1 X27.096 Y128.374 E107.52777
G1 X27.803 Y127.945 E107.58302
G1 X28.556 Y127.603 E107.63827
G1 X29.087 Y127.435 E107.67548
G1 X29.247 Y127.945 F7800
G1 F1800
G1 X29.458 Y127.879 E107.69025
G1 X30.207 Y127.738 E107.74117
G1 X30.974 Y127.688 E107.79252
G1 X269.005 Y127.687 E123.69428
G1 X269.76 Y127.734 E123.74482
M73 P2 R61
G1 X270.478 Y127.863 E123.79355
G1 X271.268 Y128.11 E123.84885
G1 X271.932 Y128.41 E123.89753
G1 X272.585 Y128.804 E123.94848
G1 X273.185 Y129.275 E123.99944
G1 X273.703 Y129.79 E124.04824
G1 X274.213 Y130.441 E124.10349
G1 X274.589 Y131.066 E124.15222
G1 X274.89 Y131.731 E124.20098
G1 X275.136 Y132.521 E124.25626
G1 X275.27 Y133.271 E124.30716
G1 X275.313 Y134.007 E124.35641
G1 X275.313 Y137.993 E124.6227
G1 X275.266 Y138.761 E124.6741
G1 X275.129 Y139.511 E124.72503
G1 X274.901 Y140.24 E124.77606
G1 X274.588 Y140.935 E124.82698
G1 X274.194 Y141.587 E124.87787
G1 X273.724 Y142.187 E124.92879
G1 X273.185 Y142.725 E124.97967
G1 X272.587 Y143.194 E125.03044
G1 X271.934 Y143.589 E125.08142
G1 X271.269 Y143.89 E125.13018
G1 X270.542 Y144.121 E125.18114
G1 X269.793 Y144.262 E125.23206
G1 X269.026 Y144.312 E125.28341
G1 X31.007 Y144.313 E141.18437
G1 X30.271 Y144.27 E141.23362
M73 P2 R60
G1 X29.521 Y144.136 E141.28452
G1 X28.731 Y143.89 E141.3398
G1 X28.066 Y143.589 E141.38856
G1 X27.441 Y143.213 E141.43729
G1 X26.79 Y142.703 E141.49254
G1 X26.276 Y142.187 E141.5412
G1 X25.806 Y141.587 E141.59212
G1 X25.426 Y140.962 E141.64099
G1 X25.11 Y140.269 E141.69187
G1 X24.864 Y139.478 E141.74721
G1 X24.734 Y138.76 E141.79596
G1 X24.688 Y138.025 E141.84516
G1 X24.687 Y134.007 E142.11358
G1 X24.734 Y133.239 E142.16498
G1 X24.871 Y132.489 E142.21591
G1 X25.099 Y131.76 E142.26694
G1 X25.412 Y131.065 E142.31786
G1 X25.806 Y130.413 E142.36875
G1 X26.275 Y129.815 E142.41952
G1 X26.813 Y129.276 E142.4704
G1 X27.413 Y128.806 E142.52132
G1 X28.065 Y128.412 E142.57221
G1 X28.761 Y128.098 E142.62322
G1 X29.161 Y127.972 E142.65124
G1 X29.322 Y128.483 F7800
G1 F1800
G1 X29.603 Y128.395 E142.67091
G1 X30.288 Y128.268 E142.71745
G1 X30.999 Y128.223 E142.76504
G1 X268.998 Y128.223 E158.66466
G1 X269.681 Y128.264 E158.71037
G1 X270.367 Y128.388 E158.75694
G1 X271.063 Y128.605 E158.80564
G1 X271.67 Y128.878 E158.8501
G1 X272.269 Y129.237 E158.89675
G1 X272.819 Y129.666 E158.94335
G1 X273.313 Y130.158 E158.98993
G1 X273.763 Y130.732 E159.03866
G1 X274.107 Y131.302 E159.08314
G1 X274.395 Y131.937 E159.12972
G1 X274.612 Y132.633 E159.17842
G1 X274.736 Y133.319 E159.22499
G1 X274.778 Y134.015 E159.27157
G1 X274.778 Y137.985 E159.53679
G1 X274.736 Y138.68 E159.5833
G1 X274.605 Y139.398 E159.63206
G1 X274.396 Y140.063 E159.67863
G1 X274.108 Y140.698 E159.72521
G1 X273.745 Y141.294 E159.77183
G1 X273.313 Y141.842 E159.81845
G1 X272.819 Y142.334 E159.86503
G1 X272.294 Y142.745 E159.90957
G1 X271.698 Y143.108 E159.95619
G1 X271.063 Y143.396 E160.00277
G1 X270.397 Y143.605 E160.0494
G1 X269.712 Y143.732 E160.09594
G1 X269.001 Y143.777 E160.14353
G1 X31.015 Y143.778 E176.04228
G1 X30.319 Y143.736 E176.08886
G1 X29.633 Y143.612 E176.13543
G1 X28.937 Y143.395 E176.18413
G1 X28.302 Y143.107 E176.23071
G1 X27.732 Y142.763 E176.27519
G1 X27.157 Y142.313 E176.32397
G1 X26.687 Y141.842 E176.36842
G1 X26.255 Y141.294 E176.41504
G1 X25.892 Y140.698 E176.46166
G1 X25.605 Y140.063 E176.50821
G1 X25.388 Y139.367 E176.55691
G1 X25.264 Y138.681 E176.60348
G1 X25.223 Y138.001 E176.64899
G1 X25.222 Y134.015 E176.91528
G1 X25.264 Y133.32 E176.96179
G1 X25.395 Y132.602 E177.01055
G1 X25.604 Y131.937 E177.05712
G1 X25.892 Y131.302 E177.1037
G1 X26.255 Y130.706 E177.15032
G1 X26.666 Y130.181 E177.19486
G1 X27.158 Y129.687 E177.24144
G1 X27.706 Y129.255 E177.28806
G1 X28.302 Y128.892 E177.33468
G1 X28.937 Y128.604 E177.38126
G1 X29.236 Y128.51 E177.4022
G1 E176.0022 F2400
G92 E0
G1 Z.8 F7800
G1 X30.055 Y123.862
G1 Z.3
G1 E1.4 F2400
G1 F1800
G1 X29.19 Y123.709 E1.45868
G1 X28.112 Y123.374 E1.53409
G1 X27.333 Y123.019 E1.59128
G1 X26.571 Y122.565 E1.65054
G1 X25.684 Y121.87 E1.72582
G1 X25.058 Y121.235 E1.78539
G1 X24.491 Y120.51 E1.84688
G1 X24.012 Y119.726 E1.90826
G1 X23.627 Y118.89 E1.96975
G1 X23.291 Y117.812 E2.04518
G1 X23.14 Y116.969 E2.10239
G1 X23.082 Y116.102 E2.16044
G1 X23.08 Y111.983 E2.43561
G1 X23.145 Y110.995 E2.50176
G1 X23.316 Y110.087 E2.56349
G1 X23.591 Y109.205 E2.62521
G1 X23.981 Y108.333 E2.68903
G1 X24.456 Y107.541 E2.75073
G1 X25.04 Y106.785 E2.81455
G1 X25.712 Y106.105 E2.87842
G1 X26.459 Y105.512 E2.94214
G1 X27.273 Y105.013 E3.00592
G1 X28.109 Y104.627 E3.06744
G1 X29.017 Y104.333 E3.1312
G1 X29.955 Y104.15 E3.19504
G1 X30.893 Y104.083 E3.25786
G1 X269.08 Y104.082 E19.17004
G1 X269.966 Y104.14 E19.22936
M73 P3 R60
G1 X270.811 Y104.291 E19.2867
G1 X271.888 Y104.626 E19.36205
G1 X272.724 Y105.011 E19.42354
G1 X273.51 Y105.491 E19.48507
G1 X274.236 Y106.059 E19.54665
G1 X274.87 Y106.684 E19.60612
G1 X275.565 Y107.571 E19.6814
G1 X276.019 Y108.333 E19.74066
G1 X276.374 Y109.112 E19.79785
G1 X276.71 Y110.19 E19.87328
G1 X276.864 Y111.067 E19.93276
G1 X276.92 Y111.983 E19.99407
G1 X276.92 Y116.018 E20.26363
G1 X276.855 Y117.005 E20.32971
G1 X276.684 Y117.913 E20.39144
G1 X276.409 Y118.795 E20.45316
G1 X276.034 Y119.637 E20.51474
G1 X275.545 Y120.458 E20.57858
G1 X274.961 Y121.213 E20.64235
G1 X274.29 Y121.893 E20.70617
G1 X273.541 Y122.487 E20.77003
G1 X272.727 Y122.987 E20.83385
G1 X271.891 Y123.373 E20.89537
G1 X270.983 Y123.667 E20.95913
G1 X270.045 Y123.85 E21.02297
G1 X269.107 Y123.917 E21.08579
G1 X30.95 Y123.919 E36.99597
G1 X30.144 Y123.869 E37.04992
G1 X30.178 Y123.334 F7800
G1 F1800
G1 X29.3 Y123.185 E37.10941
G1 X28.319 Y122.88 E37.17804
G1 X27.568 Y122.538 E37.23317
G1 X26.861 Y122.114 E37.28824
G1 X26.053 Y121.481 E37.35681
G1 X25.451 Y120.87 E37.41411
G1 X24.923 Y120.193 E37.47147
G1 X24.478 Y119.462 E37.52864
G1 X24.121 Y118.683 E37.58589
G1 X23.815 Y117.702 E37.65454
G1 X23.67 Y116.89 E37.70964
G1 X23.617 Y116.076 E37.76413
G1 X23.615 Y111.991 E38.03703
G1 X23.675 Y111.078 E38.09815
G1 X23.839 Y110.202 E38.15769
G1 X24.097 Y109.381 E38.21518
G1 X24.463 Y108.568 E38.27474
G1 X24.906 Y107.831 E38.33219
G1 X25.453 Y107.127 E38.39175
G1 X26.081 Y106.494 E38.45132
G1 X26.778 Y105.943 E38.51068
G1 X27.538 Y105.478 E38.5702
G1 X28.318 Y105.121 E38.62751
G1 X29.165 Y104.848 E38.68696
G1 X30.04 Y104.679 E38.7465
G1 X30.921 Y104.618 E38.8055
G1 X269.055 Y104.617 E54.71414
G1 X269.887 Y104.67 E54.76983
G1 X270.701 Y104.815 E54.82507
G1 X271.68 Y105.12 E54.89357
G1 X272.459 Y105.477 E54.95082
G1 X273.194 Y105.923 E55.00825
G1 X273.871 Y106.451 E55.06561
G1 X274.481 Y107.053 E55.12286
G1 X275.114 Y107.861 E55.19143
G1 X275.538 Y108.569 E55.24656
G1 X275.879 Y109.319 E55.3016
G1 X276.185 Y110.3 E55.37025
G1 X276.334 Y111.145 E55.42757
G1 X276.385 Y111.991 E55.48419
G1 X276.385 Y116.009 E55.75261
G1 X276.325 Y116.922 E55.81373
G1 X276.161 Y117.798 E55.87327
G1 X275.903 Y118.619 E55.93076
G1 X275.552 Y119.404 E55.98821
G1 X275.094 Y120.169 E56.04778
G1 X274.549 Y120.871 E56.10715
G1 X273.921 Y121.504 E56.16672
G1 X273.222 Y122.057 E56.22626
G1 X272.462 Y122.522 E56.28578
G1 X271.682 Y122.879 E56.34309
G1 X270.835 Y123.152 E56.40254
G1 X269.96 Y123.321 E56.46208
G1 X269.079 Y123.382 E56.52108
G1 X30.975 Y123.384 E72.42772
G1 X30.268 Y123.34 E72.47504
G1 X30.3 Y122.807 F7800
G1 F1800
G1 X29.411 Y122.661 E72.53523
G1 X28.525 Y122.385 E72.59722
G1 X27.83 Y122.07 E72.6482
G1 X27.15 Y121.663 E72.70114
G1 X26.422 Y121.092 E72.76295
G1 X25.863 Y120.528 E72.816
G1 X25.355 Y119.877 E72.87116
G1 X24.945 Y119.198 E72.92415
G1 X24.615 Y118.476 E72.97718
G1 X24.339 Y117.59 E73.03917
G1 X24.204 Y116.839 E73.09015
G1 X24.152 Y116.05 E73.14297
G1 X24.151 Y111.999 E73.4136
G1 X24.204 Y111.159 E73.46983
G1 X24.355 Y110.345 E73.52514
G1 X24.592 Y109.585 E73.57832
G1 X24.93 Y108.83 E73.63358
G1 X25.356 Y108.122 E73.68878
G1 X25.865 Y107.47 E73.74404
G1 X26.448 Y106.884 E73.79926
G1 X27.096 Y106.374 E73.85435
G1 X27.803 Y105.945 E73.9096
G1 X28.525 Y105.615 E73.96263
G1 X29.312 Y105.364 E74.01782
G1 X30.124 Y105.209 E74.07305
G1 X30.948 Y105.153 E74.12822
G1 X269.03 Y105.152 E90.03339
G1 X269.809 Y105.2 E90.08553
M73 P4 R59
G1 X270.59 Y105.339 E90.13852
G1 X271.474 Y105.615 E90.20039
G1 X272.195 Y105.943 E90.25331
G1 X272.902 Y106.373 E90.30859
G1 X273.528 Y106.863 E90.3617
G1 X274.092 Y107.422 E90.41475
G1 X274.663 Y108.15 E90.47656
G1 X275.07 Y108.83 E90.5295
G1 X275.385 Y109.525 E90.58048
G1 X275.661 Y110.411 E90.64247
G1 X275.8 Y111.193 E90.69553
G1 X275.849 Y111.999 E90.74947
G1 X275.849 Y116.001 E91.01683
G1 X275.796 Y116.841 E91.07306
G1 X275.645 Y117.655 E91.12837
G1 X275.408 Y118.415 E91.18155
G1 X275.07 Y119.17 E91.23681
G1 X274.644 Y119.878 E91.29201
G1 X274.137 Y120.528 E91.34708
G1 X273.554 Y121.114 E91.4023
G1 X272.904 Y121.626 E91.45758
G1 X272.197 Y122.055 E91.51283
G1 X271.475 Y122.385 E91.56586
G1 X270.688 Y122.636 E91.62105
G1 X269.876 Y122.791 E91.67628
G1 X269.052 Y122.847 E91.73145
G1 X30.999 Y122.849 E107.63468
G1 X30.39 Y122.812 E107.67544
G1 X30.422 Y122.279 F7800
G1 F1800
G1 X30.271 Y122.27 E107.68555
G1 X29.521 Y122.136 E107.73645
G1 X28.731 Y121.89 E107.79173
G1 X28.066 Y121.589 E107.84049
G1 X27.441 Y121.213 E107.88922
G1 X26.79 Y120.703 E107.94447
G1 X26.275 Y120.185 E107.99327
