; HEADER_BLOCK_START
; generated by OrcaSlicer 1.7.0 on 2023-10-26 at 17:27:16
; total layer number: 36
; HEADER_BLOCK_END

; THUMBNAIL_BLOCK_START
; THUMBNAIL_BLOCK_END

; external perimeters extrusion width = 0.60mm
; perimeters extrusion width = 0.60mm
; infill extrusion width = 0.60mm
; solid infill extrusion width = 0.60mm
; top infill extrusion width = 0.60mm
; first layer extrusion width = 0.62mm

; EXECUTABLE_BLOCK_START
M73 P0 R26
;TYPE:Custom
M104 S216 ; set extruder temp
M140 S60 ; set bed temp
M190 S60 ; wait for bed temp
M109 S216 ; wait for extruder temp

G28 ; home all
BED_MESH_PROFILE LOAD=default;

G1 Z2.0 F3000 ; Move Z Axis up little to prevent scratching of Heat Bed
G1 X0.1 Y5 Z0.28 F5000.0 ; Move to start position


G92 E0 ; Reset Extruder
G1 Z2.0 F3000 ; Move Z Axis up little to prevent scratching of Heat Bed
G1 X0.1 Y10 Z0.28 F5000.0 ; Move to start position

G1 X0.1 Y200 Z0.28 F1500.0 E15 ; Draw the first line
G1 X0.4 Y200 Z0.28 F5000.0 ; Move to side a little
G1 X0.4 Y10 Z0.28 F1500.0 E30 ; Draw the second line


G92 E0 ; Reset Extruder
G1 Z0.5 F3000 ; Move Z Axis up little to prevent scratching of Heat Bed
M117 Godmode is enabled
G90
G21
M83 ; use relative distances for extrusion
; filament start gcode
M106 S0
;LAYER_CHANGE
;Z:0.26
;HEIGHT:0.26
;BEFORE_LAYER_CHANGE
;0.26
G92 E0

M73 P1 R26
G1 E-1.15 F3600
;_SET_FAN_SPEED_CHANGING_LAYER
G1 X123.267 Y89.737 F9000
G1 Z.26
G1 E1.15 F2400
;TYPE:Skirt
;WIDTH:0.62
G1 F1200
G1 X124.377 Y88.312 E.11016
G1 X125.989 Y87.497 E.11016
G1 X127 Y87.372 E.06216
G1 X153 Y87.372 E1.58568
G1 X154.763 Y87.767 E.11016
G1 X156.188 Y88.877 E.11016
G1 X157.003 Y90.489 E.11016
G1 X157.128 Y91.5 E.06216
G1 X157.128 Y148.5 E3.47631
G1 X156.733 Y150.263 E.11016
G1 X155.623 Y151.688 E.11016
G1 X154.011 Y152.503 E.11016
G1 X153 Y152.628 E.06216
G1 X127 Y152.628 E1.58568
G1 X125.237 Y152.233 E.11016
G1 X123.812 Y151.123 E.11016
G1 X122.997 Y149.511 E.11016
G1 X122.872 Y148.5 E.06216
G1 X122.872 Y91.5 E3.47631
G1 X123.254 Y89.796 E.1065
G1 X123.815 Y89.932 F9000
G1 F1200
G1 X123.83 Y89.87 E.00386
G1 X124.926 Y88.601 E.10226
G1 X127 Y87.936 E.13284
G1 X153 Y87.936 E1.58568
G1 X154.63 Y88.33 E.10226
G1 X155.899 Y89.426 E.10226
G1 X156.564 Y91.5 E.13284
G1 X156.564 Y148.5 E3.47631
G1 X156.17 Y150.13 E.10226
M73 P2 R26
G1 X155.074 Y151.399 E.10226
G1 X153 Y152.064 E.13284
G1 X127 Y152.064 E1.58568
G1 X125.37 Y151.67 E.10226
M73 P2 R25
G1 X124.101 Y150.574 E.10226
G1 X123.436 Y148.5 E.13284
G1 X123.436 Y91.5 E3.47631
G1 X123.801 Y89.99 E.09474
G1 E-.805 F3600
;WIPE_START
G1 F1200
G1 X123.83 Y89.87 E-.04256
G1 X124.403 Y89.207 E-.30244
;WIPE_END
G1 X151.462 Y146.962 F9000
G1 E1.15 F2400
;TYPE:Inner wall
;WIDTH:0.62
G1 F1200
G1 X128.538 Y146.962 E1.32813
G1 X128.538 Y93.038 E3.12422
G1 X151.462 Y93.038 E1.32813
G1 X151.462 Y97.881 E.28058
G1 X151.462 Y146.902 E2.84016
G1 X152.026 Y147.526 F9000
G1 F1200
G1 X127.974 Y147.526 E1.39351
G1 X127.974 Y92.474 E3.1896
G1 X152.026 Y92.474 E1.39351
M73 P3 R25
G1 X152.026 Y97.881 E.31327
G1 X152.026 Y147.466 E2.87285
G1 X152.59 Y148.09 F9000
;TYPE:Outer wall
G1 F1200
G1 X127.41 Y148.09 E1.45889
G1 X127.41 Y91.91 E3.25498
G1 X152.59 Y91.91 E1.45889
G1 X152.59 Y97.881 E.34596
G1 X152.59 Y148.03 E2.90554
G1 E-.805 F3600
;WIPE_START
G1 F1200
G1 X151.59 Y148.032 E-.345
;WIPE_END
G1 X142.045 Y105.002 F9000
G1 E1.15 F2400
;TYPE:Inner wall
G1 F1200
G1 X142.552 Y105.511 E.04161
G1 X142.83 Y105.937 E.02945
G1 X143.027 Y106.385 E.02833
G1 X143.179 Y106.88 E.03001
G1 X143.232 Y107.527 E.03762
G1 X143.209 Y107.887 E.0209
G1 X143.062 Y108.554 E.0396
G1 X142.803 Y109.11 E.0355
G1 X142.607 Y109.412 E.0209
G1 X142.303 Y109.768 E.0271
G1 X142.045 Y110.002 E.02019
G1 X142.552 Y110.511 E.04161
G1 X142.829 Y110.937 E.02943
G1 X143.027 Y111.385 E.02837
G1 X143.179 Y111.88 E.03
G1 X143.232 Y112.527 E.03762
G1 X143.209 Y112.887 E.0209
G1 X143.073 Y113.522 E.03766
G1 X142.803 Y114.11 E.03744
G1 X142.607 Y114.412 E.0209
G1 X142.174 Y114.901 E.03785
G1 X141.653 Y115.278 E.03726
G1 X141.333 Y115.445 E.0209
G1 X140.828 Y115.629 E.03116
G1 X140.077 Y115.732 E.0439
G1 X139.617 Y115.704 E.02671
G1 X139.085 Y115.607 E.03134
G1 X138.481 Y115.353 E.03792
G1 X138.173 Y115.166 E.0209
G1 X137.676 Y114.757 E.03728
G1 X137.276 Y114.241 E.03782
G1 X137.099 Y113.927 E.0209
G1 X136.867 Y113.323 E.03747
G1 X136.772 Y112.68 E.03764
G1 X136.773 Y112.32 E.0209
G1 X136.863 Y111.692 E.03673
G1 X137.076 Y111.122 E.03525
G1 X137.289 Y110.755 E.02461
G1 X137.657 Y110.264 E.03551
G1 X137.964 Y110 E.02348
G1 X137.556 Y109.616 E.03247
G1 X137.253 Y109.208 E.02943
G1 X137.069 Y108.851 E.02327
G1 X136.863 Y108.308 E.03366
G1 X136.772 Y107.68 E.03673
M73 P4 R25
G1 X136.772 Y107.32 E.0209
G1 X136.863 Y106.692 E.03673
G1 X137.099 Y106.073 E.03837
G1 X137.276 Y105.759 E.0209
G1 X137.657 Y105.264 E.03616
G1 X137.964 Y105 E.02348
G1 X137.556 Y104.616 E.03247
G1 X137.276 Y104.241 E.0271
G1 X137.099 Y103.927 E.0209
G1 X136.863 Y103.308 E.03837
G1 X136.772 Y102.68 E.03673
G1 X136.773 Y102.32 E.0209
G1 X136.867 Y101.677 E.03764
G1 X137.099 Y101.073 E.03747
G1 X137.276 Y100.759 E.0209
G1 X137.67 Y100.25 E.03727
G1 X138.173 Y99.834 E.03784
G1 X138.481 Y99.647 E.0209
G1 X139.236 Y99.358 E.04683
G1 X139.897 Y99.266 E.03867
G1 X140.489 Y99.305 E.03437
G1 X141.121 Y99.461 E.03769
G1 X141.699 Y99.75 E.03743
G1 X141.994 Y99.956 E.0209
G1 X142.468 Y100.402 E.03768
G1 X142.83 Y100.937 E.03743
G1 X142.986 Y101.262 E.0209
G1 X143.179 Y101.88 E.03749
G1 X143.232 Y102.527 E.03762
G1 X143.209 Y102.887 E.0209
G1 X143.062 Y103.554 E.0396
G1 X142.803 Y104.11 E.0355
G1 X142.607 Y104.412 E.0209
G1 X142.303 Y104.768 E.0271
G1 X142.09 Y104.962 E.01672
G1 X140.92 Y104.996 F9000
G1 F1200
G1 X141.438 Y105.25 E.03341
G1 X141.956 Y105.683 E.03915
G1 X142.357 Y106.245 E.03997
G1 X142.598 Y106.884 E.03956
G1 X142.669 Y107.563 E.03957
G1 X142.566 Y108.238 E.03957
G1 X142.295 Y108.865 E.03957
G1 X141.878 Y109.397 E.03915
G1 X141.406 Y109.762 E.03459
G1 X140.92 Y109.996 E.03126
G1 X141.438 Y110.25 E.03341
G1 X141.956 Y110.683 E.03915
G1 X142.357 Y111.245 E.03995
G1 X142.598 Y111.884 E.03959
G1 X142.669 Y112.563 E.03957
G1 X142.566 Y113.238 E.03957
G1 X142.295 Y113.865 E.03957
G1 X141.874 Y114.402 E.03957
G1 X141.33 Y114.815 E.03957
G1 X140.699 Y115.077 E.03957
G1 X140.023 Y115.17 E.03957
G1 X139.345 Y115.088 E.03957
G1 X138.71 Y114.838 E.03957
G1 X138.159 Y114.434 E.03957
G1 X137.728 Y113.904 E.03956
G1 X137.447 Y113.281 E.03957
G1 X137.332 Y112.608 E.03957
G1 X137.392 Y111.928 E.03957
G1 X137.601 Y111.331 E.03667
G1 X138 Y110.733 E.04163
G1 X138.524 Y110.275 E.04036
G1 X139.076 Y110 E.03572
G1 X138.524 Y109.725 E.03572
G1 X138.068 Y109.35 E.0342
G1 X137.728 Y108.904 E.03253
G1 X137.447 Y108.281 E.03957
G1 X137.332 Y107.608 E.03957
G1 X137.392 Y106.928 E.03957
G1 X137.622 Y106.285 E.03957
G1 X138.008 Y105.722 E.03957
G1 X138.524 Y105.275 E.03957
G1 X139.076 Y105 E.03572
G1 X138.524 Y104.725 E.03572
G1 X138.068 Y104.35 E.0342
G1 X137.728 Y103.904 E.03253
G1 X137.447 Y103.281 E.03957
G1 X137.332 Y102.608 E.03957
G1 X137.392 Y101.928 E.03957
G1 X137.622 Y101.285 E.03957
G1 X138.008 Y100.722 E.03957
G1 X138.524 Y100.275 E.03957
G1 X139.137 Y99.973 E.03957
G1 X139.756 Y99.842 E.03667
G1 X140.364 Y99.855 E.03519
G1 X140.925 Y99.99 E.03346
G1 X141.438 Y100.25 E.0333
G1 X141.961 Y100.688 E.03957
G1 X142.357 Y101.245 E.03957
G1 X142.598 Y101.884 E.03956
G1 X142.669 Y102.563 E.03957
G1 X142.566 Y103.238 E.03957
G1 X142.295 Y103.865 E.03957
G1 X141.878 Y104.397 E.03915
G1 X141.406 Y104.762 E.03459
G1 X140.974 Y104.97 E.02778
G1 X140.15 Y104.652 F9000
;TYPE:Outer wall
;WIDTH:0.741984
G1 F1200
G1 X139.839 Y104.651 E.02193
;WIDTH:0.726486
G1 X139.681 Y104.604 E.01133
;WIDTH:0.690991
G1 X139.523 Y104.558 E.01073
;WIDTH:0.655495
G1 X139.366 Y104.511 E.01013
;WIDTH:0.62
G1 X138.876 Y104.284 E.03125
G1 X138.48 Y103.965 E.02946
G1 X138.181 Y103.566 E.02891
G1 X137.97 Y103.07 E.03125
G1 X137.892 Y102.536 E.03125
G1 X137.951 Y102 E.03125
G1 X138.145 Y101.497 E.03125
G1 X138.46 Y101.059 E.03125
G1 X138.876 Y100.716 E.03125
G1 X139.366 Y100.489 E.03125
G1 X139.897 Y100.395 E.03128
G1 X140.238 Y100.405 E.01977
G1 X140.729 Y100.519 E.02923
G1 X141.177 Y100.75 E.02916
G1 X141.582 Y101.106 E.03125
G1 X141.884 Y101.553 E.03125
G1 X142.063 Y102.062 E.03125
G1 X142.106 Y102.599 E.03125
G1 X142.012 Y103.13 E.03125
G1 X141.787 Y103.62 E.03125
G1 X141.449 Y104.031 E.03083
G1 X141.007 Y104.353 E.03165
;WIDTH:0.642432
G1 X140.508 Y104.558 E.03251
;WIDTH:0.692209
G1 X140.329 Y104.605 E.0121
;WIDTH:0.741984
G1 X140.208 Y104.637 E.00881
G1 E-.805 F3600
;WIPE_START
G1 F1200
G1 X139.839 Y104.651 E-.12749
G1 X139.681 Y104.604 E-.05677
G1 X139.523 Y104.558 E-.05677
G1 X139.366 Y104.511 E-.05677
G1 X139.241 Y104.453 E-.0472
;WIPE_END
G1 X140.15 Y109.652 F9000
G1 E1.15 F2400
G1 F1200
G1 X139.839 Y109.651 E.02193
;WIDTH:0.726486
G1 X139.681 Y109.604 E.01133
;WIDTH:0.690991
G1 X139.523 Y109.558 E.01073
;WIDTH:0.655495
G1 X139.366 Y109.511 E.01013
;WIDTH:0.62
G1 X138.876 Y109.284 E.03125
G1 X138.48 Y108.965 E.02946
G1 X138.176 Y108.56 E.02937
G1 X137.97 Y108.07 E.03079
G1 X137.892 Y107.536 E.03125
G1 X137.951 Y107 E.03125
G1 X138.145 Y106.497 E.03125
G1 X138.46 Y106.059 E.03125
G1 X138.876 Y105.716 E.03125
G1 X139.366 Y105.489 E.03125
;WIDTH:0.658727
G1 X139.532 Y105.439 E.01077
;WIDTH:0.697454
G1 X139.698 Y105.388 E.01146
;WIDTH:0.736181
G1 X139.865 Y105.338 E.01215
G1 X140.248 Y105.36 E.02683
;WIDTH:0.711823
G1 X140.505 Y105.447 E.01827
;WIDTH:0.665911
G1 X140.762 Y105.534 E.01699
;WIDTH:0.62
G1 X141.236 Y105.791 E.03125
G1 X141.624 Y106.154 E.03079
G1 X141.907 Y106.597 E.03044
G1 X142.072 Y107.096 E.03048
G1 X142.103 Y107.666 E.03305
G1 X142.001 Y108.172 E.0299
G1 X141.779 Y108.634 E.0297
G1 X141.449 Y109.031 E.02992
G1 X141.007 Y109.353 E.03165
;WIDTH:0.642432
G1 X140.508 Y109.558 E.03251
;WIDTH:0.692209
G1 X140.329 Y109.605 E.0121
;WIDTH:0.741984
G1 X140.208 Y109.637 E.00881
G1 E-.805 F3600
;WIPE_START
G1 F1200
G1 X139.839 Y109.651 E-.12749
G1 X139.681 Y109.604 E-.05677
G1 X139.523 Y109.558 E-.05677
G1 X139.366 Y109.511 E-.05677
G1 X139.241 Y109.453 E-.0472
;WIPE_END
G1 X139.968 Y114.608 F9000
G1 E1.15 F2400
;WIDTH:0.62
G1 F1200
G1 X139.435 Y114.531 E.03125
G1 X138.938 Y114.322 E.03125
G1 X138.511 Y113.993 E.03125
G1 X138.181 Y113.566 E.03125
G1 X137.97 Y113.07 E.03125
G1 X137.892 Y112.536 E.03125
G1 X137.951 Y112 E.03125
G1 X138.138 Y111.511 E.03034
G1 X138.458 Y111.063 E.03188
G1 X138.876 Y110.716 E.03151
G1 X139.366 Y110.489 E.03125
;WIDTH:0.658727
G1 X139.532 Y110.439 E.01077
;WIDTH:0.697454
G1 X139.698 Y110.388 E.01146
;WIDTH:0.736181
G1 X139.865 Y110.338 E.01215
G1 X140.248 Y110.36 E.02683
;WIDTH:0.711823
G1 X140.505 Y110.447 E.01827
;WIDTH:0.665911
G1 X140.762 Y110.534 E.01699
;WIDTH:0.62
G1 X141.236 Y110.791 E.03125
G1 X141.624 Y111.154 E.03079
G1 X141.907 Y111.596 E.03042
G1 X142.072 Y112.096 E.03049
G1 X142.103 Y112.666 E.03305
G1 X142.003 Y113.165 E.02951
G1 X141.787 Y113.62 E.02917
G1 X141.444 Y114.037 E.03125
G1 X141.007 Y114.353 E.03125
G1 X140.504 Y114.547 E.03125
G1 X140.028 Y114.602 E.02777
G1 E-.805 F3600
;WIPE_START
G1 F1200
G1 X139.435 Y114.531 E-.20615
G1 X139.064 Y114.375 E-.13885
;WIPE_END
G1 X139.936 Y135.727 F9000
G1 E1.15 F2400
;TYPE:Inner wall
G1 F1200
G1 X139.716 Y135.72 E.01275
G1 X139.077 Y135.605 E.03765
G1 X138.481 Y135.353 E.03746
G1 X138.173 Y135.166 E.0209
G1 X137.676 Y134.757 E.03728
G1 X137.276 Y134.241 E.03782
G1 X137.099 Y133.927 E.0209
G1 X136.867 Y133.323 E.03747
G1 X136.772 Y132.68 E.03764
G1 X136.772 Y132.32 E.0209
G1 X136.867 Y131.677 E.03764
G1 X137.099 Y131.073 E.03747
G1 X137.276 Y130.759 E.0209
G1 X137.676 Y130.243 E.03782
G1 X138.173 Y129.834 E.03728
G1 X138.481 Y129.647 E.0209
G1 X138.939 Y129.444 E.029
G1 X139.301 Y129.347 E.02171
G1 X139.795 Y129.27 E.02899
G1 X140.35 Y129.28 E.03216
G1 X140.945 Y129.409 E.03527
G1 X141.284 Y129.533 E.0209
G1 X141.848 Y129.84 E.0372
G1 X142.341 Y130.271 E.0379
G1 X142.574 Y130.545 E.0209
G1 X142.917 Y131.092 E.0374
G1 X143.133 Y131.706 E.0377
G1 X143.202 Y132.06 E.0209
G1 X143.235 Y132.617 E.03233
G1 X143.214 Y132.861 E.01417
G1 X143.073 Y133.522 E.03919
G1 X142.803 Y134.11 E.03744
G1 X142.607 Y134.412 E.0209
G1 X142.174 Y134.901 E.03785
G1 X141.653 Y135.278 E.03726
G1 X141.333 Y135.445 E.0209
G1 X140.722 Y135.658 E.03748
G1 X140.077 Y135.732 E.03763
G1 X139.996 Y135.729 E.00468
G1 X139.913 Y135.157 F9000
G1 F1200
G1 X139.345 Y135.088 E.03319
G1 X138.71 Y134.838 E.03957
G1 X138.159 Y134.434 E.03957
G1 X137.728 Y133.904 E.03956
G1 X137.447 Y133.281 E.03957
G1 X137.332 Y132.608 E.03957
G1 X137.392 Y131.928 E.03957
G1 X137.622 Y131.285 E.03957
G1 X138.008 Y130.722 E.03957
G1 X138.524 Y130.275 E.03957
G1 X139.137 Y129.973 E.03957
G1 X139.756 Y129.842 E.03667
G1 X140.28 Y129.84 E.03036
G1 X140.82 Y129.959 E.03201
G1 X141.438 Y130.25 E.03957
G1 X141.961 Y130.688 E.03957
G1 X142.357 Y131.245 E.03957
G1 X142.598 Y131.884 E.03956
G1 X142.669 Y132.563 E.03957
G1 X142.658 Y132.763 E.01163
G1 X142.538 Y133.344 E.03435
G1 X142.295 Y133.865 E.0333
G1 X141.874 Y134.402 E.03957
G1 X141.33 Y134.815 E.03957
G1 X140.699 Y135.077 E.03957
G1 X140.023 Y135.17 E.03957
G1 X139.973 Y135.164 E.0029
G1 X139.968 Y134.608 F9000
;TYPE:Outer wall
G1 F1200
G1 X139.435 Y134.531 E.03125
G1 X138.938 Y134.322 E.03125
G1 X138.511 Y133.993 E.03125
G1 X138.181 Y133.566 E.03125
G1 X137.97 Y133.07 E.03125
G1 X137.892 Y132.536 E.03125
G1 X137.951 Y132 E.03125
G1 X138.145 Y131.497 E.03125
G1 X138.46 Y131.059 E.03125
G1 X138.876 Y130.716 E.03125
G1 X139.366 Y130.489 E.03125
G1 X139.873 Y130.396 E.02991
G1 X140.238 Y130.405 E.02114
G1 X140.736 Y130.522 E.02962
G1 X141.207 Y130.768 E.03079
G1 X141.582 Y131.106 E.02926
G1 X141.884 Y131.553 E.03125
G1 X142.063 Y132.062 E.03125
G1 X142.103 Y132.666 E.03509
G1 X142.003 Y133.165 E.02951
G1 X141.787 Y133.62 E.02916
G1 X141.444 Y134.037 E.03125
G1 X141.007 Y134.353 E.03125
G1 X140.504 Y134.547 E.03125
G1 X140.028 Y134.602 E.02777
G1 E-.805 F3600
;WIPE_START
G1 F1200
G1 X139.435 Y134.531 E-.20615
G1 X139.064 Y134.375 E-.13885
;WIPE_END
G1 X151.281 Y94.366 F9000
G1 E1.15 F2400
;TYPE:Bottom surface
;WIDTH:0.623246
G1 F2100
M106 S0
G1 X150.388 Y93.473 E.07216
G1 X149.585 Y93.473 E.04583
G1 X151.027 Y94.915 E.11647
G1 X151.027 Y95.717 E.04583
G1 X148.783 Y93.473 E.18128
G1 X147.98 Y93.473 E.04583
G1 X151.027 Y96.52 E.24609
G1 X151.027 Y97.322 E.04583
G1 X147.178 Y93.473 E.3109
G1 X146.375 Y93.473 E.04583
G1 X151.027 Y98.125 E.37571
G1 X151.027 Y98.927 E.04583
G1 X145.573 Y93.473 E.44052
G1 X144.77 Y93.473 E.04583
G1 X151.027 Y99.73 E.50533
G1 X151.027 Y100.532 E.04583
G1 X143.968 Y93.473 E.57014
G1 X143.165 Y93.473 E.04583
G1 X151.027 Y101.335 E.63495
G1 X151.027 Y102.137 E.04583
G1 X142.363 Y93.473 E.69976
G1 X141.56 Y93.473 E.04583
G1 X151.027 Y102.94 E.76457
G1 X151.027 Y103.742 E.04583
G1 X140.758 Y93.473 E.82938
G1 X139.955 Y93.473 E.04583
G1 X151.027 Y104.545 E.89419
G1 X151.027 Y105.347 E.04583
G1 X139.153 Y93.473 E.959
G1 X138.35 Y93.473 E.04583
G1 X151.027 Y106.15 E1.02381
G1 X151.027 Y106.952 E.04583
G1 X137.548 Y93.473 E1.08862
G1 X136.745 Y93.473 E.04583
M73 P5 R25
G1 X151.027 Y107.755 E1.15343
G1 X151.027 Y108.557 E.04583
G1 X135.943 Y93.473 E1.21824
G1 X135.14 Y93.473 E.04583
G1 X140.542 Y98.875 E.43629
G1 X140.205 Y98.835 E.01943
G1 X139.712 Y98.847 E.02816
G1 X134.338 Y93.473 E.434
G1 X133.535 Y93.473 E.04583
G1 X139.031 Y98.968 E.44382
G1 X138.741 Y99.056 E.01726
G1 X138.447 Y99.187 E.01841
G1 X132.733 Y93.473 E.46146
G1 X131.93 Y93.473 E.04583
G1 X137.931 Y99.473 E.4846
G1 X137.486 Y99.831 E.0326
G1 X131.128 Y93.473 E.51348
G1 X130.325 Y93.473 E.04583
G1 X137.111 Y100.259 E.54807
G1 X136.782 Y100.732 E.03292
G1 X129.523 Y93.473 E.58627
G1 X128.973 Y93.473 E.0314
G1 X128.973 Y93.725 E.01443
G1 X136.548 Y101.3 E.61175
G1 X136.447 Y101.563 E.01606
G1 X136.386 Y101.941 E.02188
G1 X128.973 Y94.528 E.5987
G1 X128.973 Y95.33 E.04583
G1 X136.339 Y102.696 E.59488
G1 X136.441 Y103.412 E.04125
G1 X136.539 Y103.699 E.01737
G1 X128.973 Y96.133 E.61107
