; generated by PrusaSlicer 2.6.1+win64 on 2023-09-21 at 11:31:13 UTC

; 

; external perimeters extrusion width = 0.60mm
; perimeters extrusion width = 0.60mm
; infill extrusion width = 0.65mm
; solid infill extrusion width = 0.60mm
; top infill extrusion width = 0.65mm
; support material extrusion width = 0.65mm
; first layer extrusion width = 0.60mm

M73 P0 R28
;TYPE:Custom
M104 S215 ; set extruder temp
M140 S60 ; set bed temp
M190 S60 ; wait for bed temp
M109 S215 ; wait for extruder temp

G28 ; home all
BED_MESH_PROFILE LOAD=default;

G1 Z2.0 F3000 ; Move Z Axis up little to prevent scratching of Heat Bed
G1 X0.1 Y5 Z0.28 F5000.0 ; Move to start position


G92 E0 ; Reset Extruder
G1 Z2.0 F3000 ; Move Z Axis up little to prevent scratching of Heat Bed
G1 X0.1 Y10 Z0.28 F5000.0 ; Move to start position

G1 X0.1 Y200 Z0.28 F1500.0 E15 ; Draw the first line
G1 X0.4 Y200 Z0.28 F5000.0 ; Move to side a little
G1 X0.4 Y10 Z0.28 F1500.0 E30 ; Draw the second line


G92 E0 ; Reset Extruder
G1 Z0.5 F3000 ; Move Z Axis up little to prevent scratching of Heat Bed
M117 Godmode is enabled
G21 ; set units to millimeters
G90 ; use absolute coordinates
M82 ; use absolute distances for extrusion
G92 E0
; Filament gcode
M107
;LAYER_CHANGE
;Z:0.3
;HEIGHT:0.3
G1 Z.3 F7800
G1 E-1.4 F2100
G92 E0
G1 Z.8 F7800
M73 P1 R28
G1 X120.114 Y118.617
G1 Z.3
G1 E1.4 F2100
;TYPE:Skirt/Brim
;WIDTH:0.6
G1 F1800
G1 X120.575 Y118.215 E1.44086
G1 X121.061 Y117.881 E1.48026
G1 X121.752 Y117.522 E1.53228
G1 X122.621 Y117.232 E1.59348
G1 X123.413 Y117.102 E1.6471
G1 X125.795 Y117.091 E1.80623
G1 X126.485 Y117.175 E1.85267
G1 X127.235 Y117.372 E1.90447
G1 X127.989 Y117.697 E1.95932
G1 X128.532 Y118.021 E2.00156
G1 X129.084 Y118.46 E2.04868
G1 X140.417 Y118.46 E2.80579
G1 X140.738 Y118.191 E2.83377
G1 X141.292 Y117.821 E2.87828
G1 X141.85 Y117.536 E2.92014
G1 X142.788 Y117.223 E2.9862
G1 X143.434 Y117.114 E3.02997
G1 X143.95 Y117.081 E3.06451
G1 X179.578 Y117.085 E5.44465
G1 X179.886 Y117.152 E5.46571
G1 X180.228 Y117.293 E5.49042
G1 X180.534 Y117.498 E5.51503
G1 X181.178 Y118.159 E5.57668
G1 X181.313 Y118.378 E5.59387
G1 X181.456 Y118.724 E5.61888
G1 X181.516 Y118.973 E5.63599
G1 X181.527 Y127.535 E6.20798
G1 X181.448 Y128.416 E6.26707
G1 X181.24 Y129.239 E6.32378
G1 X180.884 Y130.059 E6.3835
G1 X180.425 Y130.774 E6.44026
G1 X179.829 Y131.439 E6.49992
G1 X179.132 Y131.996 E6.55953
G1 X178.353 Y132.432 E6.61917
G1 X177.471 Y132.745 E6.68169
G1 X176.631 Y132.894 E6.73868
G1 X123.502 Y132.905 E10.28798
G1 X122.705 Y132.787 E10.3418
G1 X122.008 Y132.581 E10.39035
G1 X121.435 Y132.329 E10.43217
G1 X120.971 Y132.065 E10.46783
G1 X120.212 Y131.478 E10.53193
G1 X119.815 Y131.068 E10.57006
G1 X119.399 Y130.528 E10.6156
G1 X118.967 Y129.76 E10.67447
G1 X118.663 Y128.918 E10.73427
G1 X118.509 Y128.103 E10.78968
G1 X118.473 Y127.531 E10.82797
G1 X118.474 Y122.43 E11.16874
G1 X118.506 Y121.916 E11.20314
G1 X118.612 Y121.281 E11.24615
G1 X118.887 Y120.426 E11.30615
G1 X119.178 Y119.83 E11.35046
G1 X119.574 Y119.226 E11.39871
G1 X120.055 Y118.684 E11.44712
G1 X120.454 Y119.041 F7800
G1 F1800
G1 X120.914 Y118.63 E11.48833
G1 X121.323 Y118.349 E11.52148
G1 X121.98 Y118.007 E11.57096
G1 X122.731 Y117.757 E11.62384
G1 X123.438 Y117.638 E11.67174
G1 X125.78 Y117.626 E11.8282
G1 X126.4 Y117.704 E11.86995
G1 X127.077 Y117.884 E11.91675
G1 X127.759 Y118.181 E11.96644
G1 X128.239 Y118.471 E12.0039
G1 X128.896 Y118.995 E12.06004
G1 X140.613 Y118.995 E12.8428
G1 X141.049 Y118.628 E12.88087
G1 X141.577 Y118.275 E12.9233
G1 X142.04 Y118.037 E12.95808
G1 X142.899 Y117.747 E13.01865
G1 X143.509 Y117.644 E13.05998
G1 X143.974 Y117.616 E13.0911
G1 X179.547 Y117.62 E15.46757
G1 X179.701 Y117.655 E15.47812
G1 X179.998 Y117.778 E15.4996
G1 X180.172 Y117.894 E15.51357
G1 X180.743 Y118.472 E15.56785
G1 X180.828 Y118.606 E15.57845
G1 X180.952 Y118.906 E15.60014
G1 X180.987 Y119.06 E15.61069
G1 X180.992 Y127.523 E16.17606
G1 X180.917 Y128.345 E16.2312
G1 X180.727 Y129.084 E16.28217
G1 X180.403 Y129.823 E16.33608
G1 X179.988 Y130.464 E16.38709
G1 X179.447 Y131.063 E16.44101
G1 X178.818 Y131.562 E16.49465
G1 X178.113 Y131.953 E16.54851
G1 X177.353 Y132.222 E16.60237
G1 X176.606 Y132.358 E16.65309
G1 X123.523 Y132.37 E20.19932
G1 X122.805 Y132.26 E20.24785
G1 X122.208 Y132.083 E20.28945
G1 X121.664 Y131.844 E20.32914
G1 X121.254 Y131.61 E20.36068
G1 X120.556 Y131.067 E20.41976
G1 X120.229 Y130.728 E20.45123
G1 X119.854 Y130.247 E20.49198
G1 X119.462 Y129.554 E20.54517
G1 X119.185 Y128.797 E20.59902
G1 X119.038 Y128.021 E20.65178
G1 X119.008 Y127.508 E20.68611
G1 X119.01 Y122.438 E21.02481
G1 X119.037 Y121.99 E21.05479
G1 X119.137 Y121.389 E21.09549
G1 X119.39 Y120.611 E21.15014
G1 X119.65 Y120.083 E21.18946
G1 X120.01 Y119.538 E21.23309
G1 X120.394 Y119.108 E21.2716
G1 X120.792 Y119.466 F7800
G1 F1800
G1 X120.888 Y119.359 E21.2812
G1 X121.252 Y119.045 E21.31331
G1 X121.585 Y118.816 E21.34031
G1 X122.208 Y118.492 E21.38722
G1 X122.842 Y118.281 E21.43186
G1 X123.464 Y118.173 E21.47403
G1 X125.765 Y118.162 E21.62775
G1 X126.282 Y118.227 E21.66256
G1 X126.883 Y118.384 E21.70406
G1 X127.529 Y118.665 E21.75112
G1 X127.921 Y118.901 E21.78169
G1 X128.428 Y119.302 E21.82487
G1 X128.645 Y119.531 E21.84595
G1 X140.86 Y119.531 E22.66198
G1 X141.053 Y119.324 E22.68089
G1 X141.36 Y119.064 E22.70777
G1 X141.862 Y118.728 E22.74813
G1 X142.233 Y118.537 E22.77601
G1 X143.01 Y118.272 E22.83085
G1 X143.583 Y118.175 E22.86967
G1 X143.996 Y118.152 E22.8973
G1 X179.472 Y118.151 E25.26729
G1 X179.813 Y118.292 E25.29194
G1 X180.315 Y118.794 E25.33937
G1 X180.456 Y119.135 E25.36402
G1 X180.456 Y127.511 E25.92358
G1 X180.393 Y128.233 E25.972
G1 X180.214 Y128.928 E26.01994
G1 X179.922 Y129.585 E26.06797
G1 X179.552 Y130.153 E26.11326
G1 X179.067 Y130.685 E26.16135
G1 X178.505 Y131.127 E26.20912
G1 X177.876 Y131.472 E26.25705
G1 X177.198 Y131.709 E26.30503
G1 X176.536 Y131.827 E26.34995
G1 X123.584 Y131.837 E29.88743
G1 X122.904 Y131.733 E29.93339
G1 X122.408 Y131.586 E29.96795
G1 X121.893 Y131.36 E30.00552
G1 X121.537 Y131.155 E30.03296
G1 X120.928 Y130.681 E30.08452
G1 X120.642 Y130.387 E30.11192
G1 X120.29 Y129.934 E30.15025
G1 X119.941 Y129.312 E30.1979
G1 X119.696 Y128.637 E30.24587
G1 X119.568 Y127.941 E30.29315
G1 X119.544 Y127.501 E30.32259
G1 X119.545 Y122.461 E30.65929
G1 X119.567 Y122.063 E30.68592
G1 X119.662 Y121.498 E30.72419
G1 X119.893 Y120.797 E30.7735
G1 X120.106 Y120.364 E30.80574
G1 X120.445 Y119.851 E30.84682
G1 X120.732 Y119.532 E30.87549
G1 X121.13 Y119.891 F7800
G1 F1800
G1 X121.274 Y119.73 E30.88992
G1 X121.57 Y119.477 E30.91593
G1 X121.85 Y119.282 E30.93872
G1 X122.401 Y118.992 E30.98032
G1 X122.955 Y118.805 E31.01938
G1 X123.533 Y118.705 E31.05857
G1 X125.749 Y118.698 E31.20661
G1 X126.165 Y118.75 E31.23462
G1 X126.691 Y118.885 E31.2709
G1 X127.27 Y119.134 E31.31301
G1 X127.603 Y119.333 E31.33893
G1 X128.077 Y119.708 E31.37931
G1 X128.408 Y120.066 E31.41188
G1 X141.098 Y120.066 E32.25964
G1 X141.416 Y119.719 E32.29108
M73 P2 R28
G1 X141.671 Y119.5 E32.31354
G1 X142.146 Y119.183 E32.35169
G1 X142.459 Y119.023 E32.37517
G1 X143.121 Y118.796 E32.42192
G1 X143.656 Y118.706 E32.45816
G1 X144.017 Y118.687 E32.48231
G1 X179.392 Y118.687 E34.84555
G1 X179.491 Y118.727 E34.85268
G1 X179.88 Y119.116 E34.88943
G1 X179.92 Y119.215 E34.89656
G1 X179.92 Y127.5 E35.45004
G1 X179.868 Y128.124 E35.49187
G1 X179.714 Y128.735 E35.53396
G1 X179.461 Y129.312 E35.57605
G1 X179.116 Y129.841 E35.61824
G1 X178.689 Y130.305 E35.66037
G1 X178.194 Y130.69 E35.70226
G1 X177.641 Y130.99 E35.74429
G1 X177.045 Y131.195 E35.7864
G1 X176.468 Y131.295 E35.82552
G1 X123.605 Y131.302 E39.35705
G1 X123.006 Y131.207 E39.39757
G1 X122.608 Y131.089 E39.4253
G1 X122.122 Y130.876 E39.46075
G1 X121.822 Y130.702 E39.48392
G1 X121.298 Y130.293 E39.52833
G1 X121.055 Y130.045 E39.55153
G1 X120.725 Y129.622 E39.58737
G1 X120.42 Y129.072 E39.62938
G1 X120.209 Y128.479 E39.67143
G1 X120.099 Y127.865 E39.7131
G1 X120.08 Y127.495 E39.73785
G1 X120.08 Y122.481 E40.07281
G1 X120.098 Y122.136 E40.09589
G1 X120.187 Y121.606 E40.13179
G1 X120.382 Y121.015 E40.17337
G1 X120.564 Y120.642 E40.2011
G1 X120.858 Y120.193 E40.23695
G1 X121.07 Y119.958 E40.25809
G1 X121.465 Y120.317 F7800
G1 F1800
G1 X121.659 Y120.104 E40.27734
G1 X121.889 Y119.907 E40.29757
G1 X122.118 Y119.746 E40.31627
G1 X122.596 Y119.491 E40.35246
G1 X123.068 Y119.329 E40.3858
G1 X123.601 Y119.237 E40.42193
G1 X125.733 Y119.233 E40.56436
G1 X126.049 Y119.273 E40.58564
G1 X126.537 Y119.398 E40.61929
G1 X127.038 Y119.617 E40.65582
G1 X127.31 Y119.781 E40.67704
G1 X127.725 Y120.112 E40.7125
G1 X128.169 Y120.602 E40.75667
G1 X141.337 Y120.602 E41.63636
G1 X141.78 Y120.112 E41.68049
G1 X141.983 Y119.936 E41.69844
G1 X142.43 Y119.638 E41.73433
G1 X142.683 Y119.51 E41.75327
G1 X143.232 Y119.321 E41.79206
G1 X143.729 Y119.237 E41.82573
G1 X144.035 Y119.222 E41.8462
G1 X179.228 Y119.222 E44.19728
G1 X179.385 Y119.379 E44.21211
G1 X179.385 Y127.49 E44.75397
G1 X179.342 Y128.018 E44.78936
G1 X179.213 Y128.545 E44.82561
G1 X178.998 Y129.041 E44.86172
G1 X178.706 Y129.496 E44.89784
G1 X178.31 Y129.926 E44.93689
G1 X177.917 Y130.231 E44.97012
G1 X177.442 Y130.492 E45.00633
G1 X176.931 Y130.671 E45.0425
G1 X176.399 Y130.763 E45.07857
G1 X123.627 Y130.766 E48.60403
G1 X123.11 Y130.682 E48.63902
G1 X122.808 Y130.592 E48.66007
G1 X122.352 Y130.392 E48.69333
G1 X122.109 Y130.249 E48.71217
G1 X121.666 Y129.904 E48.74968
G1 X121.468 Y129.704 E48.76848
G1 X121.162 Y129.31 E48.80181
G1 X120.901 Y128.835 E48.83802
G1 X120.722 Y128.324 E48.87419
G1 X120.629 Y127.791 E48.91034
G1 X120.615 Y127.489 E48.93054
G1 X120.615 Y122.5 E49.26383
G1 X120.629 Y122.208 E49.28336
G1 X120.711 Y121.716 E49.31668
G1 X120.884 Y121.203 E49.35285
G1 X121.022 Y120.921 E49.37382
G1 X121.294 Y120.504 E49.40708
G1 X121.404 Y120.383 E49.418
G1 E48.018 F2100
G92 E0
G1 Z.8 F7800
G1 X146.397 Y121.397
G1 Z.3
G1 E1.4 F2100
;TYPE:Perimeter
;WIDTH:0.6
G1 F1800
G1 X177.21 Y121.397 E3.45847
G1 X177.21 Y127.361 E3.8569
G1 X177.188 Y127.681 E3.87833
M73 P2 R27
G1 X177.071 Y128.022 E3.90241
G1 X176.849 Y128.306 E3.92649
G1 X176.547 Y128.504 E3.95061
G1 X176.197 Y128.592 E3.97472
G1 X146.416 Y128.599 E5.96425
G1 X146.907 Y128.184 E6.0072
G1 X147.429 Y127.558 E6.06165
G1 X147.759 Y127.005 E6.10467
G1 X147.936 Y126.611 E6.13353
G1 X148.173 Y125.738 E6.19396
G1 X148.236 Y124.845 E6.25377
G1 X148.129 Y124.037 E6.30822
G1 X147.945 Y123.421 E6.35117
G1 X147.775 Y123.024 E6.38002
G1 X147.294 Y122.257 E6.4405
G1 X146.939 Y121.851 E6.47653
G1 X146.466 Y121.455 E6.51774
G1 E5.11774 F2100
G92 E0
G1 Z.8 F7800
G1 X144.231 Y120.976
G1 Z.3
G1 E1.4 F2100
;WIDTH:0.828677
G1 F1800
G1 X144.279 Y120.966 E1.40467
;WIDTH:0.810398
G1 X144.408 Y120.945 E1.41683
;WIDTH:0.768318
G1 X144.537 Y120.924 E1.42831
;WIDTH:0.726238
G1 X144.665 Y120.903 E1.43902
;WIDTH:0.684159
G1 X144.794 Y120.882 E1.44912
;WIDTH:0.642079
G1 X144.923 Y120.861 E1.45854
;WIDTH:0.6
G1 X177.746 Y120.861 E3.65129
G1 X177.746 Y124.995 E3.92746
G1 X177.746 Y127.361 E4.08552
G1 X177.718 Y127.769 E4.11284
G1 X177.544 Y128.278 E4.14878
G1 X177.213 Y128.702 E4.18471
G1 X176.763 Y128.996 E4.22062
G1 X176.242 Y129.128 E4.25653
G1 X145.952 Y129.134 E6.28006
;WIDTH:0.624017
G1 X144.986 Y129.122 E6.34749
;WIDTH:0.669471
G1 X144.879 Y129.1 E6.35573
;WIDTH:0.714925
G1 X144.771 Y129.077 E6.36469
;WIDTH:0.760379
G1 X144.663 Y129.054 E6.37428
;WIDTH:0.805833
G1 X144.555 Y129.032 E6.38447
;WIDTH:0.851287
G1 X144.448 Y129.009 E6.39521
G1 X144.548 Y128.964 E6.40597
;WIDTH:0.805369
G1 X144.678 Y128.904 E6.4192
;WIDTH:0.764296
G1 X144.808 Y128.844 E6.4317
;WIDTH:0.723222
G1 X144.939 Y128.784 E6.44354
;WIDTH:0.682148
G1 X145.069 Y128.724 E6.45457
;WIDTH:0.641074
G1 X145.199 Y128.664 E6.46487
;WIDTH:0.6
G1 X146.012 Y128.234 E6.52631
G1 X146.513 Y127.821 E6.56969
G1 X146.969 Y127.284 E6.61675
G1 X147.425 Y126.45 E6.68025
G1 X147.641 Y125.68 E6.73368
G1 X147.702 Y124.889 E6.78668
G1 X147.616 Y124.19 E6.83373
G1 X147.311 Y123.29 E6.89721
G1 X146.891 Y122.61 E6.9506
G1 X146.325 Y122.01 E7.0057
G1 X145.667 Y121.556 E7.05911
G1 X144.885 Y121.228 E7.11576
;WIDTH:0.645735
G1 X144.754 Y121.178 E7.12593
;WIDTH:0.69147
G1 X144.623 Y121.127 E7.13693
;WIDTH:0.737206
G1 X144.493 Y121.077 E7.14862
;WIDTH:0.782941
G1 X144.362 Y121.026 E7.16122
;WIDTH:0.828677
G1 X144.315 Y121.008 E7.16602
G1 E5.76602 F2100
G92 E0
G1 Z.8 F7800
G1 X139.308 Y124.911
G1 Z.3
G1 E1.4 F2100
;WIDTH:0.6
G1 F1800
G1 X139.296 Y125.155 E1.41632
G1 X139.382 Y125.888 E1.46562
G1 X139.588 Y126.598 E1.51501
G1 X139.952 Y127.328 E1.5695
G1 X140.326 Y127.852 E1.61251
G1 X140.616 Y128.172 E1.64136
G1 X141.124 Y128.6 E1.68574
G1 X128.406 Y128.602 E2.53537
G1 X128.633 Y128.433 E2.55428
G1 X129.16 Y127.913 E2.60374
G1 X129.593 Y127.315 E2.65306
G1 X129.945 Y126.58 E2.7075
G1 X130.129 Y125.962 E2.75058
M73 P3 R27
G1 X130.212 Y125.449 E2.7853
G1 X130.228 Y124.768 E2.83081
G1 X130.148 Y124.128 E2.8739
G1 X130.034 Y123.679 E2.90485
G1 X129.8 Y123.079 E2.94787
G1 X129.636 Y122.777 E2.97083
G1 X139.886 Y122.777 E3.65558
G1 X139.761 Y123.009 E3.67319
G1 X139.488 Y123.695 E3.72251
G1 X139.331 Y124.417 E3.77187
G1 X139.312 Y124.821 E3.79889
G1 X139.84 Y124.929 F7800
G1 F1800
G1 X139.83 Y125.111 E3.81107
G1 X139.902 Y125.757 E3.85449
G1 X140.079 Y126.383 E3.89795
G1 X140.388 Y127.017 E3.94507
G1 X140.969 Y127.769 E4.00855
G1 X141.586 Y128.275 E4.06186
G1 X142.287 Y128.649 E4.11494
;WIDTH:0.647515
G1 X142.396 Y128.707 E4.12392
;WIDTH:0.69503
G1 X142.506 Y128.764 E4.13367
;WIDTH:0.742545
G1 X142.615 Y128.821 E4.14407
;WIDTH:0.79006
G1 X142.725 Y128.878 E4.15528
;WIDTH:0.837575
G1 X142.834 Y128.935 E4.16714
;WIDTH:0.885091
G1 X142.944 Y128.992 E4.17982
G1 X142.821 Y129.016 E4.19265
;WIDTH:0.837575
G1 X142.698 Y129.04 E4.20474
;WIDTH:0.79006
G1 X142.575 Y129.064 E4.21608
;WIDTH:0.742545
G1 X142.452 Y129.087 E4.22666
;WIDTH:0.69503
G1 X142.329 Y129.111 E4.23652
;WIDTH:0.647515
G1 X142.206 Y129.135 E4.24563
;WIDTH:0.6
G1 X127.263 Y129.138 E5.2439
;WIDTH:0.642497
G1 X127.127 Y129.117 E5.25382
;WIDTH:0.684995
G1 X126.991 Y129.096 E5.26447
;WIDTH:0.727492
G1 X126.855 Y129.074 E5.27586
;WIDTH:0.76999
G1 X126.719 Y129.053 E5.28797
;WIDTH:0.812487
G1 X126.584 Y129.032 E5.30072
;WIDTH:0.854985
G1 X126.448 Y129.011 E5.31429
G1 X126.525 Y128.974 E5.32271
;WIDTH:0.818467
G1 X126.602 Y128.937 E5.33074
;WIDTH:0.78195
G1 X126.826 Y128.836 E5.35273
;WIDTH:0.736462
G1 X127.05 Y128.735 E5.37333
;WIDTH:0.690975
G1 X127.273 Y128.634 E5.39246
;WIDTH:0.645487
G1 X127.497 Y128.533 E5.41027
;WIDTH:0.6
G1 X128.271 Y128.039 E5.47161
G1 X128.737 Y127.584 E5.51512
G1 X129.122 Y127.06 E5.55856
G1 X129.432 Y126.427 E5.60565
G1 X129.616 Y125.809 E5.64873
G1 X129.678 Y125.404 E5.6761
G1 X129.696 Y124.834 E5.7142
G1 X129.617 Y124.195 E5.75721
G1 X129.535 Y123.874 E5.77934
G1 X129.301 Y123.274 E5.82236
G1 X129.144 Y122.983 E5.84445
G1 X128.77 Y122.46 E5.8874
G1 X128.569 Y122.241 E5.90726
G1 X140.98 Y122.241 E6.73638
G1 X140.591 Y122.67 E6.77507
G1 X140.251 Y123.224 E6.81849
G1 X140.007 Y123.826 E6.86188
G1 X139.865 Y124.461 E6.90535
G1 X139.844 Y124.839 E6.93064
G1 X140.371 Y124.951 F7800
G1 F1800
G1 X140.399 Y124.505 E6.96049
G1 X140.526 Y123.958 E6.998
G1 X140.742 Y123.439 E7.03555
G1 X141.04 Y122.963 E7.07307
G1 X141.6 Y122.379 E7.12712
G1 X142.04 Y122.083 E7.16255
G1 X142.834 Y121.73 E7.2206
G1 X143.488 Y121.616 E7.26495
G1 X143.992 Y121.604 E7.29863
G1 X144.775 Y121.753 E7.35188
G1 X145.44 Y122.041 E7.40029
G1 X146.006 Y122.44 E7.44655
G1 X146.488 Y122.963 E7.49406
G1 X146.846 Y123.556 E7.54034
G1 X147.102 Y124.343 E7.59563
G1 X147.168 Y124.933 E7.63529
G1 X147.108 Y125.623 E7.68156
G1 X146.914 Y126.288 E7.72784
G1 X146.509 Y127.01 E7.78314
G1 X146.119 Y127.458 E7.82282
G1 X145.683 Y127.812 E7.86034
G1 X144.964 Y128.183 E7.91439
G1 X144.391 Y128.345 E7.95417
G1 X143.832 Y128.402 E7.99171
G1 X143.028 Y128.319 E8.04571
G1 X142.461 Y128.143 E8.08537
G1 X141.853 Y127.811 E8.13165
G1 X141.322 Y127.366 E8.17793
G1 X140.824 Y126.705 E8.23322
G1 X140.569 Y126.168 E8.27293
G1 X140.421 Y125.625 E8.31053
