; HEADER_BLOCK_START
; generated by OrcaSlicer 1.7.0 on 2023-12-02 at 17:14:52
; total layer number: 90
; HEADER_BLOCK_END

; THUMBNAIL_BLOCK_START
; THUMBNAIL_BLOCK_END

; external perimeters extrusion width = 0.60mm
; perimeters extrusion width = 0.60mm
; infill extrusion width = 0.60mm
; solid infill extrusion width = 0.60mm
; top infill extrusion width = 0.60mm
; first layer extrusion width = 0.62mm

; EXECUTABLE_BLOCK_START
M73 P0 R106
;TYPE:Custom
M104 S220 ; set extruder temp
M140 S60 ; set bed temp
M190 S60 ; wait for bed temp
M109 S220 ; wait for extruder temp

G28 ; home all
BED_MESH_PROFILE LOAD=default;

G1 Z2.0 F3000 ; Move Z Axis up little to prevent scratching of Heat Bed
G1 X0.1 Y5 Z0.28 F5000.0 ; Move to start position


G92 E0 ; Reset Extruder
G1 Z2.0 F3000 ; Move Z Axis up little to prevent scratching of Heat Bed
G1 X0.1 Y10 Z0.28 F5000.0 ; Move to start position

G1 X0.1 Y200 Z0.28 F1500.0 E15 ; Draw the first line
G1 X0.4 Y200 Z0.28 F5000.0 ; Move to side a little
G1 X0.4 Y10 Z0.28 F1500.0 E30 ; Draw the second line


G92 E0 ; Reset Extruder
G1 Z0.5 F3000 ; Move Z Axis up little to prevent scratching of Heat Bed
M117 Godmode is enabled
G90
G21
M83 ; use relative distances for extrusion
; filament start gcode
M106 S0
;LAYER_CHANGE
;Z:0.2
;HEIGHT:0.2
;BEFORE_LAYER_CHANGE
;0.2
G92 E0

G1 E-1.15 F3600
;_SET_FAN_SPEED_CHANGING_LAYER
G1 X61.68 Y84.208 F9000
G1 Z.2
G1 E1.15 F2400
;TYPE:Brim
;WIDTH:0.62
G1 F1200
G1 X62.062 Y84.035 E.02013
G1 X62.479 Y83.943 E.02046
G1 X62.708 Y83.93 E.01102
G1 X131.692 Y83.93 E3.31013
G1 X131.852 Y83.881 E.00806
G1 X131.959 Y83.751 E.00806
G1 X131.98 Y83.642 E.00535
G1 X131.98 Y75.958 E.3687
G1 X132.02 Y75.239 E.03454
G1 X132.157 Y74.401 E.04075
G1 X132.393 Y73.588 E.04066
G1 X132.726 Y72.808 E.04066
G1 X133.151 Y72.075 E.04066
G1 X133.664 Y71.394 E.04094
G1 X133.834 Y71.202 E.01227
G1 X134.448 Y70.61 E.04094
G1 X135.127 Y70.099 E.04079
G1 X135.619 Y69.802 E.02756
G1 X136.387 Y69.438 E.04079
G1 X137.197 Y69.169 E.04094
G1 X137.445 Y69.108 E.01228
M73 P0 R105
G1 X138.289 Y68.97 E.04103
G1 X139.009 Y68.93 E.0346
G1 X141.013 Y68.931 E.09617
G1 X141.973 Y69.001 E.04614
G1 X142.809 Y69.171 E.04094
G1 X143.615 Y69.439 E.04079
G1 X144.139 Y69.675 E.02756
G1 X144.875 Y70.101 E.04079
G1 X145.551 Y70.61 E.04063
G1 X146.18 Y71.22 E.04204
G1 X146.701 Y71.859 E.03957
G1 X146.846 Y72.07 E.01228
G1 X147.274 Y72.808 E.04094
G1 X147.61 Y73.598 E.04119
G1 X147.785 Y74.166 E.02852
G1 X147.949 Y74.977 E.03971
G1 X147.98 Y75.233 E.01237
G1 X148.02 Y75.958 E.03482
G1 X148.02 Y83.642 E.3687
G1 X148.069 Y83.802 E.00806
G1 X148.199 Y83.909 E.00806
G1 X148.308 Y83.93 E.00535
G1 X217.285 Y83.93 E3.3098
G1 X217.717 Y83.975 E.02085
G1 X218.116 Y84.104 E.02013
G1 X218.48 Y84.313 E.02013
G1 X218.793 Y84.592 E.02013
G1 X219.042 Y84.93 E.02013
G1 X219.215 Y85.312 E.02013
G1 X219.307 Y85.729 E.02046
G1 X219.32 Y85.958 E.01102
G1 X219.32 Y153.783 E3.25455
G1 X219.275 Y154.216 E.02085
G1 X219.146 Y154.615 E.02013
G1 X218.937 Y154.979 E.02013
G1 X218.657 Y155.292 E.02016
G1 X218.326 Y155.538 E.01981
G1 X217.931 Y155.775 E.02208
G1 X217.537 Y155.958 E.02085
G1 X217.122 Y156.054 E.02043
G1 X216.871 Y156.07 E.01207
G1 X148.308 Y156.07 E3.28995
G1 X148.148 Y156.119 E.00806
G1 X148.041 Y156.249 E.00806
G1 X148.02 Y156.358 E.00535
G1 X148.02 Y164.042 E.3687
G1 X147.98 Y164.761 E.03454
G1 X147.843 Y165.599 E.04075
G1 X147.607 Y166.412 E.04066
G1 X147.274 Y167.192 E.04066
G1 X146.849 Y167.925 E.04066
G1 X146.336 Y168.606 E.04094
G1 X146.166 Y168.798 E.01228
G1 X145.552 Y169.39 E.04095
G1 X144.873 Y169.901 E.04078
G1 X144.381 Y170.198 E.02756
G1 X143.613 Y170.562 E.04077
G1 X142.781 Y170.835 E.04204
G1 X141.973 Y170.999 E.03957
G1 X141.717 Y171.03 E.01237
G1 X140.992 Y171.07 E.03483
G1 X139.008 Y171.07 E.09521
G1 X138.283 Y171.03 E.03483
G1 X138.027 Y170.999 E.01236
G1 X137.189 Y170.829 E.04108
G1 X136.64 Y170.658 E.02756
G1 X135.858 Y170.324 E.04079
G1 X135.125 Y169.899 E.04066
G1 X134.449 Y169.39 E.04063
G1 X133.82 Y168.78 E.04204
G1 X133.299 Y168.141 E.03957
G1 X133.154 Y167.93 E.01227
G1 X132.725 Y167.189 E.04108
G1 X132.489 Y166.665 E.02756
G1 X132.219 Y165.853 E.04107
G1 X132.158 Y165.605 E.01227
G1 X132.02 Y164.761 E.04104
G1 X131.98 Y164.042 E.03454
G1 X131.98 Y156.358 E.3687
G1 X131.931 Y156.198 E.00806
G1 X131.801 Y156.091 E.00806
G1 X131.692 Y156.07 E.00535
G1 X63.135 Y156.07 E3.28966
G1 X62.703 Y156.025 E.02085
G1 X62.303 Y155.896 E.02015
G1 X61.672 Y155.537 E.03482
G1 X61.327 Y155.278 E.0207
G1 X61.051 Y154.962 E.02013
G1 X60.846 Y154.596 E.02013
G1 X60.721 Y154.195 E.02016
G1 X60.68 Y153.784 E.01981
G1 X60.68 Y85.965 E3.25426
G1 X60.725 Y85.533 E.02085
G1 X60.854 Y85.134 E.02013
G1 X61.063 Y84.77 E.02013
G1 X61.342 Y84.457 E.02013
G1 X61.632 Y84.244 E.01725
G1 X61.959 Y84.72 F9000
G1 F1200
G1 X62.229 Y84.593 E.01432
G1 X62.544 Y84.52 E.01552
G1 X62.729 Y84.507 E.0089
G1 X131.679 Y84.507 E3.3085
G1 X131.872 Y84.479 E.00937
G1 X132.005 Y84.438 E.00669
G1 X132.21 Y84.332 E.01109
G1 X132.392 Y84.133 E.01294
G1 X132.529 Y83.842 E.01542
G1 X132.557 Y83.633 E.0101
G1 X132.557 Y75.978 E.36731
G1 X132.596 Y75.293 E.03296
G1 X132.719 Y74.539 E.03664
G1 X132.935 Y73.792 E.0373
G1 X133.239 Y73.077 E.0373
G1 X133.627 Y72.403 E.0373
G1 X134.123 Y71.746 E.03952
G1 X134.832 Y71.044 E.04785
G1 X135.444 Y70.583 E.03678
G1 X135.885 Y70.315 E.02474
G1 X136.593 Y69.979 E.03762
G1 X137.544 Y69.678 E.04785
G1 X138.361 Y69.544 E.03974
G1 X139.03 Y69.507 E.03213
G1 X140.986 Y69.508 E.09389
G1 X141.883 Y69.573 E.04314
G1 X142.67 Y69.733 E.03852
G1 X143.397 Y69.975 E.03678
G1 X143.867 Y70.185 E.02474
G1 X144.547 Y70.577 E.03762
G1 X145.183 Y71.057 E.03825
G1 X145.763 Y71.621 E.03879
G1 X146.348 Y72.364 E.04542
G1 X146.761 Y73.077 E.03949
G1 X147.064 Y73.788 E.03711
G1 X147.222 Y74.3 E.02573
G1 X147.377 Y75.063 E.03733
G1 X147.405 Y75.29 E.01096
G1 X147.443 Y75.978 E.0331
G1 X147.443 Y83.629 E.3671
G1 X147.512 Y83.955 E.01601
G1 X147.616 Y84.156 E.01085
G1 X147.822 Y84.344 E.01339
G1 X148.104 Y84.477 E.01494
G1 X148.32 Y84.507 E.0105
G1 X217.246 Y84.507 E3.30735
G1 X217.579 Y84.541 E.01608
G1 X217.864 Y84.629 E.01432
G1 X218.154 Y84.796 E.01604
G1 X218.375 Y84.997 E.01432
G1 X218.53 Y85.209 E.01261
G1 X218.657 Y85.479 E.01432
G1 X218.73 Y85.794 E.01552
G1 X218.743 Y85.979 E.0089
G1 X218.743 Y153.744 E3.25166
G1 X218.709 Y154.078 E.01608
G1 X218.621 Y154.363 E.01432
G1 X218.475 Y154.624 E.01433
G1 X218.278 Y154.851 E.01445
G1 X217.997 Y155.062 E.01685
G1 X217.668 Y155.26 E.01842
G1 X217.365 Y155.402 E.01608
G1 X217.053 Y155.478 E.01539
G1 X216.848 Y155.493 E.00985
G1 X148.321 Y155.493 E3.28823
G1 X148.128 Y155.521 E.00937
G1 X147.995 Y155.562 E.00669
G1 X147.79 Y155.668 E.01109
G1 X147.608 Y155.867 E.01294
G1 X147.471 Y156.158 E.01542
G1 X147.443 Y156.367 E.0101
G1 X147.443 Y164.022 E.36731
G1 X147.404 Y164.707 E.03296
G1 X147.281 Y165.461 E.03664
G1 X147.065 Y166.208 E.0373
G1 X146.761 Y166.923 E.0373
G1 X146.373 Y167.597 E.03731
G1 X145.761 Y168.384 E.04785
G1 X145.168 Y168.956 E.03952
G1 X144.556 Y169.417 E.03677
G1 X144.115 Y169.685 E.02474
G1 X143.389 Y170.028 E.03857
G1 X142.623 Y170.279 E.03865
G1 X141.887 Y170.428 E.03602
G1 X141.672 Y170.454 E.01041
G1 X140.972 Y170.493 E.03365
G1 X139.028 Y170.493 E.09324
G1 X138.135 Y170.431 E.04296
G1 X137.324 Y170.266 E.03974
G1 X136.832 Y170.112 E.02474
G1 X136.127 Y169.811 E.03678
G1 X135.453 Y169.423 E.03731
G1 X134.817 Y168.943 E.03824
G1 X134.237 Y168.379 E.03879
G1 X133.652 Y167.635 E.04542
G1 X133.235 Y166.917 E.03983
G1 X133.025 Y166.447 E.02474
G1 X132.776 Y165.699 E.03781
G1 X132.594 Y164.689 E.04926
G1 X132.557 Y164.022 E.03207
G1 X132.557 Y156.371 E.3671
G1 X132.488 Y156.045 E.01601
G1 X132.384 Y155.844 E.01085
G1 X132.178 Y155.656 E.01339
G1 X131.896 Y155.523 E.01495
G1 X131.68 Y155.493 E.01049
G1 X63.174 Y155.493 E3.2872
G1 X62.841 Y155.459 E.01608
M73 P1 R105
G1 X62.521 Y155.356 E.0161
G1 X61.999 Y155.059 E.02883
G1 X61.71 Y154.839 E.01742
G1 X61.516 Y154.612 E.01432
G1 X61.374 Y154.35 E.01432
G1 X61.288 Y154.062 E.01441
G1 X61.257 Y153.747 E.01518
G1 X61.257 Y86.004 E3.2506
G1 X61.291 Y85.671 E.01608
G1 X61.379 Y85.386 E.01432
G1 X61.525 Y85.125 E.01433
G1 X61.721 Y84.9 E.01432
G1 X61.911 Y84.756 E.01145
G1 X62.214 Y85.247 F9000
G1 F1200
G1 X62.495 Y85.115 E.01495
G1 X62.712 Y85.084 E.01049
G1 X132.961 Y85.084 E3.37086
G1 X133.081 Y85.036 E.0062
G1 X133.134 Y84.911 E.00652
G1 X133.136 Y75.908 E.432
G1 X133.176 Y75.269 E.03074
G1 X133.301 Y74.571 E.03402
G1 X133.526 Y73.847 E.03637
G1 X133.821 Y73.201 E.03409
G1 X134.159 Y72.642 E.03136
G1 X134.57 Y72.108 E.03232
G1 X135.131 Y71.544 E.03815
G1 X135.689 Y71.11 E.03395
G1 X136.299 Y70.746 E.03408
G1 X136.98 Y70.445 E.03574
G1 X137.656 Y70.242 E.03386
G1 X138.318 Y70.126 E.03225
G1 X138.94 Y70.086 E.02992
G1 X141.016 Y70.086 E.09958
G1 X141.645 Y70.122 E.03024
G1 X142.376 Y70.25 E.03565
G1 X143.14 Y70.491 E.03839
G1 X143.703 Y70.746 E.02968
G1 X144.28 Y71.089 E.0322
G1 X144.938 Y71.605 E.04013
G1 X145.363 Y72.034 E.02897
G1 X145.789 Y72.567 E.03275
G1 X146.179 Y73.201 E.03573
G1 X146.474 Y73.849 E.03414
G1 X146.683 Y74.511 E.0333
G1 X146.813 Y75.18 E.03273
G1 X146.864 Y75.891 E.03418
G1 X146.866 Y84.911 E.43283
G1 X146.914 Y85.031 E.0062
G1 X147.039 Y85.084 E.00652
G1 X217.287 Y85.084 E3.37083
G1 X217.614 Y85.154 E.01601
G1 X217.819 Y85.26 E.01109
G1 X217.914 Y85.353 E.00639
G1 X218.001 Y85.459 E.00657
G1 X218.135 Y85.745 E.01518
G1 X218.166 Y85.962 E.01049
G1 X218.166 Y153.786 E3.25447
G1 X218.098 Y154.106 E.0157
G1 X217.921 Y154.393 E.0162
G1 X217.853 Y154.458 E.00451
G1 X217.335 Y154.786 E.02942
G1 X217.177 Y154.854 E.00824
G1 X216.863 Y154.916 E.01534
G1 X147.039 Y154.916 E3.35049
G1 X146.919 Y154.964 E.0062
M73 P1 R104
G1 X146.866 Y155.089 E.00652
G1 X146.864 Y164.091 E.43197
G1 X146.813 Y164.82 E.03505
G1 X146.678 Y165.513 E.03387
G1 X146.474 Y166.152 E.03221
G1 X146.179 Y166.799 E.0341
G1 X145.789 Y167.434 E.03577
G1 X145.406 Y167.919 E.02969
G1 X144.907 Y168.422 E.03399
G1 X144.308 Y168.891 E.03651
G1 X143.749 Y169.229 E.03133
G1 X143.101 Y169.524 E.03417
G1 X142.44 Y169.733 E.03327
G1 X141.681 Y169.874 E.03705
G1 X140.995 Y169.916 E.03298
G1 X139.006 Y169.916 E.09545
G1 X138.269 Y169.868 E.03543
G1 X137.571 Y169.737 E.03408
G1 X136.861 Y169.509 E.03577
G1 X136.297 Y169.254 E.0297
G1 X135.72 Y168.91 E.03223
G1 X135.132 Y168.456 E.03566
G1 X134.581 Y167.903 E.03743
G1 X134.159 Y167.358 E.03308
G1 X133.821 Y166.799 E.03134
G1 X133.526 Y166.153 E.0341
G1 X133.301 Y165.429 E.03637
G1 X133.176 Y164.732 E.03399
G1 X133.136 Y164.11 E.0299
G1 X133.134 Y155.089 E.43287
G1 X133.086 Y154.969 E.0062
G1 X132.961 Y154.916 E.00652
G1 X63.137 Y154.916 E3.35049
G1 X62.823 Y154.854 E.01534
G1 X62.665 Y154.787 E.00824
G1 X62.266 Y154.548 E.02231
G1 X62.115 Y154.424 E.00937
G1 X62.026 Y154.325 E.00637
G1 X61.873 Y154.03 E.01593
G1 X61.834 Y153.785 E.01193
G1 X61.834 Y85.963 E3.2544
G1 X61.904 Y85.636 E.01601
G1 X62.008 Y85.436 E.01085
G1 X62.169 Y85.288 E.01051
G1 X62.531 Y85.731 F9000
G1 F1200
G1 X62.591 Y85.683 E.00367
G1 X62.7 Y85.661 E.00535
G1 X133.711 Y85.661 E3.40744
G1 X133.711 Y75.95 E.466
G1 X133.753 Y75.295 E.03148
G1 X133.87 Y74.668 E.03064
G1 X134.049 Y74.091 E.02897
G1 X134.31 Y73.508 E.03064
G1 X134.658 Y72.932 E.03231
G1 X135.03 Y72.456 E.02897
G1 X135.48 Y72.003 E.03064
G1 X135.982 Y71.608 E.03064
G1 X136.527 Y71.276 E.03064
G1 X137.141 Y70.999 E.03231
G1 X137.751 Y70.811 E.03064
G1 X138.345 Y70.703 E.02897
G1 X138.983 Y70.662 E.03064
G1 X141.02 Y70.663 E.09778
G1 X141.62 Y70.698 E.02883
G1 X142.282 Y70.82 E.03231
G1 X142.891 Y71.012 E.03064
G1 X143.473 Y71.276 E.03064
G1 X143.99 Y71.588 E.02897
G1 X144.52 Y72.004 E.03236
G1 X144.96 Y72.447 E.02993
G1 X145.342 Y72.932 E.02962
G1 X145.69 Y73.508 E.03231
G1 X145.951 Y74.092 E.0307
G1 X146.134 Y74.688 E.02993
G1 X146.247 Y75.295 E.02962
G1 X146.288 Y75.933 E.03064
G1 X146.289 Y85.661 E.46683
G1 X217.3 Y85.661 E3.40744
G1 X217.461 Y85.71 E.00806
G1 X217.567 Y85.841 E.00806
G1 X217.589 Y85.95 E.00535
G1 X217.589 Y153.798 E3.25567
G1 X217.54 Y153.959 E.00806
G1 X217.448 Y154.046 E.00605
G1 X217.028 Y154.297 E.02348
G1 X216.88 Y154.338 E.00738
G1 X146.289 Y154.339 E3.38729
G1 X146.289 Y164.05 E.466
G1 X146.247 Y164.705 E.03148
G1 X146.13 Y165.332 E.03064
G1 X145.951 Y165.909 E.02897
G1 X145.69 Y166.492 E.03064
G1 X145.342 Y167.068 E.03231
G1 X144.947 Y167.57 E.03064
G1 X144.494 Y168.02 E.03064
G1 X144.018 Y168.392 E.02897
G1 X143.442 Y168.74 E.03231
G1 X142.858 Y169.001 E.03069
G1 X142.262 Y169.184 E.02993
G1 X141.655 Y169.297 E.02962
G1 X141 Y169.339 E.03148
G1 X139 Y169.339 E.09597
G1 X138.38 Y169.302 E.02981
G1 X137.751 Y169.189 E.03064
G1 X137.109 Y168.988 E.03231
G1 X136.527 Y168.724 E.03064
G1 X136.01 Y168.412 E.02897
G1 X135.48 Y167.996 E.03236
G1 X135.04 Y167.553 E.02993
G1 X134.658 Y167.068 E.02962
G1 X134.31 Y166.492 E.03231
G1 X134.049 Y165.909 E.03064
G1 X133.87 Y165.332 E.02897
G1 X133.753 Y164.705 E.03064
G1 X133.712 Y164.067 E.03064
G1 X133.711 Y154.339 E.46683
G1 X63.12 Y154.339 E3.38729
G1 X62.972 Y154.298 E.00738
G1 X62.552 Y154.046 E.02348
G1 X62.439 Y153.921 E.00806
G1 X62.411 Y153.798 E.00605
G1 X62.411 Y85.95 E3.25567
G1 X62.46 Y85.789 E.00806
G1 X62.485 Y85.769 E.00152
G1 E-.805 F3600
;WIPE_START
G1 F1200
G1 X62.591 Y85.683 E-.04706
G1 X62.7 Y85.661 E-.03849
G1 X63.452 Y85.661 E-.25946
;WIPE_END
G1 X136.05 Y165.425 F9000
G1 E1.15 F2400
;TYPE:Inner wall
;WIDTH:0.956184
G1 F1200
G1 X135.99 Y165.362 E.00623
;WIDTH:0.907958
G1 X135.946 Y165.307 E.0048
;WIDTH:0.860389
G1 X135.902 Y165.253 E.00454
;WIDTH:0.81282
G1 X135.857 Y165.198 E.00427
;WIDTH:0.765251
G1 X135.813 Y165.144 E.00401
;WIDTH:0.717681
G1 X135.769 Y165.089 E.00375
;WIDTH:0.670112
G1 X135.724 Y165.035 E.00348
;WIDTH:0.622543
G1 X135.68 Y164.98 E.00322
;WIDTH:0.574974
G1 X135.636 Y164.926 E.00295
;WIDTH:0.532593
G1 X135.588 Y164.684 E.00952
;WIDTH:0.542122
G1 X135.525 Y163.996 E.02723
;WIDTH:0.564417
G1 X135.536 Y163.457 E.02221
;WIDTH:0.592208
G1 X135.55 Y163.086 E.01613
;WIDTH:0.619999
G1 X135.564 Y162.714 E.01694
G1 X135.554 Y153.756 E.40837
G1 X135.478 Y153.438 E.01489
G1 X135.326 Y153.134 E.01549
G1 X135.039 Y152.815 E.01956
G1 X134.623 Y152.576 E.02187
G1 X134.121 Y152.486 E.02324
G1 X64.264 Y152.486 E3.18445
G1 X64.264 Y87.514 E2.96174
G1 X134.121 Y87.514 E3.18445
G1 X134.371 Y87.492 E.01141
M73 P2 R104
G1 X134.846 Y87.319 E.02305
G1 X135.199 Y87.031 E.0208
G1 X135.421 Y86.698 E.01824
G1 X135.524 Y86.409 E.01395
G1 X135.564 Y86.071 E.01551
G1 X135.564 Y77.286 E.40051
G1 X135.55 Y76.914 E.01694
;WIDTH:0.592209
G1 X135.536 Y76.543 E.01613
;WIDTH:0.564418
G1 X135.536 Y75.791 E.03096
;WIDTH:0.538859
G1 X135.614 Y75.164 E.02477
;WIDTH:0.555144
G1 X135.648 Y75.09 E.00329
;WIDTH:0.581322
G1 X135.682 Y75.016 E.00345
;WIDTH:0.628181
G1 X135.728 Y74.961 E.00332
;WIDTH:0.675039
G1 X135.774 Y74.906 E.00358
;WIDTH:0.721897
G1 X135.82 Y74.851 E.00385
;WIDTH:0.768755
G1 X135.866 Y74.796 E.00412
;WIDTH:0.815614
G1 X135.912 Y74.741 E.00438
;WIDTH:0.862472
G1 X135.958 Y74.685 E.00465
;WIDTH:0.90933
G1 X136.004 Y74.63 E.00491
;WIDTH:0.956188
G1 X136.05 Y74.575 E.00518
G1 X136.055 Y74.645 E.00506
;WIDTH:0.90933
G1 X136.06 Y74.715 E.0048
;WIDTH:0.862472
G1 X136.065 Y74.785 E.00454
;WIDTH:0.815614
G1 X136.071 Y74.855 E.00428
;WIDTH:0.768755
G1 X136.076 Y74.925 E.00402
;WIDTH:0.721897
G1 X136.081 Y74.995 E.00376
;WIDTH:0.675039
G1 X136.086 Y75.065 E.0035
;WIDTH:0.628181
G1 X136.092 Y75.135 E.00324
;WIDTH:0.581322
G1 X136.073 Y75.381 E.01051
;WIDTH:0.544838
G1 X136.028 Y76.072 E.02746
;WIDTH:0.585433
G1 X136.09 Y76.766 E.02983
;WIDTH:0.619999
G1 X136.275 Y77.44 E.03186
G1 X136.59 Y78.064 E.03188
G1 X137.009 Y78.624 E.03188
G1 X137.519 Y79.103 E.03188
G1 X138.104 Y79.486 E.03188
G1 X138.747 Y79.761 E.03188
G1 X139.427 Y79.921 E.03188
G1 X140.126 Y79.96 E.03188
G1 X140.829 Y79.875 E.03228
G1 X141.502 Y79.669 E.0321
G1 X142.114 Y79.36 E.03124
G1 X142.674 Y78.941 E.03188
G1 X143.153 Y78.431 E.03188
G1 X143.536 Y77.846 E.03188
G1 X143.811 Y77.203 E.03188
G1 X143.877 Y76.862 E.01586
