; generated by PrusaSlicer 2.6.1+win64 on 2023-10-04 at 15:03:39 UTC

; 

; external perimeters extrusion width = 0.60mm
; perimeters extrusion width = 0.60mm
; infill extrusion width = 0.65mm
; solid infill extrusion width = 0.60mm
; top infill extrusion width = 0.65mm
; support material extrusion width = 0.65mm
; first layer extrusion width = 0.60mm

M73 P0 R1
;TYPE:Custom
M104 S216 ; set extruder temp
M140 S60 ; set bed temp
M190 S60 ; wait for bed temp
M109 S216 ; wait for extruder temp

G28 ; home all
BED_MESH_PROFILE LOAD=default;

G1 Z2.0 F3000 ; Move Z Axis up little to prevent scratching of Heat Bed
G1 X0.1 Y5 Z0.28 F5000.0 ; Move to start position


G92 E0 ; Reset Extruder
G1 Z2.0 F3000 ; Move Z Axis up little to prevent scratching of Heat Bed
M73 P1 R1
G1 X0.1 Y10 Z0.28 F5000.0 ; Move to start position

G1 X0.1 Y200 Z0.28 F1500.0 E15 ; Draw the first line
M73 P2 R1
G1 X0.4 Y200 Z0.28 F5000.0 ; Move to side a little
M73 P11 R1
G1 X0.4 Y10 Z0.28 F1500.0 E30 ; Draw the second line


G92 E0 ; Reset Extruder
G1 Z0.5 F3000 ; Move Z Axis up little to prevent scratching of Heat Bed
M117 Godmode is enabled
G21 ; set units to millimeters
G90 ; use absolute coordinates
M82 ; use absolute distances for extrusion
G92 E0
; Filament gcode
M107
;LAYER_CHANGE
;Z:0.3
;HEIGHT:0.3
M73 P21 R1
G1 Z.3 F7800
G1 E-1.4 F2400
G92 E0
G1 Z.8 F7800
G1 X145.877 Y117.223
G1 Z.3
M73 P23 R1
G1 E1.4 F2400
;TYPE:Skirt/Brim
;WIDTH:0.6
G1 F1800
G1 X146.233 Y116.795 E1.43719
G1 X147.102 Y116.123 E1.51058
G1 X147.877 Y115.62 E1.5723
G1 X148.83 Y115.34 E1.63866
M73 P24 R1
G1 X151.17 Y115.34 E1.79498
G1 X152.123 Y115.62 E1.86134
G1 X152.897 Y116.123 E1.92301
G1 X153.767 Y116.795 E1.99645
G1 X154.123 Y117.223 E2.03364
G1 X154.395 Y117.781 E2.07511
G1 X154.507 Y118.307 E2.11104
G1 X154.503 Y119.201 E2.17076
G1 X154.453 Y119.461 E2.18845
G1 X154.274 Y119.899 E2.22006
G1 X154.125 Y120.123 E2.23803
G1 X153.637 Y120.618 E2.28447
G1 X153.637 Y122.826 E2.43198
G1 X154.218 Y123.428 E2.48787
G1 X154.352 Y123.648 E2.50508
G1 X154.522 Y124.092 E2.53684
G1 X154.562 Y124.345 E2.55395
G1 X154.562 Y125.549 E2.63438
G1 X155.27 Y128.029 E2.80668
G1 X155.381 Y128.694 E2.85172
G1 X155.409 Y129.372 E2.89705
G1 X155.262 Y130.511 E2.97377
G1 X155.101 Y131.052 E3.01148
G1 X154.901 Y131.54 E3.04671
G1 X154.669 Y131.983 E3.08012
G1 X154.4 Y132.399 E3.11322
G1 X154.093 Y132.788 E3.14633
M73 P25 R1
G1 X153.753 Y133.147 E3.17936
G1 X153.361 Y133.49 E3.21416
G1 X152.935 Y133.795 E3.24916
G1 X152.504 Y134.046 E3.28248
G1 X152.03 Y134.265 E3.31736
G1 X151.558 Y134.431 E3.35079
G1 X151.048 Y134.558 E3.3859
G1 X150.555 Y134.632 E3.4192
G1 X150.035 Y134.66 E3.45399
G1 X149.54 Y134.641 E3.48708
G1 X149.049 Y134.576 E3.52017
G1 X148.562 Y134.466 E3.55352
G1 X148.064 Y134.302 E3.58855
G1 X147.558 Y134.077 E3.62554
G1 X147.079 Y133.804 E3.66237
G1 X146.645 Y133.495 E3.69796
G1 X146.228 Y133.128 E3.73507
G1 X145.885 Y132.763 E3.76853
G1 X145.564 Y132.347 E3.80363
G1 X145.27 Y131.876 E3.84072
G1 X145.031 Y131.391 E3.87684
G1 X144.812 Y130.782 E3.92008
G1 X144.684 Y130.255 E3.95631
G1 X144.614 Y129.757 E3.98991
G1 X144.59 Y129.261 E4.02308
G1 X144.618 Y128.703 E4.0604
G1 X144.709 Y128.153 E4.09764
G1 X144.979 Y127.456 E4.14757
G1 X145.331 Y126.937 E4.18946
G1 X145.55 Y126.711 E4.21048
G1 X145.466 Y126.476 E4.22715
G1 X145.407 Y126.16 E4.24863
G1 X145.407 Y124.351 E4.36948
G1 X145.446 Y124.101 E4.38638
G1 X145.612 Y123.663 E4.41767
G1 X145.742 Y123.445 E4.43463
G1 X146.363 Y122.803 E4.4943
G1 X146.363 Y120.618 E4.64027
G1 X145.874 Y120.123 E4.68675
M73 P26 R1
G1 X145.726 Y119.899 E4.70469
G1 X145.547 Y119.461 E4.7363
M73 P26 R0
G1 X145.497 Y119.201 E4.75399
G1 X145.493 Y118.307 E4.81371
G1 X145.604 Y117.781 E4.84962
G1 X145.837 Y117.304 E4.88508
G1 X146.314 Y117.533 F7800
G1 F1800
G1 X146.586 Y117.199 E4.91386
G1 X147.421 Y116.554 E4.98435
G1 X148.135 Y116.091 E5.0412
G1 X148.867 Y115.876 E5.09217
G1 X151.133 Y115.876 E5.24355
G1 X151.865 Y116.091 E5.29452
G1 X152.579 Y116.554 E5.35137
G1 X153.414 Y117.199 E5.42186
G1 X153.686 Y117.533 E5.45064
G1 X153.897 Y117.98 E5.48366
G1 X153.971 Y118.335 E5.50789
G1 X153.971 Y119.135 E5.56133
G1 X153.944 Y119.292 E5.57197
G1 X153.806 Y119.636 E5.59673
G1 X153.722 Y119.769 E5.60724
G1 X153.101 Y120.398 E5.66629
G1 X153.101 Y123.047 E5.84326
G1 X153.782 Y123.739 E5.90812
G1 X153.864 Y123.871 E5.9185
G1 X154 Y124.213 E5.94309
G1 X154.027 Y124.369 E5.95367
G1 X154.027 Y125.624 E6.03751
G1 X154.744 Y128.132 E6.21177
M73 P27 R0
G1 X154.85 Y128.765 E6.25465
G1 X154.873 Y129.37 E6.2951
G1 X154.742 Y130.379 E6.36307
G1 X154.591 Y130.886 E6.39841
G1 X154.411 Y131.324 E6.43005
G1 X154.201 Y131.722 E6.46011
G1 X153.958 Y132.096 E6.48991
G1 X153.681 Y132.446 E6.51973
G1 X153.373 Y132.769 E6.54955
G1 X153.037 Y133.063 E6.57938
G1 X152.653 Y133.339 E6.61097
G1 X152.266 Y133.566 E6.64094
G1 X151.839 Y133.765 E6.67241
G1 X151.415 Y133.915 E6.70246
G1 X150.954 Y134.031 E6.73422
G1 X150.511 Y134.098 E6.76415
G1 X150.042 Y134.125 E6.79553
G1 X149.596 Y134.108 E6.82535
G1 X149.154 Y134.051 E6.85512
G1 X148.716 Y133.952 E6.88512
G1 X148.267 Y133.806 E6.91666
G1 X147.81 Y133.604 E6.95004
G1 X147.377 Y133.359 E6.98328
G1 X146.987 Y133.082 E7.01524
G1 X146.608 Y132.751 E7.04886
G1 X146.3 Y132.424 E7.07887
G1 X146.011 Y132.051 E7.11039
G1 X145.732 Y131.604 E7.14559
G1 X145.519 Y131.17 E7.17789
G1 X145.322 Y130.616 E7.21717
G1 X145.208 Y130.144 E7.24961
G1 X145.146 Y129.696 E7.27982
G1 X145.125 Y129.249 E7.30971
G1 X145.149 Y128.771 E7.34168
G1 X145.221 Y128.314 E7.37259
G1 X145.441 Y127.73 E7.41428
G1 X145.756 Y127.264 E7.45186
G1 X146.196 Y126.842 E7.49259
G1 X145.984 Y126.337 E7.52918
G1 X145.943 Y126.131 E7.54321
G1 X145.943 Y124.375 E7.66052
G1 X145.969 Y124.221 E7.67095
M73 P28 R0
G1 X146.101 Y123.883 E7.69519
G1 X146.18 Y123.754 E7.7053
G1 X146.899 Y123.023 E7.7738
G1 X146.899 Y120.398 E7.94916
G1 X146.278 Y119.769 E8.00821
G1 X146.194 Y119.636 E8.01872
G1 X146.056 Y119.292 E8.04348
G1 X146.029 Y119.135 E8.05412
G1 X146.029 Y118.335 E8.10756
G1 X146.103 Y117.98 E8.13179
G1 X146.276 Y117.615 E8.15877
G1 X146.76 Y117.844 F7800
G1 F1800
G1 X146.937 Y117.604 E8.17869
G1 X147.74 Y116.984 E8.24646
G1 X148.393 Y116.562 E8.2984
G1 X148.905 Y116.411 E8.33406
G1 X149.855 Y116.411 E8.39753
G1 X149.979 Y116.436 E8.40598
G1 X150.139 Y116.411 E8.4168
G1 X151.094 Y116.411 E8.4806
G1 X151.606 Y116.562 E8.51626
G1 X152.26 Y116.984 E8.56826
G1 X153.062 Y117.604 E8.63598
G1 X153.216 Y117.792 E8.65222
G1 X153.399 Y118.179 E8.68082
G1 X153.436 Y118.361 E8.69323
G1 X153.436 Y119.105 E8.74293
G1 X153.324 Y119.402 E8.76414
G1 X152.798 Y119.942 E8.8145
G1 X152.566 Y120.079 E8.8325
G1 X152.566 Y123.407 E9.05483
G1 X152.867 Y123.569 E9.07767
M73 P29 R0
G1 X153.352 Y124.059 E9.12373
G1 X153.481 Y124.347 E9.14481
G1 X153.491 Y125.699 E9.23513
G1 X154.219 Y128.238 E9.41158
G1 X154.315 Y128.803 E9.44987
G1 X154.337 Y129.368 E9.48764
G1 X154.223 Y130.246 E9.54679
G1 X154.082 Y130.719 E9.57976
G1 X153.921 Y131.107 E9.60782
G1 X153.734 Y131.459 E9.63445
G1 X153.517 Y131.791 E9.66095
G1 X153.27 Y132.102 E9.68748
G1 X152.995 Y132.389 E9.71403
G1 X152.696 Y132.65 E9.74054
G1 X152.352 Y132.896 E9.76879
G1 X152.008 Y133.096 E9.79537
G1 X151.626 Y133.273 E9.8235
G1 X151.25 Y133.405 E9.85012
G1 X150.838 Y133.507 E9.87847
G1 X150.445 Y133.566 E9.90502
G1 X150.048 Y133.589 E9.93159
G1 X149.651 Y133.575 E9.95813
G1 X149.257 Y133.525 E9.98466
G1 X148.868 Y133.439 E10.01127
G1 X148.47 Y133.31 E10.03922
G1 X148.038 Y133.12 E10.07075
G1 X147.675 Y132.913 E10.09867
G1 X147.328 Y132.668 E10.12705
G1 X146.988 Y132.373 E10.15712
G1 X146.714 Y132.084 E10.18372
G1 X146.457 Y131.754 E10.21166
G1 X146.206 Y131.354 E10.24321
G1 X146.018 Y130.974 E10.27153
G1 X145.831 Y130.451 E10.30864
G1 X145.732 Y130.034 E10.33727
G1 X145.678 Y129.637 E10.36404
G1 X145.661 Y129.239 E10.39065
G1 X145.683 Y128.814 E10.41908
G1 X145.745 Y128.428 E10.4452
G1 X145.928 Y127.955 E10.47908
G1 X146.178 Y127.596 E10.50831
G1 X146.479 Y127.314 E10.53586
G1 X147.124 Y126.95 E10.58534
G1 X146.62 Y126.446 E10.63296
M73 P30 R0
G1 X146.489 Y126.157 E10.65416
G1 X146.488 Y124.353 E10.77468
G1 X146.614 Y124.069 E10.79544
G1 X147.084 Y123.582 E10.84065
G1 X147.434 Y123.396 E10.86713
G1 X147.434 Y120.079 E11.08872
G1 X147.202 Y119.942 E11.10672
G1 X146.706 Y119.446 E11.15358
G1 X146.575 Y119.157 E11.17478
G1 X146.564 Y118.361 E11.22796
G1 X146.601 Y118.179 E11.24037
G1 X146.721 Y117.925 E11.25914
G1 X147.2 Y118.16 F7800
G1 F1800
G1 X147.289 Y118.01 E11.27079
G1 X148.058 Y117.415 E11.33575
G1 X148.651 Y117.033 E11.38287
G1 X148.944 Y116.947 E11.40327
G1 X149.775 Y116.947 E11.45879
G1 X150 Y117.04 E11.47505
G1 X150.225 Y116.947 E11.49131
G1 X151.056 Y116.947 E11.54683
G1 X151.349 Y117.033 E11.56723
G1 X151.942 Y117.415 E11.61435
G1 X152.711 Y118.01 E11.67931
G1 X152.886 Y118.335 E11.70397
G1 X152.9 Y118.395 E11.70809
G1 X152.9 Y119.025 E11.75018
G1 X152.859 Y119.124 E11.75734
G1 X152.47 Y119.513 E11.79409
G1 X152.372 Y119.554 E11.80119
G1 X152.03 Y119.554 E11.82404
G1 X152.03 Y123.945 E12.11738
G1 X152.435 Y123.95 E12.14444
M73 P31 R0
G1 X152.532 Y123.992 E12.1515
G1 X152.915 Y124.38 E12.18792
G1 X152.956 Y124.477 E12.19496
G1 X152.956 Y125.775 E12.28167
G1 X153.694 Y128.344 E12.46023
G1 X153.781 Y128.842 E12.494
G1 X153.801 Y129.366 E12.52903
G1 X153.704 Y130.114 E12.57942
G1 X153.573 Y130.552 E12.60996
G1 X153.433 Y130.888 E12.63428
G1 X153.268 Y131.195 E12.65756
G1 X153.077 Y131.486 E12.68081
G1 X152.859 Y131.758 E12.7041
G1 X152.618 Y132.009 E12.72735
G1 X152.355 Y132.236 E12.75056
G1 X152.052 Y132.452 E12.77542
G1 X151.751 Y132.626 E12.79865
G1 X151.435 Y132.772 E12.8219
G1 X151.106 Y132.889 E12.84523
G1 X150.744 Y132.98 E12.87017
G1 X150.4 Y133.032 E12.89341
G1 X150.052 Y133.053 E12.9167
G1 X149.704 Y133.042 E12.93996
G1 X149.359 Y132.999 E12.96319
G1 X149.018 Y132.925 E12.9865
G1 X148.673 Y132.814 E13.01071
G1 X148.267 Y132.635 E13.04035
G1 X147.953 Y132.456 E13.0645
G1 X147.649 Y132.24 E13.08941
G1 X147.367 Y131.995 E13.11437
G1 X147.127 Y131.742 E13.13767
G1 X146.903 Y131.457 E13.16189
G1 X146.667 Y131.082 E13.19149
G1 X146.506 Y130.753 E13.21596
G1 X146.341 Y130.287 E13.24899
G1 X146.257 Y129.926 E13.27375
G1 X146.211 Y129.579 E13.29713
G1 X146.197 Y129.231 E13.3204
G1 X146.217 Y128.858 E13.34535
G1 X146.269 Y128.542 E13.36674
G1 X146.39 Y128.228 E13.38922
G1 X146.567 Y127.965 E13.4104
G1 X146.818 Y127.731 E13.43332
G1 X147.177 Y127.539 E13.46052
M73 P32 R0
G1 X147.524 Y127.457 E13.48434
G1 X147.672 Y127.449 E13.49424
G1 X148.065 Y127.502 E13.52073
G1 X148.213 Y127.551 E13.53115
G1 X148.603 Y127.782 E13.56143
G1 X148.716 Y127.887 E13.57173
G1 X149.124 Y128.422 E13.61668
G1 X149.526 Y128.208 E13.6471
G1 X149.335 Y127.649 E13.68656
G1 X149.249 Y127.281 E13.71181
G1 X149.162 Y126.554 E13.76072
G1 X147.542 Y126.554 E13.86894
G1 X147.444 Y126.513 E13.87604
G1 X147.055 Y126.124 E13.91279
G1 X147.014 Y126.025 E13.91995
G1 X147.014 Y124.482 E14.02303
G1 X147.053 Y124.385 E14.03001
G1 X147.427 Y123.999 E14.06592
G1 X147.522 Y123.957 E14.07286
G1 X147.97 Y123.941 E14.10281
G1 X147.97 Y119.554 E14.39589
G1 X147.628 Y119.554 E14.41874
G1 X147.53 Y119.513 E14.42584
G1 X147.141 Y119.124 E14.46259
G1 X147.1 Y119.025 E14.46975
G1 X147.1 Y118.395 E14.51184
G1 X147.16 Y118.241 E14.52288
G1 X147.641 Y118.477 F7800
G1 F1800
G1 X147.69 Y118.376 E14.53038
G1 X148.376 Y117.846 E14.58829
G1 X148.908 Y117.504 E14.63054
G1 X148.982 Y117.482 E14.6357
G1 X149.611 Y117.482 E14.67772
G1 X150 Y117.872 E14.71452
G1 X150.389 Y117.482 E14.75132
M73 P33 R0
G1 X151.018 Y117.482 E14.79334
G1 X151.092 Y117.504 E14.7985
G1 X151.623 Y117.846 E14.84069
G1 X152.31 Y118.376 E14.89866
G1 X152.364 Y118.488 E14.90697
G1 X152.364 Y118.861 E14.93189
G1 X152.208 Y119.018 E14.94668
G1 X151.494 Y119.018 E14.99438
G1 X151.494 Y124.322 E15.34872
G1 X151.898 Y124.479 E15.37768
G1 X152.265 Y124.484 E15.4022
G1 X152.42 Y124.64 E15.41689
G1 X152.42 Y125.85 E15.49772
G1 X153.175 Y128.478 E15.68039
G1 X153.25 Y128.914 E15.70994
G1 X153.265 Y129.362 E15.73989
G1 X153.184 Y129.981 E15.7816
G1 X153.064 Y130.385 E15.80975
G1 X152.945 Y130.667 E15.8302
G1 X152.803 Y130.93 E15.85017
G1 X152.638 Y131.179 E15.87013
G1 X152.45 Y131.412 E15.89013
G1 X152.242 Y131.627 E15.91011
G1 X152.015 Y131.822 E15.9301
G1 X151.772 Y131.996 E15.95007
G1 X151.513 Y132.146 E15.97006
G1 X151.242 Y132.273 E15.99005
G1 X150.961 Y132.373 E16.00998
G1 X150.648 Y132.453 E16.03156
G1 X150.353 Y132.499 E16.05151
G1 X150.055 Y132.517 E16.07145
M73 P34 R0
G1 X149.756 Y132.509 E16.09143
G1 X149.459 Y132.473 E16.11142
G1 X149.167 Y132.41 E16.13138
G1 X148.875 Y132.318 E16.15183
G1 X148.497 Y132.151 E16.17944
G1 X148.232 Y131.998 E16.19988
G1 X147.989 Y131.826 E16.21977
G1 X147.745 Y131.615 E16.24132
G1 X147.538 Y131.399 E16.26131
G1 X147.348 Y131.159 E16.28176
G1 X147.129 Y130.81 E16.30929
G1 X146.995 Y130.535 E16.32973
G1 X146.852 Y130.125 E16.35874
G1 X146.782 Y129.82 E16.37965
G1 X146.744 Y129.523 E16.39965
G1 X146.733 Y129.224 E16.41964
G1 X146.751 Y128.904 E16.44105
G1 X146.792 Y128.658 E16.45771
G1 X146.856 Y128.492 E16.4696
G1 X146.959 Y128.332 E16.48231
G1 X147.158 Y128.146 E16.50051
G1 X147.333 Y128.052 E16.51378
G1 X147.617 Y127.985 E16.53327
G1 X148.007 Y128.045 E16.55963
G1 X148.307 Y128.235 E16.58335
G1 X149.444 Y129.725 E16.70856
G1 X149.646 Y129.892 E16.72607
G1 X149.947 Y129.982 E16.74706
G1 X150.216 Y129.951 E16.76515
G1 X150.392 Y129.866 E16.77821
G1 X150.525 Y129.757 E16.7897
G1 X150.629 Y129.62 E16.80119
G1 X150.711 Y129.434 E16.81477
G1 X150.719 Y129.123 E16.83555
G1 X150.661 Y128.932 E16.84889
G1 X150.352 Y128.522 E16.88319
G1 X150.131 Y128.177 E16.91056
G1 X149.943 Y127.776 E16.94015
G1 X149.847 Y127.491 E16.96024
G1 X149.774 Y127.175 E16.98191
G1 X149.726 Y126.771 E17.00909
G1 X149.718 Y126.018 E17.0594
G1 X147.707 Y126.018 E17.19375
G1 X147.55 Y125.861 E17.20858
G1 X147.55 Y124.642 E17.29002
G1 X147.7 Y124.486 E17.30448
G1 X148.132 Y124.472 E17.33336
G1 X148.505 Y124.312 E17.36047
G1 X148.505 Y119.018 E17.71414
G1 X147.792 Y119.018 E17.76177
M73 P35 R0
G1 X147.635 Y118.861 E17.7766
G1 X147.635 Y118.566 E17.79631
G1 E16.39631 F2400
G92 E0
G1 Z.8 F7800
G1 X150.797 Y125.531
G1 Z.3
G1 E1.4 F2400
;TYPE:Perimeter
;WIDTH:0.580561
G1 F1800
M73 P36 R0
G1 X151.101 Y125.335 E1.42329
G1 X151.326 Y125.424 E1.43887
G1 X151.326 Y125.532 E1.44582
;WIDTH:0.587627
G1 X151.336 Y126.036 E1.47872
;WIDTH:0.624614
G1 X151.39 Y126.298 E1.49741
;WIDTH:0.661601
G1 X151.444 Y126.559 E1.51726
;WIDTH:0.666084
G1 X151.677 Y127.381 E1.58138
;WIDTH:0.70995
G1 X151.693 Y127.517 E1.59241
;WIDTH:0.753817
G1 X151.71 Y127.653 E1.6042
;WIDTH:0.797684
G1 X151.726 Y127.789 E1.61672
;WIDTH:0.84155
G1 X151.742 Y127.924 E1.6299
;WIDTH:0.885417
G1 X151.758 Y128.06 E1.64392
;WIDTH:0.929284
G1 X151.775 Y128.196 E1.65871
;WIDTH:0.973151
G1 X151.791 Y128.332 E1.67423
G1 X151.735 Y128.273 E1.68345
;WIDTH:0.930629
G1 X151.679 Y128.214 E1.69224
;WIDTH:0.888108
G1 X151.622 Y128.154 E1.70074
;WIDTH:0.845587
G1 X151.503 Y128.026 E1.71777
;WIDTH:0.800711
G1 X151.383 Y127.897 E1.73395
;WIDTH:0.755835
G1 X151.263 Y127.768 E1.74914
;WIDTH:0.710959
G1 X151.143 Y127.639 E1.76335
;WIDTH:0.688051
G1 X150.953 Y127.167 E1.80293
G1 X150.858 Y126.644 E1.84428
;WIDTH:0.661601
G1 X150.837 Y126.365 E1.86512
;WIDTH:0.624614
G1 X150.817 Y126.085 E1.88473
;WIDTH:0.587627
G1 X150.8 Y125.621 E1.91503
G1 X149.265 Y124.958 F7800
;TYPE:External perimeter
;WIDTH:0.649188
G1 F1800
G1 X149.333 Y124.977 E1.92018
;WIDTH:0.610189
G1 X149.4 Y124.997 E1.92494
;WIDTH:0.57119
G1 X149.468 Y125.016 E1.9294
;WIDTH:0.532191
G1 X150.017 Y125.016 E1.96143
;WIDTH:0.566095
G1 X150.319 Y125.026 E1.98034
;WIDTH:0.6
G1 X150.621 Y125.035 E2.00052
G1 X150.767 Y124.912 E2.01327
;WIDTH:0.640429
G1 X150.798 Y124.711 E2.02788
;WIDTH:0.680858
G1 X150.829 Y124.509 E2.04359
;WIDTH:0.721288
G1 X150.861 Y124.308 E2.06027
G1 X150.923 Y124.421 E2.07083
;WIDTH:0.693369
G1 X150.986 Y124.535 E2.08105
;WIDTH:0.665451
G1 X151.167 Y124.703 E2.09956
;WIDTH:0.632725
G1 X151.347 Y124.871 E2.11701
;WIDTH:0.6
