; generated by PrusaSlicer 2.6.1+win64 on 2023-10-10 at 07:50:53 UTC

; 

; external perimeters extrusion width = 0.60mm
; perimeters extrusion width = 0.60mm
; infill extrusion width = 0.65mm
; solid infill extrusion width = 0.60mm
; top infill extrusion width = 0.65mm
; support material extrusion width = 0.65mm
; first layer extrusion width = 0.60mm

M73 P0 R30
;TYPE:Custom
M104 S216 ; set extruder temp
M140 S60 ; set bed temp
M190 S60 ; wait for bed temp
M109 S216 ; wait for extruder temp

G28 ; home all
BED_MESH_PROFILE LOAD=default;

G1 Z2.0 F3000 ; Move Z Axis up little to prevent scratching of Heat Bed
G1 X0.1 Y5 Z0.28 F5000.0 ; Move to start position


G92 E0 ; Reset Extruder
G1 Z2.0 F3000 ; Move Z Axis up little to prevent scratching of Heat Bed
G1 X0.1 Y10 Z0.28 F5000.0 ; Move to start position

G1 X0.1 Y200 Z0.28 F1500.0 E15 ; Draw the first line
G1 X0.4 Y200 Z0.28 F5000.0 ; Move to side a little
G1 X0.4 Y10 Z0.28 F1500.0 E30 ; Draw the second line


G92 E0 ; Reset Extruder
G1 Z0.5 F3000 ; Move Z Axis up little to prevent scratching of Heat Bed
M117 Godmode is enabled
G21 ; set units to millimeters
G90 ; use absolute coordinates
M82 ; use absolute distances for extrusion
G92 E0
; Filament gcode
M107
;LAYER_CHANGE
;Z:0.3
;HEIGHT:0.3
G1 Z.3 F7800
G1 E-1.4 F2400
G92 E0
G1 Z.8 F7800
G1 X27.22 Y120.151
G1 Z.3
M73 P1 R30
G1 E1.4 F2400
;TYPE:Skirt/Brim
;WIDTH:0.6
G1 F1800
G1 X27.529 Y120.085 E1.42111
G1 X77.212 Y120.085 E4.7402
G1 X77.52 Y120.152 E4.76126
G1 X77.864 Y120.294 E4.78612
G1 X78.083 Y120.429 E4.80331
G1 X78.772 Y121.107 E4.86789
G1 X78.921 Y121.327 E4.88564
G1 X79.103 Y121.763 E4.9172
G1 X79.157 Y122.027 E4.9352
G1 X79.161 Y123.08 E5.00555
G1 X202.622 Y123.08 E13.25341
G1 X202.627 Y122.027 E13.32376
G1 X202.68 Y121.763 E13.34175
G1 X202.863 Y121.327 E13.37334
G1 X203.012 Y121.107 E13.39109
G1 X203.66 Y120.461 E13.45222
G1 X203.883 Y120.313 E13.4701
G1 X204.265 Y120.151 E13.49782
G1 X204.624 Y120.08 E13.52227
G1 X254.204 Y120.08 E16.83448
G1 X254.565 Y120.151 E16.85906
G1 X254.909 Y120.294 E16.88395
G1 X255.174 Y120.466 E16.90506
G1 X255.825 Y121.117 E16.96656
G1 X255.994 Y121.38 E16.98744
G1 X256.135 Y121.722 E17.01215
G1 X256.207 Y122.083 E17.03674
G1 X256.207 Y124.917 E17.22607
G1 X256.136 Y125.276 E17.25052
G1 X255.97 Y125.664 E17.27871
G1 X255.791 Y125.925 E17.29985
G1 X255.214 Y126.502 E17.35436
G1 X254.958 Y126.68 E17.37519
G1 X254.567 Y126.847 E17.40359
G1 X254.204 Y126.92 E17.42833
G1 X220.337 Y126.92 E19.69083
G1 X217.81 Y129.432 E19.92887
G1 X217.458 Y129.655 E19.95671
G1 X217.065 Y129.818 E19.98513
G1 X216.551 Y129.92 E20.02014
G1 X68.233 Y129.92 E29.92859
G1 X67.718 Y129.818 E29.96366
M73 P1 R29
G1 X67.325 Y129.655 E29.99208
G1 X66.974 Y129.432 E30.01986
G1 X64.446 Y126.92 E30.25794
G1 X27.579 Y126.92 E32.72086
G1 X27.219 Y126.849 E32.74537
G1 X26.876 Y126.707 E32.77017
G1 X26.57 Y126.502 E32.79478
G1 X25.993 Y125.925 E32.84929
G1 X25.842 Y125.716 E32.86652
G1 X25.648 Y125.277 E32.89858
G1 X25.581 Y124.967 E32.91977
G1 X25.576 Y122.082 E33.1125
G1 X25.648 Y121.722 E33.13703
G1 X25.79 Y121.38 E33.16177
G1 X25.959 Y121.117 E33.18265
G1 X26.609 Y120.466 E33.24411
G1 X26.874 Y120.294 E33.26522
G1 X27.137 Y120.185 E33.28424
G1 X27.342 Y120.68 F7800
G1 F1800
G1 X27.605 Y120.615 E33.30234
G1 X77.182 Y120.62 E36.61435
G1 X77.336 Y120.655 E36.6249
G1 X77.636 Y120.779 E36.64659
G1 X77.77 Y120.864 E36.65719
G1 X78.35 Y121.437 E36.71166
G1 X78.441 Y121.567 E36.72226
G1 X78.587 Y121.907 E36.74698
G1 X78.621 Y122.06 E36.75745
G1 X78.627 Y123.615 E36.86133
G1 X203.156 Y123.615 E45.18054
M73 P2 R29
G1 X203.162 Y122.06 E45.28442
G1 X203.196 Y121.907 E45.29489
G1 X203.342 Y121.567 E45.31961
G1 X203.434 Y121.437 E45.33025
G1 X204.013 Y120.864 E45.38467
G1 X204.147 Y120.779 E45.39527
G1 X204.445 Y120.656 E45.41681
G1 X204.651 Y120.615 E45.43084
G1 X254.178 Y120.615 E48.73951
G1 X254.384 Y120.656 E48.75354
G1 X254.678 Y120.778 E48.7748
G1 X254.852 Y120.894 E48.78877
G1 X255.422 Y121.472 E48.843
G1 X255.507 Y121.606 E48.8536
G1 X255.63 Y121.903 E48.87508
G1 X255.671 Y122.109 E48.88911
G1 X255.671 Y124.891 E49.07496
G1 X255.63 Y125.097 E49.08899
G1 X255.509 Y125.391 E49.11023
G1 X255.392 Y125.566 E49.12429
G1 X254.851 Y126.107 E49.1754
G1 X254.72 Y126.199 E49.18609
G1 X254.382 Y126.344 E49.21066
G1 X254.178 Y126.385 E49.22456
G1 X220.115 Y126.385 E51.50015
G1 X217.494 Y128.999 E51.74744
G1 X217.229 Y129.17 E51.76851
G1 X216.885 Y129.313 E51.7934
G1 X216.524 Y129.385 E51.81799
G1 X68.259 Y129.385 E61.72289
G1 X67.899 Y129.313 E61.74742
G1 X67.554 Y129.17 E61.77237
G1 X67.289 Y128.999 E61.79344
G1 X64.668 Y126.385 E62.04073
G1 X27.605 Y126.385 E64.51674
G1 X27.399 Y126.344 E64.53077
G1 X27.105 Y126.222 E64.55203
G1 X26.93 Y126.105 E64.56609
G1 X26.389 Y125.564 E64.6172
G1 X26.297 Y125.433 E64.62789
G1 X26.153 Y125.096 E64.65237
G1 X26.112 Y124.891 E64.66634
G1 X26.112 Y122.109 E64.85219
G1 X26.153 Y121.903 E64.86622
G1 X26.276 Y121.606 E64.8877
G1 X26.361 Y121.472 E64.8983
G1 X26.931 Y120.894 E64.95253
G1 X27.105 Y120.778 E64.9665
G1 X27.259 Y120.714 E64.97764
G1 X27.464 Y121.209 F7800
G1 F1800
G1 X27.632 Y121.151 E64.98951
G1 X77.106 Y121.151 E68.29464
G1 X77.448 Y121.292 E68.31935
G1 X77.949 Y121.794 E68.36673
G1 X78.08 Y122.083 E68.38793
G1 X78.091 Y124.151 E68.52609
G1 X203.693 Y124.151 E76.91698
G1 X203.703 Y122.083 E77.05514
M73 P3 R29
G1 X203.834 Y121.794 E77.07634
G1 X204.336 Y121.292 E77.12377
G1 X204.677 Y121.151 E77.14842
G1 X254.152 Y121.151 E80.45362
G1 X254.493 Y121.292 E80.47827
G1 X254.995 Y121.794 E80.5257
G1 X255.126 Y122.083 E80.5469
G1 X255.136 Y124.865 E80.73275
G1 X254.995 Y125.206 E80.7574
G1 X254.493 Y125.708 E80.80483
G1 X254.152 Y125.849 E80.82948
G1 X219.893 Y125.849 E83.11817
G1 X217.173 Y128.569 E83.37515
G1 X216.998 Y128.686 E83.38921
G1 X216.704 Y128.808 E83.41047
G1 X216.498 Y128.849 E83.4245
G1 X68.285 Y128.849 E93.32593
G1 X68.079 Y128.808 E93.33996
G1 X67.785 Y128.686 E93.36122
G1 X67.61 Y128.569 E93.37528
G1 X64.89 Y125.849 E93.63226
G1 X27.632 Y125.849 E96.1213
G1 X27.291 Y125.708 E96.14595
G1 X26.789 Y125.206 E96.19338
G1 X26.647 Y124.865 E96.21806
G1 X26.658 Y122.083 E96.40391
G1 X26.789 Y121.794 E96.42511
G1 X27.291 Y121.292 E96.47254
G1 X27.381 Y121.244 E96.47935
G1 X27.613 Y121.727 F7800
G1 F1800
G1 X27.711 Y121.687 E96.48642
G1 X77.027 Y121.687 E99.781
G1 X77.125 Y121.727 E99.78807
G1 X77.514 Y122.116 E99.82482
G1 X77.555 Y122.215 E99.83198
G1 X77.555 Y124.687 E99.99712
G1 X204.228 Y124.687 E108.45956
G1 X204.228 Y122.215 E108.6247
G1 X204.269 Y122.116 E108.63186
G1 X204.658 Y121.727 E108.66861
G1 X204.757 Y121.687 E108.67574
G1 X254.072 Y121.687 E111.97025
G1 X254.17 Y121.727 E111.97732
M73 P4 R29
G1 X254.559 Y122.116 E112.01407
G1 X254.6 Y122.215 E112.02123
G1 X254.6 Y124.785 E112.19292
G1 X254.559 Y124.884 E112.20008
G1 X254.17 Y125.273 E112.23683
G1 X254.072 Y125.313 E112.2439
G1 X219.672 Y125.313 E114.54201
G1 X216.813 Y128.172 E114.81212
G1 X216.472 Y128.313 E114.83677
G1 X68.312 Y128.313 E124.73466
G1 X67.971 Y128.172 E124.75931
G1 X65.112 Y125.313 E125.02942
G1 X27.711 Y125.313 E127.52801
G1 X27.613 Y125.273 E127.53508
G1 X27.224 Y124.884 E127.57183
G1 X27.183 Y124.785 E127.57899
G1 X27.183 Y122.215 E127.75068
G1 X27.224 Y122.116 E127.75784
G1 X27.549 Y121.791 E127.78855
G1 X27.876 Y122.222 F7800
G1 F1800
G1 X76.863 Y122.222 E131.06115
G1 X77.019 Y122.379 E131.07594
G1 X77.019 Y125.222 E131.26587
G1 X204.764 Y125.222 E139.79993
G1 X204.764 Y122.379 E139.98986
M73 P4 R28
G1 X204.921 Y122.222 E140.00469
G1 X253.908 Y122.222 E143.27729
G1 X254.065 Y122.379 E143.29212
G1 X254.065 Y124.621 E143.4419
G1 X253.908 Y124.778 E143.45673
G1 X219.45 Y124.778 E145.75871
G1 X216.49 Y127.737 E146.03832
M73 P5 R28
G1 X216.392 Y127.778 E146.04542
G1 X68.391 Y127.778 E155.93269
G1 X68.293 Y127.737 E155.93979
G1 X65.334 Y124.778 E156.21935
G1 X27.876 Y124.778 E158.72175
G1 X27.719 Y124.621 E158.73658
G1 X27.719 Y122.379 E158.88636
G1 X27.812 Y122.286 E158.89515
G1 E157.49515 F2400
G92 E0
G1 Z.8 F7800
G1 X206.197 Y126.139
G1 Z.3
G1 E1.4 F2400
;TYPE:Perimeter
;WIDTH:0.6
G1 F1800
G1 X206.403 Y125.522 E1.44346
G1 X206.403 Y123.861 E1.55442
G1 X218.048 Y123.861 E2.33237
G1 X215.771 Y126.139 E2.54754
G1 X206.287 Y126.139 E3.18112
G1 X205.234 Y126.493 F7800
;WIDTH:0.963581
G1 F1800
G1 X205.293 Y126.432 E3.19064
;WIDTH:0.918133
G1 X205.352 Y126.371 E3.19968
;WIDTH:0.872685
G1 X205.411 Y126.309 E3.20831
;WIDTH:0.827238
G1 X205.47 Y126.248 E3.21638
;WIDTH:0.78179
G1 X205.529 Y126.187 E3.22397
;WIDTH:0.736342
G1 X205.588 Y126.126 E3.23108
;WIDTH:0.690895
G1 X205.648 Y126.065 E3.23777
;WIDTH:0.645447
G1 X205.707 Y126.004 E3.24392
;WIDTH:0.6
G1 X205.867 Y125.522 E3.27785
G1 X205.867 Y123.326 E3.42455
G1 X218.515 Y123.326 E4.2695
;WIDTH:0.645447
G1 X218.595 Y123.348 E4.27551
;WIDTH:0.690895
G1 X218.675 Y123.371 E4.28201
;WIDTH:0.736342
G1 X218.755 Y123.394 E4.28899
;WIDTH:0.78179
G1 X218.835 Y123.417 E4.29644
;WIDTH:0.827238
G1 X218.915 Y123.439 E4.30433
;WIDTH:0.872685
G1 X218.995 Y123.462 E4.31272
;WIDTH:0.918133
G1 X219.075 Y123.485 E4.32158
;WIDTH:0.963581
G1 X219.155 Y123.507 E4.33089
G1 X219.105 Y123.558 E4.3389
;WIDTH:0.918133
G1 X219.056 Y123.608 E4.34635
;WIDTH:0.872685
G1 X219.006 Y123.658 E4.35348
;WIDTH:0.827238
G1 X218.956 Y123.709 E4.36028
;WIDTH:0.78179
G1 X218.906 Y123.759 E4.36661
;WIDTH:0.736342
G1 X218.857 Y123.809 E4.37248
;WIDTH:0.690895
G1 X218.807 Y123.859 E4.37801
;WIDTH:0.645447
G1 X218.757 Y123.91 E4.38319
;WIDTH:0.6
G1 X215.993 Y126.674 E4.64432
G1 X206.042 Y126.674 E5.3091
;WIDTH:0.645447
G1 X205.941 Y126.652 E5.31659
;WIDTH:0.690895
G1 X205.84 Y126.629 E5.32468
;WIDTH:0.736342
G1 X205.739 Y126.606 E5.33336
;WIDTH:0.78179
G1 X205.638 Y126.583 E5.34263
;WIDTH:0.827238
G1 X205.537 Y126.561 E5.35247
;WIDTH:0.872685
G1 X205.436 Y126.538 E5.36291
;WIDTH:0.918133
G1 X205.335 Y126.515 E5.37394
;WIDTH:0.963581
G1 X205.322 Y126.512 E5.37544
G1 E3.97544 F2400
G92 E0
G1 Z.8 F7800
G1 X75.471 Y125.794
G1 Z.3
G1 E1.4 F2400
;WIDTH:0.6
G1 F1800
G1 X75.586 Y126.139 E1.42429
G1 X69.013 Y126.139 E1.8634
G1 X66.735 Y123.861 E2.07862
G1 X75.38 Y123.861 E2.65615
G1 X75.38 Y125.522 E2.76711
G1 X75.443 Y125.709 E2.78029
G1 X75.961 Y125.658 F7800
G1 F1800
G1 X76.077 Y126.004 E2.80467
;WIDTH:0.649823
G1 X76.169 Y126.075 E2.81316
;WIDTH:0.699646
G1 X76.26 Y126.146 E2.82231
;WIDTH:0.749469
G1 X76.352 Y126.217 E2.83224
;WIDTH:0.799293
G1 X76.444 Y126.288 E2.84289
;WIDTH:0.849116
G1 X76.536 Y126.358 E2.8542
;WIDTH:0.898939
G1 X76.628 Y126.429 E2.8663
;WIDTH:0.948763
G1 X76.719 Y126.5 E2.87903
G1 X76.58 Y126.525 E2.89461
;WIDTH:0.898939
G1 X76.44 Y126.55 E2.90941
;WIDTH:0.849116
G1 X76.3 Y126.575 E2.92333
;WIDTH:0.799293
G1 X76.161 Y126.6 E2.93628
;WIDTH:0.749469
G1 X76.021 Y126.625 E2.94843
;WIDTH:0.699646
G1 X75.881 Y126.649 E2.95968
;WIDTH:0.649823
G1 X75.742 Y126.674 E2.96999
;WIDTH:0.6
G1 X68.791 Y126.674 E3.43435
G1 X66.026 Y123.91 E3.69553
;WIDTH:0.649823
G1 X65.945 Y123.851 E3.70285
;WIDTH:0.699646
G1 X65.864 Y123.793 E3.71074
;WIDTH:0.749469
G1 X65.783 Y123.734 E3.7193
;WIDTH:0.799293
G1 X65.701 Y123.676 E3.72851
;WIDTH:0.849116
G1 X65.62 Y123.617 E3.73832
;WIDTH:0.898939
G1 X65.539 Y123.559 E3.74869
;WIDTH:0.948763
G1 X65.458 Y123.5 E3.75974
G1 X65.574 Y123.475 E3.77283
;WIDTH:0.898939
G1 X65.689 Y123.45 E3.78508
;WIDTH:0.849116
G1 X65.805 Y123.425 E3.79669
;WIDTH:0.799293
G1 X65.921 Y123.4 E3.80757
;WIDTH:0.749469
G1 X66.037 Y123.375 E3.81771
;WIDTH:0.699646
G1 X66.152 Y123.351 E3.82702
;WIDTH:0.649823
G1 X66.268 Y123.326 E3.83568
;WIDTH:0.6
G1 X75.916 Y123.326 E4.48022
G1 X75.916 Y125.522 E4.62692
G1 X75.933 Y125.573 E4.63051
G1 X76.452 Y125.522 F7800
;TYPE:External perimeter
G1 F1800
G1 X76.505 Y125.683 E4.64183
G1 X76.719 Y125.79 E4.65781
G1 X205.064 Y125.79 E13.23194
G1 X205.278 Y125.683 E13.24792
M73 P6 R28
G1 X205.332 Y125.522 E13.25926
G1 X205.332 Y122.79 E13.44177
G1 X253.497 Y122.79 E16.65945
G1 X253.497 Y124.21 E16.75431
G1 X219.325 Y124.21 E19.03718
G1 X219.136 Y124.288 E19.05084
G1 X216.214 Y127.21 E19.3269
G1 X68.569 Y127.21 E29.19038
G1 X65.647 Y124.288 E29.46644
G1 X65.458 Y124.21 E29.4801
G1 X28.287 Y124.21 E31.96332
G1 X28.287 Y122.79 E32.05818
G1 X76.452 Y122.79 E35.27586
G1 X76.452 Y125.432 E35.45236
G1 X76.397 Y125.683 F7800
G1 E34.05236 F2400
G92 E0
G1 Z.8 F7800
G1 X76.198 Y125.432
G1 X68.674 Y126.956
G1 X216.824 Y126.242
G1 X219.109 Y123.956
G1 X219.155 Y123.956
G1 X219.155 Y123.507
G1 Z.3
G1 E1.4 F2400
;TYPE:Perimeter
;WIDTH:0.963581
G1 F1800
G1 X219.325 Y123.5 E1.41908
;WIDTH:0.948763
G1 X252.787 Y123.5 E5.11011
G1 E3.71011 F2400
G92 E0
G1 Z.8 F7800
G1 X252.787 Y123.044
G1 X219.109 Y123.956
G1 X216.109 Y126.956
G1 X76.719 Y126.956
G1 X76.719 Y126.5
G1 Z.3
G1 E1.4 F2400
G1 F1800
G1 X205.064 Y126.5 E15.55709
;WIDTH:0.963581
G1 X205.234 Y126.493 E15.57617
M73 P7 R28
G1 E14.17617 F2400
G92 E0
G1 Z.8 F7800
G1 X205.234 Y126.044
G1 X76.198 Y126.044
G1 X76.198 Y123.043
G1 X28.54 Y123.957
G1 X28.997 Y123.956
G1 X28.997 Y123.5
G1 Z.3
G1 E1.4 F2400
;WIDTH:0.948763
G1 F1800
G1 X65.458 Y123.5 E5.42183
G1 E4.02183 F2400
G92 E0
G1 Z.8 F7800
G1 X67.494 Y124.022
G1 Z.3
G1 E1.4 F2400
;TYPE:Solid infill
;WIDTH:0.643373
G1 F1800
G1 X69.21 Y125.737 E1.5752
G1 X70.028 Y125.737 E1.63427
G1 X68.554 Y124.263 E1.78481
G1 X69.373 Y124.263 E1.84395
G1 X70.847 Y125.737 E1.99449
G1 X71.666 Y125.737 E2.05363
G1 X70.192 Y124.263 E2.20417
G1 X71.011 Y124.263 E2.26331
G1 X72.485 Y125.737 E2.41385
G1 X73.304 Y125.737 E2.47299
G1 X71.83 Y124.263 E2.62353
G1 X72.648 Y124.263 E2.6826
G1 X74.123 Y125.737 E2.83319
G1 X74.941 Y125.737 E2.89226
G1 X73.467 Y124.263 E3.0428
G1 X74.286 Y124.263 E3.10194
G1 X75.22 Y125.197 E3.19733
G1 E1.79733 F2400
G92 E0
G1 Z.8 F7800
G1 X76.198 Y125.197
G1 X76.198 Y126.044
G1 X205.585 Y126.044
G1 X205.585 Y125.02
G1 X206.564 Y125.02
G1 Z.3
G1 E1.4 F2400
;WIDTH:0.620336
G1 F1800
G1 X207.28 Y125.737 E1.47026
G1 X208.066 Y125.737 E1.52476
G1 X206.805 Y124.475 E1.64847
G1 X206.805 Y124.263 E1.66317
G1 X207.379 Y124.263 E1.70297
G1 X208.853 Y125.737 E1.84752
G1 X209.639 Y125.737 E1.90202
G1 X208.165 Y124.263 E2.04657
G1 X208.951 Y124.263 E2.10107
G1 X210.425 Y125.737 E2.24562
G1 X211.211 Y125.737 E2.30012
G1 X209.737 Y124.263 E2.44467
G1 X210.523 Y124.263 E2.49917
G1 X211.998 Y125.737 E2.64377
G1 X212.784 Y125.737 E2.69827
G1 X211.31 Y124.263 E2.84282
G1 X212.096 Y124.263 E2.89732
G1 X213.57 Y125.737 E3.04187
G1 X214.356 Y125.737 E3.09637
G1 X212.882 Y124.263 E3.24092
G1 X213.668 Y124.263 E3.29542
G1 X215.143 Y125.737 E3.44002
G1 X215.604 Y125.737 E3.47199
G1 X215.767 Y125.575 E3.48793
G1 X214.455 Y124.263 E3.61659
G1 X215.241 Y124.263 E3.67109
G1 X216.16 Y125.182 E3.76121
G1 X216.553 Y124.789 E3.79975
G1 X216.027 Y124.263 E3.85133
G1 X216.813 Y124.263 E3.90583
G1 X217.116 Y124.566 E3.93554
;LAYER_CHANGE
;Z:0.58
;HEIGHT:0.28
G1 Z.58 F7800
G1 X205.552 Y126.38
;TYPE:Perimeter
;WIDTH:0.599999
G1 F2100
G1 X205.622 Y126.35 E3.94033
G1 X206.058 Y125.789 E3.98499
G1 X206.162 Y125.27 E4.01826
G1 X206.162 Y123.62 E4.12196
G1 X218.775 Y123.62 E4.9147
G1 X218.475 Y123.776 E4.93595
G1 X215.871 Y126.38 E5.16741
G1 X205.642 Y126.38 E5.81032
G1 X75.704 Y125.679 F7800
G1 F2100
G1 X75.726 Y125.789 E5.81737
G1 X76.162 Y126.35 E5.86203
G1 X76.253 Y126.38 E5.86805
G1 X68.913 Y126.38 E6.32938
G1 X66.308 Y123.776 E6.56088
G1 X65.932 Y123.62 E6.58647
G1 X75.622 Y123.62 E7.1955
G1 X75.622 Y125.27 E7.2992
G1 X75.686 Y125.59 E7.31971
G1 X76.213 Y125.526 F7800
G1 F3300
G1 X76.224 Y125.582 E7.3233
G1 X76.486 Y125.918 E7.35008
;WIDTH:0.637533
G1 X76.607 Y125.977 E7.35913
;WIDTH:0.675067
G1 X76.729 Y126.036 E7.36883
;WIDTH:0.7126
G1 X76.85 Y126.096 E7.37909
;WIDTH:0.750134
G1 X76.972 Y126.155 E7.38998
G1 X204.812 Y126.155 E17.65917
;WIDTH:0.759453
G1 X204.965 Y126.146 E17.67165
M73 P8 R28
G1 X205.048 Y126.089 E17.67985
;WIDTH:0.719589
G1 X205.132 Y126.032 E17.68764
;WIDTH:0.679726
G1 X205.215 Y125.975 E17.6949
;WIDTH:0.639863
G1 X205.298 Y125.918 E17.7017
;WIDTH:0.599999
G1 X205.559 Y125.582 E17.72844
G1 X205.622 Y125.27 E17.74845
G1 X205.622 Y123.08 E17.88609
