; HEADER_BLOCK_START
; generated by OrcaSlicer 1.7.0 on 2023-11-29 at 22:16:48
; total layer number: 132
; HEADER_BLOCK_END

; THUMBNAIL_BLOCK_START
; THUMBNAIL_BLOCK_END

; external perimeters extrusion width = 0.60mm
; perimeters extrusion width = 0.60mm
; infill extrusion width = 0.60mm
; solid infill extrusion width = 0.60mm
; top infill extrusion width = 0.60mm
; first layer extrusion width = 0.62mm

; EXECUTABLE_BLOCK_START
M73 P0 R48
;TYPE:Custom
M104 S220 ; set extruder temp
M140 S60 ; set bed temp
M190 S60 ; wait for bed temp
M109 S220 ; wait for extruder temp

G28 ; home all
BED_MESH_PROFILE LOAD=default;

G1 Z2.0 F3000 ; Move Z Axis up little to prevent scratching of Heat Bed
G1 X0.1 Y5 Z0.28 F5000.0 ; Move to start position


G92 E0 ; Reset Extruder
G1 Z2.0 F3000 ; Move Z Axis up little to prevent scratching of Heat Bed
G1 X0.1 Y10 Z0.28 F5000.0 ; Move to start position

G1 X0.1 Y200 Z0.28 F1500.0 E15 ; Draw the first line
G1 X0.4 Y200 Z0.28 F5000.0 ; Move to side a little
G1 X0.4 Y10 Z0.28 F1500.0 E30 ; Draw the second line


G92 E0 ; Reset Extruder
G1 Z0.5 F3000 ; Move Z Axis up little to prevent scratching of Heat Bed
M117 Godmode is enabled
G90
G21
M83 ; use relative distances for extrusion
; filament start gcode
M106 S0
;LAYER_CHANGE
;Z:0.2
;HEIGHT:0.2
;BEFORE_LAYER_CHANGE
;0.2
G92 E0

G1 E-1.15 F3600
;_SET_FAN_SPEED_CHANGING_LAYER
G1 X111.142 Y104.515 F9000
G1 Z.2
G1 E1.15 F2400
;TYPE:Brim
;WIDTH:0.62
G1 F1200
G1 X111.48 Y104.266 E.02013
G1 X111.862 Y104.093 E.02013
G1 X112.279 Y104.001 E.02046
G1 X112.508 Y103.988 E.01102
G1 X116.485 Y103.988 E.19082
G1 X116.917 Y104.033 E.02085
G1 X117.316 Y104.162 E.02013
G1 X117.68 Y104.371 E.02013
G1 X117.993 Y104.65 E.02013
G1 X118.242 Y104.988 E.02013
G1 X118.415 Y105.37 E.02013
G1 X118.507 Y105.787 E.02046
G1 X118.52 Y106.016 E.01102
G1 X118.52 Y121.684 E.75179
G1 X118.569 Y121.844 E.00806
G1 X118.699 Y121.951 E.00806
G1 X118.808 Y121.972 E.00535
G1 X167.485 Y121.972 E2.33572
G1 X167.917 Y122.017 E.02085
G1 X168.316 Y122.146 E.02013
G1 X168.68 Y122.355 E.02013
G1 X168.993 Y122.634 E.02013
G1 X169.242 Y122.972 E.02013
G1 X169.415 Y123.354 E.02013
G1 X169.507 Y123.771 E.02046
G1 X169.52 Y124 E.01102
G1 X169.52 Y133.977 E.47873
G1 X169.475 Y134.409 E.02086
G1 X169.346 Y134.808 E.02013
G1 X169.137 Y135.172 E.02013
G1 X168.858 Y135.485 E.02013
G1 X168.52 Y135.734 E.02013
G1 X168.138 Y135.907 E.02013
G1 X167.721 Y135.999 E.02046
G1 X167.492 Y136.012 E.01102
G1 X112.515 Y136.012 E2.63803
G1 X112.083 Y135.967 E.02086
G1 X111.684 Y135.838 E.02013
G1 X111.32 Y135.629 E.02013
G1 X111.007 Y135.35 E.02013
G1 X110.758 Y135.012 E.02013
G1 X110.585 Y134.63 E.02013
G1 X110.493 Y134.213 E.02046
G1 X110.48 Y133.984 E.01102
G1 X110.48 Y106.023 E1.34168
G1 X110.525 Y105.591 E.02085
G1 X110.654 Y105.192 E.02013
G1 X110.863 Y104.828 E.02013
G1 X111.102 Y104.559 E.01725
G1 X111.521 Y104.958 F9000
G1 F1200
G1 X111.79 Y104.76 E.01604
G1 X112.063 Y104.64 E.01432
G1 X112.344 Y104.578 E.0138
G1 X116.464 Y104.566 E.19768
G1 X116.779 Y104.599 E.01522
G1 X117.064 Y104.687 E.01432
G1 X117.325 Y104.833 E.01432
G1 X117.55 Y105.029 E.01432
G1 X117.73 Y105.267 E.01432
G1 X117.857 Y105.537 E.01432
G1 X117.934 Y105.889 E.0173
G1 X117.943 Y121.671 E.75726
G1 X118.012 Y121.997 E.01601
G1 X118.116 Y122.198 E.01085
G1 X118.322 Y122.386 E.01339
G1 X118.604 Y122.519 E.01494
G1 X118.82 Y122.549 E.0105
G1 X167.446 Y122.549 E2.33326
G1 X167.814 Y122.591 E.0178
M73 P1 R48
G1 X168.097 Y122.686 E.01432
G1 X168.325 Y122.817 E.01261
G1 X168.575 Y123.039 E.01604
G1 X168.748 Y123.282 E.01432
G1 X168.857 Y123.521 E.01261
G1 X168.934 Y123.873 E.0173
G1 X168.943 Y133.938 E.48293
G1 X168.901 Y134.306 E.01781
G1 X168.821 Y134.556 E.01261
G1 X168.675 Y134.817 E.01432
G1 X168.479 Y135.042 E.01432
G1 X168.21 Y135.24 E.01604
G1 X167.937 Y135.36 E.01432
G1 X167.656 Y135.422 E.0138
G1 X167.471 Y135.435 E.0089
G1 X112.554 Y135.435 E2.63513
G1 X112.186 Y135.393 E.0178
G1 X111.903 Y135.298 E.01432
G1 X111.675 Y135.167 E.01261
G1 X111.425 Y134.945 E.01604
G1 X111.252 Y134.702 E.01432
G1 X111.132 Y134.429 E.01432
G1 X111.07 Y134.148 E.0138
G1 X111.057 Y133.963 E.0089
G1 X111.057 Y106.062 E1.33879
G1 X111.091 Y105.729 E.01608
G1 X111.194 Y105.411 E.01604
G1 X111.346 Y105.154 E.01432
G1 X111.481 Y105.002 E.00973
G1 X111.893 Y105.405 F9000
G1 F1200
G1 X111.903 Y105.394 E.00072
G1 X112.009 Y105.307 E.00657
G1 X112.295 Y105.173 E.01518
G1 X112.512 Y105.142 E.01049
G1 X116.487 Y105.142 E.19074
G1 X116.814 Y105.212 E.01601
G1 X117.014 Y105.316 E.01085
G1 X117.203 Y105.522 E.01339
G1 X117.335 Y105.803 E.01494
G1 X117.366 Y106.02 E.0105
G1 X117.366 Y122.953 E.81253
G1 X117.414 Y123.073 E.0062
G1 X117.539 Y123.126 E.00652
G1 X167.487 Y123.126 E2.39674
G1 X167.68 Y123.155 E.00937
G1 X167.814 Y123.196 E.00669
G1 X168.014 Y123.3 E.01085
G1 X168.203 Y123.506 E.01339
G1 X168.335 Y123.787 E.01494
G1 X168.366 Y124.004 E.0105
G1 X168.366 Y133.979 E.47865
G1 X168.296 Y134.306 E.01601
G1 X168.192 Y134.506 E.01085
G1 X167.986 Y134.695 E.01339
G1 X167.705 Y134.827 E.01494
G1 X167.488 Y134.858 E.0105
G1 X112.513 Y134.858 E2.63795
G1 X112.186 Y134.788 E.01601
G1 X111.986 Y134.684 E.01085
G1 X111.797 Y134.478 E.01339
G1 X111.665 Y134.196 E.01495
G1 X111.634 Y133.98 E.01049
G1 X111.634 Y106.021 E1.3416
G1 X111.704 Y105.694 E.01601
G1 X111.81 Y105.489 E.01109
G1 X111.851 Y105.448 E.00279
G1 X112.26 Y105.847 F9000
G1 F1200
G1 X112.391 Y105.741 E.00806
G1 X112.5 Y105.719 E.00535
G1 X116.5 Y105.719 E.19194
G1 X116.661 Y105.768 E.00806
G1 X116.767 Y105.899 E.00806
G1 X116.789 Y106.008 E.00535
G1 X116.789 Y123.703 E.8491
G1 X167.5 Y123.703 E2.43336
M73 P1 R47
G1 X167.661 Y123.752 E.00806
G1 X167.767 Y123.883 E.00806
G1 X167.789 Y123.992 E.00535
G1 X167.789 Y133.992 E.47984
G1 X167.74 Y134.153 E.00806
G1 X167.609 Y134.259 E.00806
G1 X167.5 Y134.281 E.00535
G1 X112.5 Y134.281 E2.63914
G1 X112.339 Y134.232 E.00806
G1 X112.233 Y134.101 E.00806
G1 X112.211 Y133.992 E.00535
G1 X112.211 Y106.008 E1.34279
G1 X112.243 Y105.905 E.00518
G1 E-.805 F3600
;WIPE_START
G1 F1200
G1 X112.391 Y105.741 E-.07604
G1 X112.5 Y105.719 E-.03849
G1 X113.168 Y105.719 E-.23048
;WIPE_END
G1 X165.936 Y132.428 F9000
G1 E1.15 F2400
;TYPE:Inner wall
;WIDTH:0.619999
G1 F1200
G1 X114.064 Y132.428 E2.36458
G1 X114.064 Y125.616 E.31051
;WIDTH:0.666111
G1 X114.087 Y124.865 E.03701
;WIDTH:0.704586
G1 X114.106 Y124.723 E.00746
;WIDTH:0.743061
G1 X114.126 Y124.582 E.0079
;WIDTH:0.781536
G1 X114.145 Y124.44 E.00833
G1 X114.138 Y124.113 E.01909
;WIDTH:0.767302
G1 X114.138 Y107.646 E.94229
G1 X114.862 Y107.646 E.04145
G1 X114.862 Y108.008 E.02072
G1 X114.862 Y124.113 E.92157
;WIDTH:0.781536
G1 X114.878 Y124.377 E.01539
G1 X114.927 Y124.477 E.00651
;WIDTH:0.743061
G1 X114.976 Y124.577 E.00617
;WIDTH:0.704586
G1 X115.026 Y124.677 E.00583
;WIDTH:0.666111
G1 X115.334 Y125.108 E.02609
;WIDTH:0.619999
G1 X115.7 Y125.386 E.02094
G1 X116.062 Y125.521 E.01761
G1 X116.379 Y125.556 E.01453
G1 X165.936 Y125.556 E2.25907
G1 X165.936 Y132.368 E.31051
M73 P2 R47
G1 X166.513 Y133.005 F9000
G1 F1200
G1 X113.487 Y133.005 E2.41719
G1 X113.487 Y106.995 E1.18566
G1 X115.513 Y106.995 E.09235
G1 X115.513 Y108.008 E.04617
G1 X115.513 Y124.113 E.73417
G1 X115.58 Y124.446 E.01548
G1 X115.752 Y124.71 E.01437
G1 X115.971 Y124.877 E.01257
G1 X116.189 Y124.958 E.01057
G1 X116.379 Y124.979 E.00872
G1 X166.513 Y124.979 E2.28538
G1 X166.513 Y132.945 E.36312
G1 X167.09 Y133.582 F9000
;TYPE:Outer wall
G1 F1200
G1 X112.91 Y133.582 E2.4698
G1 X112.91 Y106.418 E1.23827
G1 X116.09 Y106.418 E.14496
G1 X116.09 Y108.008 E.07248
G1 X116.09 Y124.113 E.73417
G1 X116.112 Y124.224 E.00516
G1 X116.243 Y124.368 E.00885
G1 X116.379 Y124.402 E.00638
G1 X167.09 Y124.402 E2.31169
G1 X167.09 Y133.522 E.41574
G1 E-.805 F3600
;WIPE_START
G1 F1200
G1 X166.09 Y133.523 E-.345
;WIPE_END
G1 X165.751 Y126.911 F9000
G1 E1.15 F2400
;TYPE:Bottom surface
;WIDTH:0.621753
G1 F2100
M106 S0
G1 X164.841 Y126 E.0577
G1 X164.022 Y126 E.03668
G1 X165.492 Y127.47 E.09312
G1 X165.492 Y128.289 E.03668
G1 X163.203 Y126 E.14499
G1 X162.385 Y126 E.03668
G1 X165.492 Y129.107 E.19687
G1 X165.492 Y129.926 E.03668
G1 X161.566 Y126 E.24874
G1 X160.748 Y126 E.03668
G1 X165.492 Y130.744 E.30062
G1 X165.492 Y131.563 E.03668
G1 X159.929 Y126 E.35249
G1 X159.11 Y126 E.03668
G1 X165.093 Y131.983 E.37914
G1 X164.275 Y131.983 E.03668
G1 X158.292 Y126 E.37914
G1 X157.473 Y126 E.03668
G1 X163.456 Y131.983 E.37914
G1 X162.638 Y131.983 E.03668
G1 X156.655 Y126 E.37914
G1 X155.836 Y126 E.03668
G1 X161.819 Y131.983 E.37914
G1 X161.001 Y131.983 E.03668
G1 X155.017 Y126 E.37914
G1 X154.199 Y126 E.03668
G1 X160.182 Y131.983 E.37914
G1 X159.363 Y131.983 E.03668
G1 X153.38 Y126 E.37914
G1 X152.562 Y126 E.03668
G1 X158.545 Y131.983 E.37914
G1 X157.726 Y131.983 E.03668
G1 X151.743 Y126 E.37914
G1 X150.925 Y126 E.03668
G1 X156.908 Y131.983 E.37914
G1 X156.089 Y131.983 E.03668
G1 X150.106 Y126 E.37914
G1 X149.287 Y126 E.03668
G1 X155.27 Y131.983 E.37914
G1 X154.452 Y131.983 E.03668
G1 X148.469 Y126 E.37914
G1 X147.65 Y126 E.03668
G1 X153.633 Y131.983 E.37914
G1 X152.815 Y131.983 E.03668
G1 X146.832 Y126 E.37914
G1 X146.013 Y126 E.03668
G1 X151.996 Y131.983 E.37914
G1 X151.177 Y131.983 E.03668
G1 X145.194 Y126 E.37914
G1 X144.376 Y126 E.03668
G1 X150.359 Y131.983 E.37914
G1 X149.54 Y131.983 E.03668
G1 X143.557 Y126 E.37914
G1 X142.739 Y126 E.03668
G1 X148.722 Y131.983 E.37914
G1 X147.903 Y131.983 E.03668
G1 X141.92 Y126 E.37914
G1 X141.101 Y126 E.03668
G1 X147.084 Y131.983 E.37914
G1 X146.266 Y131.983 E.03668
G1 X140.283 Y126 E.37914
G1 X139.464 Y126 E.03668
G1 X145.447 Y131.983 E.37914
G1 X144.629 Y131.983 E.03668
G1 X138.646 Y126 E.37914
G1 X137.827 Y126 E.03668
M73 P3 R47
G1 X143.81 Y131.983 E.37914
G1 X142.991 Y131.983 E.03668
G1 X137.008 Y126 E.37914
G1 X136.19 Y126 E.03668
G1 X142.173 Y131.983 E.37914
G1 X141.354 Y131.983 E.03668
G1 X135.371 Y126 E.37914
G1 X134.553 Y126 E.03668
G1 X140.536 Y131.983 E.37914
G1 X139.717 Y131.983 E.03668
G1 X133.734 Y126 E.37914
G1 X132.915 Y126 E.03668
G1 X138.898 Y131.983 E.37914
G1 X138.08 Y131.983 E.03668
G1 X132.097 Y126 E.37914
G1 X131.278 Y126 E.03668
G1 X137.261 Y131.983 E.37914
G1 X136.443 Y131.983 E.03668
G1 X130.46 Y126 E.37914
G1 X129.641 Y126 E.03668
G1 X135.624 Y131.983 E.37914
G1 X134.806 Y131.983 E.03668
G1 X128.823 Y126 E.37914
G1 X128.004 Y126 E.03668
G1 X133.987 Y131.983 E.37914
G1 X133.168 Y131.983 E.03668
G1 X127.185 Y126 E.37914
G1 X126.367 Y126 E.03668
G1 X132.35 Y131.983 E.37914
G1 X131.531 Y131.983 E.03668
G1 X125.548 Y126 E.37914
G1 X124.73 Y126 E.03668
G1 X130.713 Y131.983 E.37914
G1 X129.894 Y131.983 E.03668
G1 X123.911 Y126 E.37914
G1 X123.092 Y126 E.03668
G1 X129.075 Y131.983 E.37914
G1 X128.257 Y131.983 E.03668
G1 X122.274 Y126 E.37914
G1 X121.455 Y126 E.03668
G1 X127.438 Y131.983 E.37914
G1 X126.62 Y131.983 E.03668
G1 X120.637 Y126 E.37914
G1 X119.818 Y126 E.03668
G1 X125.801 Y131.983 E.37914
G1 X124.982 Y131.983 E.03668
G1 X118.999 Y126 E.37914
G1 X118.181 Y126 E.03668
G1 X124.164 Y131.983 E.37914
G1 X123.345 Y131.983 E.03668
G1 X117.362 Y126 E.37914
G1 X116.544 Y126 E.03668
G1 X122.527 Y131.983 E.37914
G1 X121.708 Y131.983 E.03668
G1 X114.566 Y124.842 E.45256
G1 X114.51 Y125.604 E.03422
G1 X120.889 Y131.983 E.40429
G1 X120.071 Y131.983 E.03668
G1 X114.508 Y126.421 E.35248
G1 X114.508 Y127.24 E.03668
G1 X119.252 Y131.983 E.30061
G1 X118.434 Y131.983 E.03668
G1 X114.508 Y128.058 E.24874
G1 X114.508 Y128.877 E.03668
G1 X117.615 Y131.983 E.19686
G1 X116.796 Y131.983 E.03668
G1 X114.508 Y129.696 E.14499
G1 X114.508 Y130.514 E.03668
G1 X115.978 Y131.983 E.09311
G1 X115.159 Y131.983 E.03668
G1 X114.249 Y131.073 E.0577
M106 S255
;LAYER_CHANGE
;Z:0.48
;HEIGHT:0.28
;BEFORE_LAYER_CHANGE
;0.48
G92 E0

G1 E-.805 F3600
;WIPE_START
G1 F2100
G1 X114.956 Y131.78 E-.345
;WIPE_END
;_SET_FAN_SPEED_CHANGING_LAYER
M104 S216 ; set nozzle temperature
M140 S60 ; set bed temperature
G1 X166.12 Y132.612 Z.48 F9000
G1 E1.15 F2400
;TYPE:Inner wall
;WIDTH:0.599999
G1 X113.88 Y132.612 E3.11921
G1 X113.88 Y107.388 E1.50611
G1 X115.12 Y107.388 E.07406
G1 X115.12 Y124.022 E.99321
G1 X115.14 Y124.255 E.01398
G1 X115.224 Y124.541 E.01779
G1 X115.493 Y124.953 E.02935
G1 X115.835 Y125.213 E.02567
G1 X116.174 Y125.339 E.02159
G1 X116.47 Y125.372 E.0178
G1 X166.12 Y125.372 E2.96455
G1 X166.12 Y128.992 E.21616
G1 X166.12 Y132.552 E.21257
G1 X166.66 Y133.152 F9000
G1 F2400
G1 X113.34 Y133.152 E3.18368
G1 X113.34 Y106.848 E1.57059
M73 P3 R46
G1 X115.66 Y106.848 E.13853
G1 X115.66 Y124.022 E1.02544
G1 X115.722 Y124.334 E.01897
G1 X115.883 Y124.581 E.01761
G1 X116.089 Y124.737 E.0154
G1 X116.47 Y124.832 E.02346
G1 X166.66 Y124.832 E2.99679
G1 X166.66 Y128.992 E.24839
G1 X166.66 Y133.092 E.24481
G1 X167.2 Y133.692 F9000
;TYPE:Outer wall
G1 F1500
G1 X112.8 Y133.692 E3.24815
G1 X112.8 Y106.308 E1.63506
G1 X116.2 Y106.308 E.20301
G1 X116.2 Y124.022 E1.05768
G1 X116.221 Y124.126 E.00632
G1 X116.343 Y124.26 E.01084
G1 X116.47 Y124.292 E.00782
G1 X167.2 Y124.292 E3.02903
G1 X167.2 Y128.992 E.28063
G1 X167.2 Y133.632 E.27705
G1 E-.805 F3600
;WIPE_START
G1 F1500
G1 X166.2 Y133.633 E-.345
;WIPE_END
G1 X164.848 Y132.439 F9000
G1 E1.15 F2400
;TYPE:Internal solid infill
;WIDTH:0.603723
M106 S255
G1 X165.704 Y131.583 E.07281
G1 X165.704 Y130.814 E.04622
G1 X164.322 Y132.196 E.11752
G1 X163.553 Y132.196 E.04622
G1 X165.704 Y130.045 E.18289
G1 X165.704 Y129.277 E.04622
G1 X162.785 Y132.196 E.24825
G1 X162.016 Y132.196 E.04622
G1 X165.704 Y128.508 E.31362
G1 X165.704 Y127.739 E.04622
G1 X161.247 Y132.196 E.37899
G1 X160.478 Y132.196 E.04622
G1 X165.704 Y126.97 E.44435
G1 X165.704 Y126.201 E.04622
G1 X159.709 Y132.196 E.50972
G1 X158.941 Y132.196 E.04622
G1 X165.349 Y125.788 E.5449
G1 X164.581 Y125.788 E.04622
M73 P4 R46
G1 X158.172 Y132.196 E.5449
G1 X157.403 Y132.196 E.04622
G1 X163.812 Y125.788 E.5449
G1 X163.043 Y125.788 E.04622
G1 X156.634 Y132.196 E.5449
G1 X155.865 Y132.196 E.04622
G1 X162.274 Y125.788 E.5449
G1 X161.505 Y125.788 E.04622
G1 X155.096 Y132.196 E.5449
G1 X154.328 Y132.196 E.04622
G1 X160.737 Y125.788 E.5449
G1 X159.968 Y125.788 E.04622
G1 X153.559 Y132.196 E.5449
G1 X152.79 Y132.196 E.04622
G1 X159.199 Y125.788 E.5449
G1 X158.43 Y125.788 E.04622
G1 X152.021 Y132.196 E.5449
G1 X151.252 Y132.196 E.04622
G1 X157.661 Y125.788 E.5449
G1 X156.892 Y125.788 E.04622
G1 X150.484 Y132.196 E.5449
G1 X149.715 Y132.196 E.04622
G1 X156.124 Y125.788 E.5449
G1 X155.355 Y125.788 E.04622
G1 X148.946 Y132.196 E.5449
G1 X148.177 Y132.196 E.04622
G1 X154.586 Y125.788 E.5449
G1 X153.817 Y125.788 E.04622
G1 X147.408 Y132.196 E.5449
G1 X146.64 Y132.196 E.04622
G1 X153.048 Y125.788 E.5449
G1 X152.28 Y125.788 E.04622
G1 X145.871 Y132.196 E.5449
G1 X145.102 Y132.196 E.04622
G1 X151.511 Y125.788 E.5449
G1 X150.742 Y125.788 E.04622
G1 X144.333 Y132.196 E.5449
G1 X143.564 Y132.196 E.04622
G1 X149.973 Y125.788 E.5449
G1 X149.204 Y125.788 E.04622
G1 X142.795 Y132.196 E.5449
G1 X142.027 Y132.196 E.04622
G1 X148.436 Y125.788 E.5449
G1 X147.667 Y125.788 E.04622
G1 X141.258 Y132.196 E.5449
G1 X140.489 Y132.196 E.04622
G1 X146.898 Y125.788 E.5449
G1 X146.129 Y125.788 E.04622
G1 X139.72 Y132.196 E.5449
G1 X138.951 Y132.196 E.04622
G1 X145.36 Y125.788 E.5449
G1 X144.591 Y125.788 E.04622
G1 X138.183 Y132.196 E.5449
G1 X137.414 Y132.196 E.04622
G1 X143.823 Y125.788 E.5449
G1 X143.054 Y125.788 E.04622
G1 X136.645 Y132.196 E.5449
G1 X135.876 Y132.196 E.04622
G1 X142.285 Y125.788 E.5449
G1 X141.516 Y125.788 E.04622
G1 X135.107 Y132.196 E.5449
G1 X134.338 Y132.196 E.04622
G1 X140.747 Y125.788 E.5449
G1 X139.979 Y125.788 E.04622
G1 X133.57 Y132.196 E.5449
G1 X132.801 Y132.196 E.04622
G1 X139.21 Y125.788 E.5449
G1 X138.441 Y125.788 E.04622
G1 X132.032 Y132.196 E.5449
G1 X131.263 Y132.196 E.04622
G1 X137.672 Y125.788 E.5449
G1 X136.903 Y125.788 E.04622
G1 X130.494 Y132.196 E.5449
G1 X129.726 Y132.196 E.04622
G1 X136.134 Y125.788 E.5449
G1 X135.366 Y125.788 E.04622
G1 X128.957 Y132.196 E.5449
G1 X128.188 Y132.196 E.04622
G1 X134.597 Y125.788 E.5449
G1 X133.828 Y125.788 E.04622
