; generated by PrusaSlicer 2.6.1+win64 on 2023-10-04 at 09:08:44 UTC

; 

; external perimeters extrusion width = 0.60mm
; perimeters extrusion width = 0.60mm
; infill extrusion width = 0.65mm
; solid infill extrusion width = 0.60mm
; top infill extrusion width = 0.65mm
; support material extrusion width = 0.65mm
; first layer extrusion width = 0.60mm

M73 P0 R61
;TYPE:Custom
M104 S216 ; set extruder temp
M140 S60 ; set bed temp
M190 S60 ; wait for bed temp
M109 S216 ; wait for extruder temp

G28 ; home all
BED_MESH_PROFILE LOAD=default;

G1 Z2.0 F3000 ; Move Z Axis up little to prevent scratching of Heat Bed
G1 X0.1 Y5 Z0.28 F5000.0 ; Move to start position


G92 E0 ; Reset Extruder
G1 Z2.0 F3000 ; Move Z Axis up little to prevent scratching of Heat Bed
G1 X0.1 Y10 Z0.28 F5000.0 ; Move to start position

G1 X0.1 Y200 Z0.28 F1500.0 E15 ; Draw the first line
G1 X0.4 Y200 Z0.28 F5000.0 ; Move to side a little
G1 X0.4 Y10 Z0.28 F1500.0 E30 ; Draw the second line


G92 E0 ; Reset Extruder
G1 Z0.5 F3000 ; Move Z Axis up little to prevent scratching of Heat Bed
M117 Godmode is enabled
G21 ; set units to millimeters
G90 ; use absolute coordinates
M82 ; use absolute distances for extrusion
G92 E0
; Filament gcode
M107
;LAYER_CHANGE
;Z:0.3
;HEIGHT:0.3
M73 P0 R60
G1 Z.3 F7800
G1 E-1.4 F2400
G92 E0
G1 Z.8 F7800
G1 X98.043 Y59.376
G1 Z.3
G1 E1.4 F2400
;TYPE:Skirt/Brim
;WIDTH:0.6
G1 F1800
G1 X98.178 Y59.157 E1.41719
G1 X98.822 Y58.497 E1.47879
G1 X99.128 Y58.292 E1.5034
G1 X99.473 Y58.149 E1.52835
G1 X99.722 Y58.09 E1.54545
G1 X140.668 Y58.078 E4.28086
G1 X140.489 Y57.159 E4.34341
G1 X140.4 Y56.277 E4.40263
G1 X140.397 Y55.322 E4.46643
G1 X140.488 Y54.369 E4.53039
G1 X140.676 Y53.417 E4.59522
G1 X140.937 Y52.556 E4.65532
G1 X141.277 Y51.718 E4.71574
G1 X141.731 Y50.855 E4.78088
G1 X142.276 Y50.037 E4.84654
G1 X142.884 Y49.295 E4.91063
G1 X143.532 Y48.647 E4.97185
G1 X144.246 Y48.059 E5.03364
G1 X145.067 Y47.508 E5.09969
G1 X145.924 Y47.053 E5.16451
G1 X146.756 Y46.711 E5.2246
G1 X147.676 Y46.431 E5.28884
G1 X148.55 Y46.256 E5.34839
G1 X149.486 Y46.16 E5.41125
G1 X150.476 Y46.158 E5.47739
G1 X151.478 Y46.26 E5.54467
G1 X152.347 Y46.437 E5.60392
G1 X153.174 Y46.685 E5.6616
G1 X154.064 Y47.048 E5.72581
G1 X154.931 Y47.507 E5.79135
G1 X155.718 Y48.031 E5.85451
G1 X156.449 Y48.63 E5.91765
G1 X157.128 Y49.31 E5.98185
G1 X157.732 Y50.046 E6.04546
G1 X158.254 Y50.83 E6.10838
G1 X158.699 Y51.667 E6.17171
G1 X159.072 Y52.581 E6.23766
G1 X159.329 Y53.439 E6.2975
G1 X159.504 Y54.31 E6.35685
G1 X159.601 Y55.293 E6.42284
G1 X159.6 Y56.279 E6.48871
G1 X159.506 Y57.191 E6.54996
G1 X159.328 Y58.078 E6.6104
G1 X200.168 Y58.078 E9.33873
G1 X200.527 Y58.15 E9.36319
G1 X200.915 Y58.315 E9.39136
G1 X201.176 Y58.495 E9.41254
G1 X201.753 Y59.072 E9.46705
G1 X201.931 Y59.328 E9.48788
G1 X202.098 Y59.718 E9.51622
G1 X202.171 Y60.081 E9.54096
G1 X202.16 Y63.976 E9.80117
G1 X202.1 Y64.226 E9.81835
G1 X201.957 Y64.572 E9.84336
G1 X201.822 Y64.791 E9.86055
G1 X201.135 Y65.486 E9.92583
G1 X200.871 Y65.656 E9.94681
G1 X200.529 Y65.798 E9.97155
G1 X200.168 Y65.87 E9.99614
G1 X194.929 Y65.87 E10.34613
G1 X194.929 Y167.618 E17.14345
G1 X196.392 Y170.192 E17.34124
G1 X196.46 Y170.359 E17.35329
G1 X197.087 Y170.792 E17.40419
G1 X197.547 Y171.262 E17.44812
G1 X197.898 Y171.766 E17.48915
G1 X198.218 Y172.448 E17.53948
G1 X198.382 Y173.064 E17.58207
G1 X198.443 Y173.688 E17.62396
G1 X198.385 Y174.432 E17.67381
G1 X198.206 Y175.105 E17.72033
G1 X197.941 Y175.681 E17.76269
G1 X197.655 Y176.116 E17.79747
G1 X197.436 Y176.373 E17.82003
G1 X196.53 Y181.203 E18.14833
G1 X196.382 Y181.557 E18.17396
G1 X193.524 Y186.484 E18.55448
G1 X189.026 Y190.936 E18.97727
G1 X183.13 Y194.75 E19.44638
G1 X176.053 Y197.838 E19.96221
G1 X168.049 Y200.112 E20.51808
G1 X159.404 Y201.504 E21.10305
G1 X150.571 Y201.968 E21.69396
G1 X141.596 Y201.504 E22.29434
G1 X132.951 Y200.112 E22.87931
G1 X124.947 Y197.838 E23.43518
G1 X117.87 Y194.75 E23.95101
G1 X111.929 Y190.9 E24.42395
G1 X107.474 Y186.483 E24.84305
G1 X104.526 Y181.356 E25.23815
G1 X104.412 Y180.994 E25.2635
G1 X103.545 Y176.3 E25.58239
G1 X103.364 Y176.084 E25.60122
G1 X103.089 Y175.661 E25.63493
G1 X102.831 Y175.096 E25.67642
G1 X102.658 Y174.458 E25.72058
G1 X102.595 Y173.727 E25.7696
G1 X102.691 Y172.9 E25.82522
G1 X102.867 Y172.33 E25.86507
G1 X103.125 Y171.795 E25.90475
G1 X103.518 Y171.238 E25.95029
G1 X103.966 Y170.789 E25.99266
G1 X104.535 Y170.378 E26.03955
G1 X104.607 Y170.194 E26.05275
G1 X106.071 Y167.617 E26.25075
G1 X106.071 Y65.87 E33.048
G1 X99.83 Y65.87 E33.46493
G1 X99.575 Y65.829 E33.48218
G1 X99.128 Y65.656 E33.5142
G1 X98.908 Y65.52 E33.53148
G1 X98.247 Y64.876 E33.59313
G1 X98.042 Y64.57 E33.61774
G1 X97.9 Y64.227 E33.64254
G1 X97.829 Y63.867 E33.66705
G1 X97.829 Y60.081 E33.91998
G1 X97.9 Y59.721 E33.94449
G1 X98.009 Y59.459 E33.96345
G1 X98.503 Y59.664 F7800
G1 F1800
G1 X98.613 Y59.47 E33.97835
G1 X99.184 Y58.893 E34.03258
G1 X99.358 Y58.777 E34.04655
G1 X99.655 Y58.654 E34.06803
G1 X99.809 Y58.619 E34.07858
G1 X141.388 Y58.614 E36.85628
G1 X141.188 Y57.942 E36.90312
G1 X141.02 Y57.092 E36.961
G1 X140.934 Y56.237 E37.01841
G1 X140.933 Y55.334 E37.07874
G1 X141.019 Y54.434 E37.13914
G1 X141.193 Y53.559 E37.19874
M73 P1 R60
G1 X141.446 Y52.723 E37.25709
G1 X141.768 Y51.933 E37.31408
G1 X142.198 Y51.118 E37.37564
G1 X142.714 Y50.346 E37.43767
G1 X143.289 Y49.646 E37.49819
G1 X143.901 Y49.035 E37.55596
G1 X144.556 Y48.496 E37.61263
G1 X145.332 Y47.974 E37.67511
G1 X146.14 Y47.543 E37.73629
G1 X146.924 Y47.219 E37.79296
G1 X147.819 Y46.947 E37.85545
G1 X148.642 Y46.784 E37.9115
G1 X149.526 Y46.694 E37.97086
G1 X150.462 Y46.694 E38.03339
G1 X151.385 Y46.788 E38.09537
G1 X152.205 Y46.953 E38.15125
G1 X153.008 Y47.194 E38.20726
G1 X153.848 Y47.538 E38.2679
G1 X154.668 Y47.974 E38.32994
G1 X155.409 Y48.469 E38.38947
G1 X156.099 Y49.035 E38.44909
G1 X156.739 Y49.678 E38.5097
G1 X157.308 Y50.375 E38.56981
G1 X157.787 Y51.094 E38.62753
G1 X158.22 Y51.907 E38.68907
G1 X158.571 Y52.771 E38.75137
G1 X158.807 Y53.557 E38.80619
G1 X158.972 Y54.378 E38.86213
G1 X159.066 Y55.307 E38.92451
G1 X159.065 Y56.238 E38.98671
G1 X158.975 Y57.124 E39.0462
G1 X158.8 Y57.985 E39.1049
G1 X158.613 Y58.614 E39.14874
G1 X200.142 Y58.614 E41.9231
G1 X200.348 Y58.655 E41.93713
G1 X200.642 Y58.777 E41.95839
G1 X200.817 Y58.893 E41.97242
G1 X201.358 Y59.435 E42.02358
G1 X201.45 Y59.565 E42.03422
G1 X201.595 Y59.903 E42.05879
G1 X201.636 Y60.107 E42.07269
G1 X201.631 Y63.889 E42.32535
G1 X201.596 Y64.043 E42.3359
G1 X201.472 Y64.344 E42.35765
G1 X201.387 Y64.477 E42.36819
G1 X200.779 Y65.085 E42.42563
G1 X200.645 Y65.17 E42.43623
G1 X200.348 Y65.293 E42.45771
G1 X200.142 Y65.334 E42.47174
G1 X194.394 Y65.334 E42.85574
G1 X194.394 Y167.759 E49.69828
G1 X195.914 Y170.435 E49.90388
G1 X196.015 Y170.705 E49.92314
G1 X196.725 Y171.188 E49.98051
G1 X197.123 Y171.59 E50.0183
G1 X197.425 Y172.018 E50.05329
G1 X197.708 Y172.612 E50.09725
G1 X197.852 Y173.142 E50.13394
G1 X197.907 Y173.675 E50.16974
G1 X197.861 Y174.322 E50.21307
G1 X197.708 Y174.906 E50.2534
G1 X197.482 Y175.405 E50.29
G1 X197.218 Y175.806 E50.32207
G1 X196.936 Y176.129 E50.35071
G1 X196.024 Y181.026 E50.68348
G1 X195.909 Y181.305 E50.70364
G1 X193.122 Y186.129 E51.07583
G1 X188.712 Y190.502 E51.49073
G1 X182.895 Y194.268 E51.95367
G1 X175.889 Y197.327 E52.46438
G1 X167.948 Y199.586 E53.01593
G1 X159.362 Y200.969 E53.59691
G1 X150.557 Y201.433 E54.18595
G1 X141.639 Y200.97 E54.78252
G1 X133.052 Y199.586 E55.36358
G1 X125.111 Y197.327 E55.91513
G1 X118.104 Y194.268 E56.4259
G1 X112.244 Y190.466 E56.89256
G1 X107.877 Y186.129 E57.30373
G1 X105.027 Y181.164 E57.68618
G1 X104.935 Y180.879 E57.70619
G1 X104.045 Y176.06 E58.03357
G1 X103.803 Y175.777 E58.05845
G1 X103.55 Y175.387 E58.08951
G1 X103.328 Y174.897 E58.12545
G1 X103.182 Y174.345 E58.16359
G1 X103.131 Y173.711 E58.20608
G1 X103.21 Y173.032 E58.25175
G1 X103.358 Y172.544 E58.28582
G1 X103.598 Y172.048 E58.32263
G1 X103.915 Y171.598 E58.3594
G1 X104.299 Y171.21 E58.39587
G1 X104.778 Y170.863 E58.43538
G1 X104.968 Y170.766 E58.44963
G1 X105.086 Y170.435 E58.47311
G1 X106.606 Y167.758 E58.67877
G1 X106.606 Y65.334 E65.52125
G1 X99.855 Y65.334 E65.97225
G1 X99.697 Y65.307 E65.98296
G1 X99.353 Y65.169 E66.00772
G1 X99.221 Y65.085 E66.01817
G1 X98.643 Y64.515 E66.0724
G1 X98.527 Y64.341 E66.08637
G1 X98.405 Y64.047 E66.10763
G1 X98.364 Y63.84 E66.12173
G1 X98.364 Y60.107 E66.37111
G1 X98.405 Y59.901 E66.38514
G1 X98.469 Y59.748 E66.39622
G1 X98.964 Y59.952 F7800
G1 F1800
G1 X99.041 Y59.793 E66.40802
G1 X99.543 Y59.291 E66.45545
G1 X99.884 Y59.15 E66.4801
G1 X142.173 Y59.15 E69.30523
G1 X141.949 Y58.614 E69.34404
G1 X141.711 Y57.824 E69.39916
G1 X141.548 Y57.001 E69.45521
G1 X141.469 Y56.197 E69.50918
G1 X141.467 Y55.372 E69.56429
G1 X141.548 Y54.524 E69.6212
G1 X141.709 Y53.701 E69.67722
G1 X141.946 Y52.914 E69.73213
G1 X142.259 Y52.148 E69.78741
G1 X142.665 Y51.381 E69.84539
G1 X143.137 Y50.675 E69.90212
G1 X143.678 Y50.015 E69.95913
G1 X144.252 Y49.44 E70.01341
G1 X144.887 Y48.918 E70.06833
G1 X145.619 Y48.426 E70.12725
G1 X146.358 Y48.033 E70.18317
G1 X147.093 Y47.728 E70.23633
G1 X147.962 Y47.464 E70.297
G1 X148.733 Y47.312 E70.3495
G1 X149.541 Y47.229 E70.40376
G1 X150.422 Y47.228 E70.46262
G1 X151.293 Y47.316 E70.5211
G1 X152.063 Y47.47 E70.57356
G1 X152.841 Y47.703 E70.62782
G1 X153.632 Y48.029 E70.68498
G1 X154.403 Y48.44 E70.74335
G1 X155.099 Y48.906 E70.79931
G1 X155.747 Y49.44 E70.85541
G1 X156.35 Y50.046 E70.91252
G1 X156.87 Y50.683 E70.96745
G1 X157.321 Y51.358 E71.02168
G1 X157.729 Y52.122 E71.07954
G1 X158.062 Y52.937 E71.13836
G1 X158.29 Y53.699 E71.1915
G1 X158.444 Y54.469 E71.24396
G1 X158.532 Y55.346 E71.30284
G1 X158.531 Y56.198 E71.35976
G1 X158.447 Y57.03 E71.41562
G1 X158.278 Y57.866 E71.4726
G1 X158.056 Y58.599 E71.52376
G1 X157.835 Y59.15 E71.56342
G1 X200.116 Y59.15 E74.38802
G1 X200.457 Y59.291 E74.41267
G1 X200.959 Y59.793 E74.4601
G1 X201.1 Y60.134 E74.48475
G1 X201.1 Y63.814 E74.73059
G1 X200.959 Y64.155 E74.75524
G1 X200.457 Y64.657 E74.80267
G1 X200.116 Y64.798 E74.82732
G1 X193.858 Y64.798 E75.24539
G1 X193.858 Y167.901 E82.13323
G1 X195.435 Y170.676 E82.34646
G1 X195.593 Y171.123 E82.37813
G1 X195.893 Y171.258 E82.40011
G1 X196.363 Y171.583 E82.43828
G1 X196.701 Y171.921 E82.47021
G1 X196.954 Y172.274 E82.49922
G1 X197.199 Y172.78 E82.53678
G1 X197.321 Y173.221 E82.56735
G1 X197.372 Y173.706 E82.59993
G1 X197.329 Y174.255 E82.63672
G1 X197.21 Y174.708 E82.66801
G1 X197.022 Y175.129 E82.69881
G1 X196.782 Y175.495 E82.72805
G1 X196.437 Y175.885 E82.76284
G1 X195.516 Y180.852 E83.10032
G1 X195.435 Y181.056 E83.11498
G1 X192.719 Y185.775 E83.47872
G1 X188.397 Y190.068 E83.88568
G1 X182.661 Y193.786 E84.34233
G1 X175.725 Y196.817 E84.848
G1 X167.847 Y199.059 E85.39519
G1 X159.319 Y200.435 E85.97227
G1 X150.543 Y200.897 E86.55937
G1 X141.681 Y200.435 E87.1522
G1 X133.153 Y199.059 E87.72928
G1 X125.275 Y196.817 E88.27647
G1 X118.339 Y193.786 E88.78214
G1 X112.559 Y190.032 E89.24257
G1 X108.28 Y185.775 E89.6458
G1 X105.527 Y180.97 E90.01575
G1 X105.458 Y180.763 E90.03033
G1 X104.584 Y176.03 E90.35187
G1 X104.578 Y175.855 E90.36357
G1 X104.242 Y175.468 E90.39781
G1 X104.011 Y175.113 E90.4261
G1 X103.827 Y174.7 E90.4563
G1 X103.707 Y174.236 E90.48832
G1 X103.667 Y173.698 E90.52436
G1 X103.73 Y173.165 E90.56022
G1 X103.865 Y172.721 E90.59122
G1 X104.068 Y172.304 E90.6222
G1 X104.337 Y171.929 E90.65303
G1 X104.661 Y171.605 E90.68364
G1 X105.066 Y171.316 E90.71688
G1 X105.403 Y171.156 E90.7418
G1 X105.565 Y170.675 E90.77571
G1 X107.142 Y167.9 E90.98894
G1 X107.142 Y64.798 E97.87671
G1 X99.884 Y64.798 E98.36158
G1 X99.587 Y64.686 E98.38279
G1 X99.041 Y64.155 E98.43367
G1 X98.9 Y63.814 E98.45832
G1 X98.9 Y60.134 E98.70416
G1 X98.929 Y60.036 E98.71099
G1 X99.436 Y60.213 F7800
G1 F1800
G1 X99.476 Y60.115 E98.71806
G1 X99.865 Y59.726 E98.75481
G1 X99.964 Y59.685 E98.76197
G1 X142.99 Y59.685 E101.63634
G1 X142.457 Y58.444 E101.72657
G1 X142.228 Y57.682 E101.77972
G1 X142.08 Y56.936 E101.83053
G1 X142.003 Y56.158 E101.88276
G1 X142.003 Y55.385 E101.9344
G1 X142.079 Y54.588 E101.98789
G1 X142.226 Y53.842 E102.03869
G1 X142.447 Y53.104 E102.09016
G1 X142.749 Y52.363 E102.14362
G1 X143.132 Y51.645 E102.19798
G1 X143.574 Y50.984 E102.2511
G1 X144.066 Y50.384 E102.30294
G1 X144.603 Y49.845 E102.35377
G1 X145.217 Y49.34 E102.40688
G1 X145.905 Y48.879 E102.46221
G1 X146.575 Y48.522 E102.51293
G1 X147.262 Y48.236 E102.56264
G1 X148.079 Y47.987 E102.6197
G1 X148.824 Y47.84 E102.67043
G1 X149.581 Y47.764 E102.72126
G1 X150.383 Y47.763 E102.77484
G1 X151.201 Y47.843 E102.82975
G1 X151.945 Y47.993 E102.88045
G1 X152.673 Y48.212 E102.93124
G1 X153.415 Y48.519 E102.98488
G1 X154.117 Y48.893 E103.03802
G1 X154.77 Y49.329 E103.09047
G1 X155.378 Y49.828 E103.14302
G1 X155.943 Y50.396 E103.19654
G1 X156.447 Y51.012 E103.24971
G1 X156.868 Y51.644 E103.30044
G1 X157.239 Y52.338 E103.35301
G1 X157.553 Y53.104 E103.40832
G1 X157.767 Y53.817 E103.45805
G1 X157.917 Y54.561 E103.50875
G1 X157.997 Y55.385 E103.56406
G1 X157.997 Y56.159 E103.61577
G1 X157.92 Y56.938 E103.66807
G1 X157.761 Y57.723 E103.72158
G1 X157.547 Y58.431 E103.77099
G1 X157.266 Y59.119 E103.82064
G1 X156.972 Y59.685 E103.86325
G1 X200.036 Y59.685 E106.74016
G1 X200.135 Y59.726 E106.74732
G1 X200.524 Y60.115 E106.78407
G1 X200.564 Y60.213 E106.79114
G1 X200.564 Y63.734 E107.02636
G1 X200.524 Y63.833 E107.03349
G1 X200.135 Y64.222 E107.07024
G1 X200.036 Y64.263 E107.0774
G1 X193.322 Y64.263 E107.52593
G1 X193.322 Y168.043 E114.459
G1 X194.959 Y170.923 E114.68031
M73 P2 R59
G1 X195.021 Y171.091 E114.69227
G1 X195.096 Y171.497 E114.71985
G1 X195.617 Y171.717 E114.75763
G1 X196.006 Y171.983 E114.78911
G1 X196.282 Y172.255 E114.815
G1 X196.485 Y172.534 E114.83805
G1 X196.69 Y172.948 E114.86891
G1 X196.798 Y173.341 E114.89614
G1 X196.836 Y173.731 E114.92232
G1 X196.797 Y174.185 E114.95276
G1 X196.711 Y174.513 E114.97541
G1 X196.561 Y174.855 E115.00036
G1 X196.345 Y175.184 E115.02665
G1 X196.12 Y175.436 E115.04922
G1 X195.885 Y175.634 E115.06975
G1 X195.883 Y175.963 E115.09173
G1 X195.008 Y180.683 E115.41242
G1 X194.959 Y180.808 E115.42139
G1 X192.315 Y185.421 E115.77659
G1 X188.082 Y189.634 E116.17557
G1 X182.426 Y193.304 E116.626
G1 X175.561 Y196.307 E117.12658
G1 X167.746 Y198.533 E117.66943
G1 X159.277 Y199.901 E118.24254
G1 X150.529 Y200.361 E118.82776
G1 X141.723 Y199.901 E119.41685
G1 X133.254 Y198.533 E119.98996
G1 X125.439 Y196.307 E120.53281
G1 X118.574 Y193.304 E121.03339
G1 X112.875 Y189.598 E121.48753
G1 X108.684 Y185.421 E121.88282
G1 X106.025 Y180.772 E122.24061
G1 X105.981 Y180.645 E122.24959
G1 X105.117 Y175.967 E122.56739
G1 X105.124 Y175.598 E122.59205
G1 X104.875 Y175.384 E122.61398
G1 X104.68 Y175.16 E122.63382
G1 X104.473 Y174.841 E122.65922
G1 X104.327 Y174.506 E122.68363
G1 X104.238 Y174.168 E122.70698
G1 X104.203 Y173.729 E122.7364
G1 X104.25 Y173.296 E122.7655
G1 X104.37 Y172.899 E122.79321
G1 X104.537 Y172.565 E122.81816
G1 X104.756 Y172.263 E122.84308
G1 X105.019 Y172.003 E122.86779
G1 X105.351 Y171.77 E122.89489
G1 X105.9 Y171.522 E122.93513
G1 X105.979 Y171.091 E122.9644
G1 X106.041 Y170.923 E122.97636
G1 X107.678 Y168.042 E123.19773
G1 X107.678 Y64.263 E130.13073
G1 X99.964 Y64.263 E130.64607
G1 X99.865 Y64.222 E130.65323
G1 X99.476 Y63.833 E130.68998
G1 X99.436 Y63.735 E130.69705
G1 X99.436 Y60.303 E130.92633
G1 X99.971 Y60.378 F7800
G1 F1800
G1 X100.128 Y60.221 E130.94116
G1 X143.96 Y60.221 E133.86937
G1 X143.258 Y58.977 E133.9648
G1 X142.957 Y58.253 E134.01718
G1 X142.75 Y57.565 E134.06518
G1 X142.612 Y56.87 E134.11252
G1 X142.537 Y56.119 E134.16294
G1 X142.538 Y55.398 E134.21111
G1 X142.608 Y54.679 E134.25937
G1 X142.749 Y53.958 E134.30845
G1 X142.956 Y53.271 E134.35638
G1 X143.24 Y52.579 E134.40635
G1 X143.584 Y51.931 E134.45536
G1 X143.997 Y51.313 E134.50502
G1 X144.472 Y50.734 E134.55505
G1 X144.972 Y50.233 E134.60234
G1 X145.526 Y49.777 E134.65028
G1 X146.17 Y49.345 E134.70209
G1 X146.793 Y49.012 E134.74928
