; generated by PrusaSlicer 2.6.1+win64 on 2023-10-10 at 16:45:26 UTC

; 

; external perimeters extrusion width = 0.60mm
; perimeters extrusion width = 0.60mm
; infill extrusion width = 0.65mm
; solid infill extrusion width = 0.60mm
; top infill extrusion width = 0.65mm
; support material extrusion width = 0.65mm
; first layer extrusion width = 0.60mm

; external perimeters extrusion width = 0.60mm
; perimeters extrusion width = 0.60mm
; infill extrusion width = 0.65mm
; solid infill extrusion width = 0.60mm
; top infill extrusion width = 0.65mm
; support material extrusion width = 0.65mm
; first layer extrusion width = 0.60mm

M73 P0 R7
;TYPE:Custom
M104 S216 ; set extruder temp
M140 S60 ; set bed temp
M190 S60 ; wait for bed temp
M109 S216 ; wait for extruder temp

G28 ; home all
BED_MESH_PROFILE LOAD=default;

G1 Z2.0 F3000 ; Move Z Axis up little to prevent scratching of Heat Bed
G1 X0.1 Y5 Z0.28 F5000.0 ; Move to start position


G92 E0 ; Reset Extruder
G1 Z2.0 F3000 ; Move Z Axis up little to prevent scratching of Heat Bed
G1 X0.1 Y10 Z0.28 F5000.0 ; Move to start position

G1 X0.1 Y200 Z0.28 F1500.0 E15 ; Draw the first line
G1 X0.4 Y200 Z0.28 F5000.0 ; Move to side a little
M73 P1 R7
G1 X0.4 Y10 Z0.28 F1500.0 E30 ; Draw the second line


G92 E0 ; Reset Extruder
M73 P2 R7
G1 Z0.5 F3000 ; Move Z Axis up little to prevent scratching of Heat Bed
M117 Godmode is enabled
G21 ; set units to millimeters
G90 ; use absolute coordinates
M82 ; use absolute distances for extrusion
G92 E0
; Filament gcode
M107
;LAYER_CHANGE
;Z:0.3
;HEIGHT:0.3
M73 P3 R7
G1 Z.3 F7800
G1 E-1.4 F2400
G92 E0
G1 Z.8 F7800
G1 X136.063 Y120.014
G1 Z.3
M73 P4 R7
G1 E1.4 F2400
;TYPE:Skirt/Brim
;WIDTH:0.6
G1 F1800
G1 X136.558 Y119.521 E1.44667
G1 X137.056 Y119.107 E1.48993
G1 X137.61 Y118.726 E1.53485
G1 X138.208 Y118.391 E1.58064
G1 X139.048 Y118.032 E1.64167
G1 X139.824 Y117.804 E1.6957
G1 X140.491 Y117.678 E1.74105
G1 X141.163 Y117.614 E1.78615
G1 X141.862 Y117.613 E1.83285
G1 X142.558 Y117.678 E1.87955
G1 X143.223 Y117.803 E1.92475
G1 X143.986 Y118.027 E1.97787
G1 X144.708 Y118.325 E2.03005
G1 X145.282 Y118.631 E2.0735
G1 X145.848 Y119.001 E2.11867
G1 X146.467 Y119.5 E2.17179
G1 X147.022 Y120.054 E2.22418
G1 X147.452 Y120.579 E2.26952
G1 X147.89 Y121.238 E2.32238
G1 X148.219 Y121.86 E2.36939
G1 X148.495 Y122.532 E2.41792
G1 X148.684 Y123.15 E2.46109
G1 X148.819 Y123.785 E2.50446
G1 X148.899 Y124.464 E2.55013
G1 X148.91 Y125.377 E2.61113
G1 X148.847 Y126.031 E2.65502
G1 X148.728 Y126.669 E2.69838
G1 X148.543 Y127.327 E2.74404
G1 X148.203 Y128.175 E2.80507
G1 X147.893 Y128.757 E2.84912
G1 X147.523 Y129.324 E2.89435
G1 X147.024 Y129.942 E2.94741
G1 X146.473 Y130.495 E2.99956
G1 X145.973 Y130.907 E3.04284
G1 X145.439 Y131.274 E3.08613
G1 X144.842 Y131.608 E3.13183
G1 X144.002 Y131.968 E3.19288
G1 X143.374 Y132.16 E3.23675
G1 X142.74 Y132.294 E3.28004
G1 X142.059 Y132.375 E3.32586
G1 X141.146 Y132.385 E3.38686
G1 X140.341 Y132.299 E3.44094
G1 X139.677 Y132.16 E3.48626
G1 X139.007 Y131.953 E3.53311
G1 X138.34 Y131.674 E3.58141
G1 X137.767 Y131.369 E3.62477
G1 X137.201 Y130.999 E3.66994
G1 X136.582 Y130.5 E3.72306
G1 X136.029 Y129.949 E3.77521
G1 X135.617 Y129.449 E3.81849
G1 X135.25 Y128.914 E3.86183
G1 X134.915 Y128.315 E3.90768
G1 X134.545 Y127.445 E3.97084
G1 X134.328 Y126.699 E4.02274
G1 X134.202 Y126.034 E4.06796
G1 X134.137 Y125.337 E4.11473
G1 X134.138 Y124.638 E4.16143
G1 X134.198 Y123.992 E4.20477
G1 X134.32 Y123.331 E4.24967
G1 X134.506 Y122.671 E4.29548
G1 X134.846 Y121.824 E4.35645
G1 X135.234 Y121.114 E4.4105
G1 X135.616 Y120.553 E4.45584
G1 X136.006 Y120.083 E4.49664
G1 X136.417 Y120.424 F7800
G1 F1800
G1 X136.91 Y119.924 E4.54355
G1 X137.371 Y119.541 E4.58359
G1 X137.884 Y119.186 E4.62527
G1 X138.434 Y118.877 E4.66741
G1 X139.215 Y118.541 E4.72421
G1 X139.962 Y118.321 E4.77623
G1 X140.577 Y118.206 E4.81803
G1 X141.2 Y118.148 E4.85983
G1 X141.826 Y118.147 E4.90165
G1 X142.472 Y118.207 E4.94499
G1 X143.087 Y118.322 E4.98679
G1 X143.796 Y118.528 E5.03611
G1 X144.469 Y118.805 E5.08473
G1 X145 Y119.086 E5.12486
G1 X145.523 Y119.428 E5.16661
G1 X146.099 Y119.89 E5.21594
G1 X146.617 Y120.404 E5.26469
G1 X147.014 Y120.888 E5.30651
G1 X147.424 Y121.502 E5.35583
G1 X147.729 Y122.077 E5.39931
G1 X147.987 Y122.702 E5.44448
G1 X148.163 Y123.274 E5.48446
G1 X148.288 Y123.861 E5.52455
G1 X148.364 Y124.486 E5.56661
G1 X148.375 Y125.342 E5.6238
G1 X148.318 Y125.946 E5.66433
G1 X148.209 Y126.536 E5.70441
G1 X148.04 Y127.142 E5.74644
G1 X147.723 Y127.937 E5.80362
G1 X147.438 Y128.475 E5.84429
G1 X147.097 Y128.999 E5.88606
G1 X146.634 Y129.575 E5.93543
G1 X146.121 Y130.091 E5.98404
G1 X145.659 Y130.473 E6.02409
G1 X145.165 Y130.813 E6.06415
G1 X144.617 Y131.122 E6.10618
G1 X143.831 Y131.46 E6.16334
G1 X143.25 Y131.639 E6.20395
G1 X142.663 Y131.764 E6.24404
G1 X142.037 Y131.839 E6.28616
G1 X141.186 Y131.851 E6.34302
G1 X140.412 Y131.768 E6.39502
G1 X139.8 Y131.639 E6.4368
G1 X139.179 Y131.446 E6.48024
G1 X138.58 Y131.195 E6.52363
G1 X138.049 Y130.914 E6.56376
G1 X137.525 Y130.572 E6.60556
G1 X136.949 Y130.11 E6.65489
G1 X136.433 Y129.597 E6.7035
G1 X136.051 Y129.135 E6.74355
G1 X135.711 Y128.641 E6.78361
G1 X135.402 Y128.091 E6.82575
G1 X135.055 Y127.279 E6.88474
G1 X134.846 Y126.562 E6.93463
G1 X134.731 Y125.948 E6.97636
G1 X134.673 Y125.324 E7.01823
G1 X134.673 Y124.674 E7.06165
G1 X134.727 Y124.076 E7.10176
G1 X134.839 Y123.463 E7.14339
G1 X135.009 Y122.856 E7.1855
G1 X135.324 Y122.066 E7.24232
G1 X135.697 Y121.382 E7.29437
G1 X136.051 Y120.866 E7.33617
G1 X136.36 Y120.494 E7.36848
G1 X136.771 Y120.836 F7800
G1 F1800
G1 X137.279 Y120.313 E7.41719
G1 X137.704 Y119.961 E7.45406
G1 X138.158 Y119.647 E7.49094
G1 X138.659 Y119.363 E7.52941
G1 X139.411 Y119.04 E7.58409
G1 X140.099 Y118.84 E7.63195
G1 X140.661 Y118.735 E7.67014
G1 X141.236 Y118.683 E7.70871
G1 X141.813 Y118.683 E7.74726
G1 X142.387 Y118.735 E7.78576
G1 X142.95 Y118.84 E7.82402
G1 X143.632 Y119.038 E7.87146
G1 X144.23 Y119.284 E7.91466
G1 X144.719 Y119.542 E7.9516
G1 X145.199 Y119.854 E7.98985
G1 X145.753 Y120.299 E8.03732
G1 X146.212 Y120.756 E8.08059
G1 X146.576 Y121.197 E8.11879
G1 X146.971 Y121.788 E8.16628
G1 X147.25 Y122.316 E8.20617
G1 X147.479 Y122.872 E8.24634
G1 X147.642 Y123.399 E8.28319
G1 X147.758 Y123.939 E8.32009
G1 X147.828 Y124.509 E8.35846
G1 X147.841 Y125.307 E8.41178
G1 X147.789 Y125.862 E8.44902
G1 X147.69 Y126.405 E8.48589
G1 X147.536 Y126.959 E8.5243
G1 X147.243 Y127.701 E8.57759
G1 X146.982 Y128.194 E8.61486
G1 X146.67 Y128.675 E8.65316
G1 X146.226 Y129.229 E8.70059
G1 X145.769 Y129.687 E8.74381
G1 X145.345 Y130.039 E8.78062
G1 X144.89 Y130.353 E8.81755
G1 X144.39 Y130.636 E8.85593
G1 X143.658 Y130.953 E8.90922
G1 X143.125 Y131.118 E8.94649
G1 X142.585 Y131.234 E8.98339
G1 X142.015 Y131.304 E9.02176
G1 X141.196 Y131.315 E9.07648
G1 X140.484 Y131.237 E9.12433
G1 X139.924 Y131.118 E9.16258
G1 X139.373 Y130.946 E9.20114
G1 X138.818 Y130.716 E9.24127
G1 X138.33 Y130.458 E9.27815
G1 X137.85 Y130.146 E9.3164
G1 X137.296 Y129.701 E9.36387
G1 X136.837 Y129.245 E9.40709
G1 X136.485 Y128.82 E9.44396
G1 X136.171 Y128.366 E9.48084
G1 X135.888 Y127.865 E9.51928
G1 X135.564 Y127.113 E9.57398
G1 X135.364 Y126.426 E9.62178
G1 X135.26 Y125.863 E9.66003
G1 X135.207 Y125.288 E9.69861
G1 X135.208 Y124.687 E9.73876
G1 X135.26 Y124.138 E9.7756
M73 P5 R7
G1 X135.359 Y123.594 E9.81254
G1 X135.512 Y123.04 E9.85094
G1 X135.816 Y122.28 E9.90562
G1 X136.16 Y121.652 E9.95346
G1 X136.485 Y121.18 E9.99174
G1 X136.713 Y120.905 E10.0156
G1 X137.124 Y121.249 F7800
G1 F1800
G1 X137.257 Y121.089 E10.0295
G1 X137.631 Y120.717 E10.06474
G1 X138.019 Y120.394 E10.09847
G1 X138.434 Y120.106 E10.13222
G1 X138.886 Y119.849 E10.16696
G1 X139.577 Y119.549 E10.21729
G1 X140.235 Y119.358 E10.26306
G1 X140.745 Y119.265 E10.29769
G1 X141.272 Y119.217 E10.33304
G1 X141.8 Y119.218 E10.36831
G1 X142.303 Y119.265 E10.40206
G1 X142.814 Y119.358 E10.43676
G1 X143.468 Y119.549 E10.48228
G1 X143.992 Y119.764 E10.52012
G1 X144.439 Y119.999 E10.55386
G1 X144.875 Y120.281 E10.58855
G1 X145.406 Y120.707 E10.63403
G1 X145.808 Y121.107 E10.67192
G1 X146.139 Y121.507 E10.7066
G1 X146.518 Y122.074 E10.75216
G1 X146.76 Y122.532 E10.78677
G1 X146.971 Y123.043 E10.8237
G1 X147.121 Y123.525 E10.85742
G1 X147.228 Y124.018 E10.89112
G1 X147.293 Y124.533 E10.9258
G1 X147.306 Y125.273 E10.97524
G1 X147.26 Y125.779 E11.00918
G1 X147.17 Y126.276 E11.04292
G1 X147.033 Y126.776 E11.07755
G1 X146.761 Y127.465 E11.12704
G1 X146.525 Y127.914 E11.16093
G1 X146.244 Y128.35 E11.19558
G1 X145.817 Y128.882 E11.24115
G1 X145.417 Y129.283 E11.27899
G1 X145.029 Y129.606 E11.31272
G1 X144.614 Y129.894 E11.34647
G1 X144.163 Y130.151 E11.38115
G1 X143.485 Y130.446 E11.43055
G1 X143 Y130.597 E11.46448
G1 X142.506 Y130.704 E11.49825
G1 X141.991 Y130.769 E11.53293
G1 X141.237 Y130.781 E11.58331
G1 X140.556 Y130.706 E11.62908
G1 X140.049 Y130.597 E11.66372
G1 X139.545 Y130.439 E11.69901
G1 X139.057 Y130.236 E11.73432
G1 X138.61 Y130.001 E11.76806
G1 X138.174 Y129.719 E11.80275
G1 X137.642 Y129.293 E11.84828
G1 X137.241 Y128.893 E11.88612
G1 X136.918 Y128.505 E11.91985
G1 X136.63 Y128.09 E11.9536
G1 X136.373 Y127.639 E11.98828
G1 X136.074 Y126.947 E12.03864
G1 X135.882 Y126.289 E12.08443
G1 X135.789 Y125.779 E12.11906
G1 X135.742 Y125.253 E12.15434
G1 X135.743 Y124.724 E12.18968
G1 X135.789 Y124.221 E12.22342
G1 X135.879 Y123.724 E12.25716
G1 X136.016 Y123.223 E12.29186
G1 X136.293 Y122.523 E12.34215
G1 X136.623 Y121.922 E12.38795
G1 X136.918 Y121.495 E12.42262
G1 X137.066 Y121.318 E12.43803
G1 X137.476 Y121.662 F7800
G1 F1800
G1 X137.659 Y121.443 E12.4571
G1 X137.984 Y121.12 E12.48771
G1 X138.336 Y120.826 E12.51835
G1 X138.711 Y120.564 E12.54891
G1 X139.114 Y120.334 E12.57991
G1 X139.744 Y120.059 E12.62583
G1 X140.371 Y119.876 E12.66946
G1 X140.828 Y119.794 E12.70048
G1 X141.284 Y119.753 E12.73107
G1 X141.765 Y119.753 E12.7632
G1 X142.221 Y119.794 E12.79379
G1 X142.678 Y119.876 E12.82481
G1 X143.304 Y120.059 E12.86838
G1 X143.755 Y120.245 E12.90097
G1 X144.16 Y120.457 E12.93151
G1 X144.551 Y120.708 E12.96255
G1 X145.06 Y121.116 E13.00613
G1 X145.404 Y121.46 E13.03863
G1 X145.701 Y121.816 E13.0696
G1 X146.064 Y122.359 E13.11323
G1 X146.28 Y122.77 E13.14425
G1 X146.464 Y123.214 E13.17636
G1 X146.601 Y123.651 E13.20695
G1 X146.699 Y124.099 E13.23759
G1 X146.758 Y124.559 E13.26857
G1 X146.771 Y125.24 E13.31407
G1 X146.73 Y125.697 E13.34472
G1 X146.65 Y126.148 E13.37532
G1 X146.528 Y126.595 E13.40627
G1 X146.28 Y127.23 E13.45181
G1 X146.068 Y127.636 E13.48241
G1 X145.817 Y128.027 E13.51345
G1 X145.408 Y128.535 E13.55702
G1 X145.064 Y128.88 E13.58957
G1 X144.713 Y129.174 E13.62016
G1 X144.337 Y129.436 E13.65078
G1 X143.935 Y129.666 E13.68172
G1 X143.31 Y129.939 E13.72728
G1 X142.873 Y130.076 E13.75787
G1 X142.426 Y130.175 E13.78846
G1 X141.965 Y130.234 E13.81951
G1 X141.278 Y130.246 E13.86541
G1 X140.629 Y130.175 E13.90903
G1 X140.175 Y130.076 E13.94007
G1 X139.739 Y129.94 E13.97058
G1 X139.294 Y129.756 E14.00275
G1 X138.889 Y129.543 E14.03332
G1 X138.498 Y129.293 E14.06432
G1 X137.989 Y128.884 E14.10794
G1 X137.644 Y128.54 E14.14049
G1 X137.35 Y128.189 E14.17108
G1 X137.089 Y127.813 E14.20166
G1 X136.858 Y127.41 E14.23269
G1 X136.583 Y126.78 E14.27861
G1 X136.4 Y126.153 E14.32224
G1 X136.318 Y125.697 E14.35319
G1 X136.277 Y125.241 E14.38378
G1 X136.277 Y124.76 E14.41591
G1 X136.318 Y124.303 E14.44656
G1 X136.399 Y123.852 E14.47717
G1 X136.52 Y123.405 E14.50811
G1 X136.771 Y122.765 E14.55404
G1 X137.085 Y122.192 E14.59769
G1 X137.418 Y121.731 E14.63568
G1 E13.23568 F2400
G92 E0
G1 Z.8 F7800
G1 X139.456 Y115.141
G1 Z.3
G1 E1.4 F2400
G1 F1800
G1 X139.007 Y115.002 E1.4314
G1 X138.34 Y114.723 E1.4797
G1 X137.767 Y114.418 E1.52306
G1 X137.201 Y114.047 E1.56827
G1 X136.582 Y113.549 E1.62134
G1 X136.029 Y112.997 E1.67354
G1 X135.617 Y112.497 E1.71682
G1 X135.25 Y111.963 E1.76011
G1 X134.915 Y111.364 E1.80596
G1 X134.545 Y110.493 E1.86918
G1 X134.328 Y109.748 E1.92102
G1 X134.202 Y109.082 E1.9663
G1 X134.137 Y108.385 E2.01307
G1 X134.138 Y107.686 E2.05977
G1 X134.198 Y107.041 E2.10305
G1 X134.32 Y106.38 E2.14795
G1 X134.506 Y105.72 E2.19376
G1 X134.846 Y104.872 E2.25479
G1 X135.234 Y104.162 E2.30884
G1 X135.616 Y103.602 E2.35413
G1 X136.063 Y103.063 E2.40091
G1 X136.558 Y102.569 E2.44763
G1 X137.056 Y102.156 E2.49085
G1 X137.61 Y101.775 E2.53577
G1 X138.208 Y101.44 E2.58156
G1 X139.048 Y101.081 E2.64259
G1 X139.824 Y100.852 E2.69664
G1 X140.491 Y100.726 E2.74199
G1 X141.163 Y100.663 E2.78708
G1 X141.862 Y100.661 E2.83378
G1 X142.558 Y100.726 E2.88048
G1 X143.223 Y100.852 E2.9257
G1 X143.986 Y101.076 E2.97882
G1 X144.708 Y101.374 E3.031
G1 X145.282 Y101.679 E3.07442
G1 X145.848 Y102.05 E3.11963
G1 X146.467 Y102.548 E3.1727
G1 X147.022 Y103.102 E3.22509
G1 X147.452 Y103.628 E3.27048
G1 X147.89 Y104.287 E3.32334
G1 X148.219 Y104.909 E3.37035
G1 X148.495 Y105.581 E3.41888
G1 X148.684 Y106.199 E3.46205
G1 X148.819 Y106.833 E3.50535
G1 X148.899 Y107.512 E3.55102
G1 X148.91 Y108.426 E3.61208
G1 X148.847 Y109.08 E3.65597
G1 X148.728 Y109.717 E3.69926
G1 X148.543 Y110.375 E3.74492
G1 X148.203 Y111.224 E3.80602
G1 X147.893 Y111.806 E3.85007
G1 X147.523 Y112.372 E3.89524
G1 X147.024 Y112.991 E3.94836
G1 X146.473 Y113.544 E4.00051
G1 X145.973 Y113.956 E4.04379
G1 X145.439 Y114.323 E4.08708
G1 X144.842 Y114.657 E4.13278
G1 X144.002 Y115.017 E4.19383
G1 X143.374 Y115.209 E4.2377
G1 X142.74 Y115.343 E4.28099
G1 X142.059 Y115.423 E4.3268
G1 X141.146 Y115.434 E4.3878
M73 P6 R7
G1 X140.341 Y115.348 E4.44188
G1 X139.542 Y115.167 E4.49661
G1 X139.701 Y114.657 F7800
G1 F1800
G1 X139.179 Y114.494 E4.53314
G1 X138.58 Y114.244 E4.5765
G1 X138.049 Y113.962 E4.61667
G1 X137.525 Y113.621 E4.65844
G1 X136.949 Y113.159 E4.70777
G1 X136.433 Y112.646 E4.75638
G1 X136.051 Y112.184 E4.79643
G1 X135.711 Y111.689 E4.83655
G1 X135.402 Y111.14 E4.87864
G1 X135.055 Y110.328 E4.93763
G1 X134.846 Y109.611 E4.98752
G1 X134.731 Y108.996 E5.02932
G1 X134.673 Y108.373 E5.07112
G1 X134.673 Y107.722 E5.11461
G1 X134.727 Y107.125 E5.15466
G1 X134.839 Y106.512 E5.19629
G1 X135.009 Y105.905 E5.2384
G1 X135.324 Y105.115 E5.29522
G1 X135.697 Y104.431 E5.34727
G1 X136.051 Y103.915 E5.38907
G1 X136.451 Y103.432 E5.43097
G1 X136.91 Y102.973 E5.47433
G1 X137.371 Y102.589 E5.51441
G1 X137.884 Y102.235 E5.55605
G1 X138.434 Y101.926 E5.59819
G1 X139.215 Y101.59 E5.65499
G1 X139.962 Y101.37 E5.70701
G1 X140.577 Y101.255 E5.74881
G1 X141.2 Y101.197 E5.79061
G1 X141.826 Y101.196 E5.83243
G1 X142.472 Y101.255 E5.87577
G1 X143.087 Y101.37 E5.91757
G1 X143.796 Y101.577 E5.96691
G1 X144.469 Y101.853 E6.0155
G1 X145 Y102.135 E6.05567
G1 X145.523 Y102.476 E6.09738
G1 X146.099 Y102.939 E6.14675
G1 X146.617 Y103.453 E6.1955
G1 X147.014 Y103.937 E6.23732
G1 X147.424 Y104.55 E6.28659
G1 X147.729 Y105.125 E6.33007
G1 X147.987 Y105.75 E6.37524
G1 X148.163 Y106.323 E6.41528
G1 X148.288 Y106.91 E6.45537
G1 X148.364 Y107.534 E6.49736
G1 X148.375 Y108.39 E6.55455
G1 X148.318 Y108.995 E6.59515
G1 X148.209 Y109.585 E6.63523
G1 X148.04 Y110.191 E6.67726
G1 X147.723 Y110.986 E6.73444
G1 X147.438 Y111.524 E6.77511
G1 X147.097 Y112.048 E6.81688
G1 X146.634 Y112.624 E6.86625
G1 X146.121 Y113.14 E6.91486
G1 X145.659 Y113.522 E6.95491
G1 X145.165 Y113.862 E6.99497
G1 X144.617 Y114.171 E7.037
G1 X143.831 Y114.509 E7.09416
G1 X143.25 Y114.687 E7.13475
G1 X142.663 Y114.813 E7.17486
G1 X142.037 Y114.888 E7.21698
G1 X141.186 Y114.899 E7.27384
G1 X140.412 Y114.817 E7.32584
G1 X139.787 Y114.684 E7.36853
G1 X139.924 Y114.166 F7800
G1 F1800
G1 X139.373 Y113.995 E7.40707
G1 X138.818 Y113.764 E7.44723
G1 X138.33 Y113.506 E7.48411
G1 X137.85 Y113.194 E7.52236
G1 X137.296 Y112.75 E7.56979
G1 X136.837 Y112.294 E7.61301
G1 X136.485 Y111.869 E7.64988
G1 X136.171 Y111.414 E7.68681
G1 X135.888 Y110.914 E7.72519
G1 X135.564 Y110.162 E7.77989
G1 X135.364 Y109.474 E7.82775
G1 X135.26 Y108.911 E7.866
G1 X135.207 Y108.337 E7.90451
G1 X135.208 Y107.736 E7.94466
G1 X135.26 Y107.187 E7.9815
G1 X135.359 Y106.643 E8.01844
G1 X135.512 Y106.089 E8.05684
