; HEADER_BLOCK_START
; generated by OrcaSlicer 1.7.0 on 2023-10-21 at 14:27:28
; total layer number: 7
; HEADER_BLOCK_END

; THUMBNAIL_BLOCK_START
; THUMBNAIL_BLOCK_END

; external perimeters extrusion width = 0.60mm
; perimeters extrusion width = 0.60mm
; infill extrusion width = 0.60mm
; solid infill extrusion width = 0.72mm
; top infill extrusion width = 0.72mm
; first layer extrusion width = 0.62mm

; external perimeters extrusion width = 0.60mm
; perimeters extrusion width = 0.60mm
; infill extrusion width = 0.60mm
; solid infill extrusion width = 0.72mm
; top infill extrusion width = 0.72mm
; first layer extrusion width = 0.62mm

; external perimeters extrusion width = 0.60mm
; perimeters extrusion width = 0.60mm
; infill extrusion width = 0.60mm
; solid infill extrusion width = 0.72mm
; top infill extrusion width = 0.72mm
; first layer extrusion width = 0.62mm

; external perimeters extrusion width = 0.60mm
; perimeters extrusion width = 0.60mm
; infill extrusion width = 0.60mm
; solid infill extrusion width = 0.72mm
; top infill extrusion width = 0.72mm
; first layer extrusion width = 0.62mm

; external perimeters extrusion width = 0.60mm
; perimeters extrusion width = 0.60mm
; infill extrusion width = 0.60mm
; solid infill extrusion width = 0.72mm
; top infill extrusion width = 0.72mm
; first layer extrusion width = 0.62mm

; external perimeters extrusion width = 0.60mm
; perimeters extrusion width = 0.60mm
; infill extrusion width = 0.60mm
; solid infill extrusion width = 0.72mm
; top infill extrusion width = 0.72mm
; first layer extrusion width = 0.62mm

; external perimeters extrusion width = 0.60mm
; perimeters extrusion width = 0.60mm
; infill extrusion width = 0.60mm
; solid infill extrusion width = 0.72mm
; top infill extrusion width = 0.72mm
; first layer extrusion width = 0.62mm

; external perimeters extrusion width = 0.60mm
; perimeters extrusion width = 0.60mm
; infill extrusion width = 0.60mm
; solid infill extrusion width = 0.72mm
; top infill extrusion width = 0.72mm
; first layer extrusion width = 0.62mm

; EXECUTABLE_BLOCK_START
EXCLUDE_OBJECT_DEFINE NAME=flowrate_m1_id_0_copy_0 CENTER=98,136 POLYGON=[[78,121],[118,121],[118,141],[108,151],[88,151],[78,141],[78,121]]
EXCLUDE_OBJECT_DEFINE NAME=flowrate_m2_id_1_copy_0 CENTER=140,136 POLYGON=[[120,121],[160,121],[160,141],[150,151],[130,151],[120,141],[120,121]]
EXCLUDE_OBJECT_DEFINE NAME=flowrate_m3_id_2_copy_0 CENTER=182,136 POLYGON=[[162,121],[202,121],[202,141],[192,151],[172,151],[162,141],[162,121]]
EXCLUDE_OBJECT_DEFINE NAME=flowrate_m4_id_3_copy_0 CENTER=98,104 POLYGON=[[78,89],[118,89],[118,109],[108,119],[88,119],[78,109],[78,89]]
EXCLUDE_OBJECT_DEFINE NAME=flowrate_m5_id_4_copy_0 CENTER=140,104 POLYGON=[[120,89],[160,89],[160,109],[150,119],[130,119],[120,109],[120,89]]
EXCLUDE_OBJECT_DEFINE NAME=flowrate_m6_id_5_copy_0 CENTER=182,104 POLYGON=[[162,89],[202,89],[202,109],[192,119],[172,119],[162,109],[162,89]]
EXCLUDE_OBJECT_DEFINE NAME=flowrate_m7_id_6_copy_0 CENTER=182,72 POLYGON=[[162,57],[202,57],[202,77],[192,87],[172,87],[162,77],[162,57]]
EXCLUDE_OBJECT_DEFINE NAME=flowrate_m8_id_7_copy_0 CENTER=140,72 POLYGON=[[120,57],[160,57],[160,77],[150,87],[130,87],[120,77],[120,57]]
M73 P0 R43
;TYPE:Custom
M104 S230 ; set extruder temp
M140 S60 ; set bed temp
M190 S60 ; wait for bed temp
M109 S230 ; wait for extruder temp

G28 ; home all
BED_MESH_PROFILE LOAD=default;

G1 Z2.0 F3000 ; Move Z Axis up little to prevent scratching of Heat Bed
G1 X0.1 Y5 Z0.28 F5000.0 ; Move to start position


G92 E0 ; Reset Extruder
G1 Z2.0 F3000 ; Move Z Axis up little to prevent scratching of Heat Bed
G1 X0.1 Y10 Z0.28 F5000.0 ; Move to start position

G1 X0.1 Y200 Z0.28 F1500.0 E15 ; Draw the first line
G1 X0.4 Y200 Z0.28 F5000.0 ; Move to side a little
G1 X0.4 Y10 Z0.28 F1500.0 E30 ; Draw the second line


G92 E0 ; Reset Extruder
G1 Z0.5 F3000 ; Move Z Axis up little to prevent scratching of Heat Bed
M117 Godmode is enabled
G90
G21
M83 ; use relative distances for extrusion
; filament start gcode
M106 S0
;LAYER_CHANGE
;Z:0.3
;HEIGHT:0.3
;BEFORE_LAYER_CHANGE
;0.3
G92 E0

G1 E-1.15 F3600
;_SET_FAN_SPEED_CHANGING_LAYER
G1 X75.508 Y85.73 F9000
G1 Z.3
G1 E1.15 F2400
;TYPE:Skirt
;WIDTH:0.62
G1 F1200
G1 X117.508 Y53.73 E3.65914
G1 X120 Y52.889 E.18224
G1 X202 Y52.889 E5.68259
G1 X203.759 Y53.284 E.12491
G1 X205.179 Y54.393 E.12491
G1 X205.989 Y56.004 E.12491
G1 X206.111 Y57 E.06955
G1 X206.111 Y141 E5.82119
G1 X205.716 Y142.759 E.12491
M73 P1 R43
G1 X204.907 Y143.907 E.09735
G1 X194.907 Y153.907 E.98005
G1 X193.384 Y154.871 E.12491
G1 X192 Y155.111 E.09735
G1 X88 Y155.111 E7.20719
G1 X86.241 Y154.716 E.12491
G1 X85.093 Y153.907 E.09735
G1 X75.093 Y143.907 E.98005
G1 X74.129 Y142.384 E.12491
G1 X73.889 Y141 E.09735
G1 X73.889 Y89 E3.6036
G1 X74.284 Y87.241 E.12491
G1 X75.471 Y85.776 E.13065
G1 X75.845 Y86.172 F9000
G1 F1200
G1 X117.845 Y54.172 E3.65914
G1 X120 Y53.444 E.15761
G1 X202 Y53.444 E5.68259
G1 X203.628 Y53.839 E.11605
M73 P1 R42
G1 X204.894 Y54.934 E.11605
G1 X205.556 Y57 E.15031
G1 X205.556 Y141 E5.82119
G1 X205.161 Y142.628 E.11605
G1 X204.514 Y143.514 E.07607
G1 X194.514 Y153.514 E.98005
G1 X193.084 Y154.386 E.11605
G1 X192 Y154.556 E.07607
G1 X88 Y154.556 E7.20719
G1 X86.372 Y154.161 E.11605
M73 P2 R42
G1 X85.486 Y153.514 E.07607
G1 X75.486 Y143.514 E.98005
G1 X74.614 Y142.084 E.11605
G1 X74.444 Y141 E.07607
G1 X74.444 Y89 E3.6036
G1 X74.839 Y87.372 E.11605
G1 X75.807 Y86.218 E.10441
G1 E-.805 F3600
;WIPE_START
G1 F1200
G1 X76.602 Y85.611 E-.345
;WIPE_END
EXCLUDE_OBJECT_START NAME=flowrate_m1_id_0_copy_0
G1 X106.479 Y149.479 F9000
G1 E1.15 F2400
;TYPE:Inner wall
;WIDTH:0.62
G1 F1200
G1 X89.521 Y149.479 E1.1634
G1 X89.521 Y140.868 E.59077
G1 X89.463 Y140.469 E.02768
G1 X89.284 Y140.091 E.0287
G1 X88.966 Y139.757 E.03164
G1 X88.583 Y139.554 E.02973
G1 X88.132 Y139.479 E.03133
G1 X79.521 Y139.479 E.59077
G1 X79.521 Y122.521 E1.1634
G1 X116.479 Y122.521 E2.53554
G1 X116.479 Y131 E.5817
G1 X116.479 Y139.479 E.5817
G1 X107.868 Y139.479 E.59077
G1 X107.417 Y139.554 E.03133
G1 X107.034 Y139.757 E.02973
G1 X106.717 Y140.091 E.03164
G1 X106.537 Y140.469 E.0287
G1 X106.479 Y140.868 E.02768
G1 X106.479 Y149.419 E.58665
G1 X107.034 Y150.034 F9000
G1 F1200
G1 X88.966 Y150.034 E1.23964
G1 X88.966 Y140.868 E.62889
G1 X88.913 Y140.575 E.0204
G1 X88.724 Y140.281 E.02398
G1 X88.465 Y140.104 E.02153
G1 X88.132 Y140.034 E.02332
G1 X78.966 Y140.034 E.62889
G1 X78.966 Y121.966 E1.23964
G1 X117.034 Y121.966 E2.61178
G1 X117.034 Y131 E.61982
G1 X117.034 Y140.034 E.61982
G1 X107.868 Y140.034 E.62889
G1 X107.535 Y140.104 E.02332
G1 X107.276 Y140.281 E.02153
G1 X107.108 Y140.526 E.02038
G1 X107.034 Y140.868 E.024
G1 X107.034 Y149.974 E.62477
G1 X107.59 Y150.59 F9000
;TYPE:Outer wall
G1 F1200
G1 X88.41 Y150.59 E1.31588
G1 X88.41 Y141 E.65794
G1 X88.407 Y140.827 E.0119
G1 X88.315 Y140.659 E.01315
G1 X88.132 Y140.59 E.01338
G1 X78.41 Y140.59 E.66701
G1 X78.41 Y121.41 E1.31588
G1 X117.59 Y121.41 E2.68802
G1 X117.59 Y131 E.65794
M73 P3 R42
G1 X117.59 Y140.59 E.65794
G1 X108 Y140.59 E.65794
G1 X107.822 Y140.594 E.01223
G1 X107.657 Y140.686 E.01295
G1 X107.59 Y140.868 E.01327
G1 X107.59 Y150.53 E.66289
G1 E-1.15 F3600
G1 X107.167 Y150.167 F9000
G1 X107.167 Y140.167
G1 X115.163 Y122.699
G1 E1.15 F2400
;TYPE:Bottom surface
;WIDTH:0.627058
G1 F2100
M106 S0
G1 X116.051 Y123.587 E.08552
G1 X116.051 Y124.383 E.05418
G1 X114.617 Y122.949 E.13807
G1 X113.821 Y122.949 E.05418
G1 X116.051 Y125.179 E.21469
G1 X116.051 Y125.974 E.05418
G1 X113.026 Y122.949 E.29131
G1 X112.23 Y122.949 E.05418
G1 X116.051 Y126.77 E.36794
G1 X116.051 Y127.566 E.05418
G1 X111.434 Y122.949 E.44456
G1 X110.638 Y122.949 E.05418
G1 X116.051 Y128.362 E.52119
G1 X116.051 Y129.157 E.05418
G1 X109.843 Y122.949 E.59781
G1 X109.047 Y122.949 E.05418
G1 X116.051 Y129.953 E.67443
G1 X116.051 Y130.749 E.05418
G1 X108.251 Y122.949 E.75106
G1 X107.455 Y122.949 E.05418
G1 X116.051 Y131.545 E.82768
G1 X116.051 Y132.34 E.05418
G1 X106.66 Y122.949 E.90431
G1 X105.864 Y122.949 E.05418
G1 X116.051 Y133.136 E.98093
G1 X116.051 Y133.932 E.05418
G1 X105.068 Y122.949 E1.05755
G1 X104.272 Y122.949 E.05418
G1 X116.051 Y134.728 E1.13418
G1 X116.051 Y135.523 E.05418
G1 X103.477 Y122.949 E1.2108
G1 X102.681 Y122.949 E.05418
G1 X116.051 Y136.319 E1.28743
G1 X116.051 Y137.115 E.05418
G1 X101.885 Y122.949 E1.36405
G1 X101.089 Y122.949 E.05418
G1 X116.051 Y137.911 E1.44067
G1 X116.051 Y138.706 E.05418
G1 X100.294 Y122.949 E1.5173
G1 X99.498 Y122.949 E.05418
G1 X115.6 Y139.051 E1.55053
G1 X114.805 Y139.052 E.05414
G1 X98.702 Y122.949 E1.55058
G1 X97.906 Y122.949 E.05418
G1 X114.01 Y139.052 E1.55063
G1 X113.215 Y139.053 E.05414
G1 X97.111 Y122.949 E1.55068
G1 X96.315 Y122.949 E.05418
G1 X112.419 Y139.054 E1.55073
G1 X111.624 Y139.054 E.05414
G1 X95.519 Y122.949 E1.55079
G1 X94.723 Y122.949 E.05418
G1 X110.829 Y139.055 E1.55084
G1 X110.034 Y139.055 E.05414
G1 X93.928 Y122.949 E1.55089
G1 X93.132 Y122.949 E.05418
G1 X109.239 Y139.056 E1.55094
G1 X108.443 Y139.056 E.05414
G1 X92.336 Y122.949 E1.55099
G1 X91.541 Y122.949 E.05418
G1 X107.658 Y139.067 E1.55199
G1 X107.421 Y139.106 E.01639
G1 X107.142 Y139.202 E.02003
G1 X107.048 Y139.252 E.0073
G1 X90.745 Y122.949 E1.56984
G1 X89.949 Y122.949 E.05418
G1 X106.583 Y139.583 E1.60172
G1 X106.362 Y139.85 E.02363
G1 X106.252 Y140.048 E.01537
G1 X89.153 Y122.949 E1.64646
G1 X88.358 Y122.949 E.05418
G1 X106.067 Y140.658 E1.70525
G1 X106.055 Y141.442 E.05341
G1 X87.562 Y122.949 E1.78077
G1 X86.766 Y122.949 E.05418
G1 X106.055 Y142.238 E1.85735
G1 X106.054 Y143.033 E.05415
G1 X85.97 Y122.949 E1.93394
G1 X85.175 Y122.949 E.05418
M73 P3 R41
G1 X106.054 Y143.828 E2.01052
G1 X106.053 Y144.624 E.05415
M73 P4 R41
G1 X84.379 Y122.949 E2.0871
G1 X83.583 Y122.949 E.05418
G1 X106.053 Y145.419 E2.16368
G1 X106.053 Y146.214 E.05415
G1 X82.787 Y122.949 E2.24026
G1 X81.992 Y122.949 E.05418
G1 X106.052 Y147.01 E2.31684
G1 X106.052 Y147.805 E.05415
G1 X81.196 Y122.949 E2.39343
G1 X80.4 Y122.949 E.05418
G1 X106.051 Y148.6 E2.47001
G1 X106.051 Y149.051 E.03069
G1 X105.706 Y149.051 E.02348
G1 X79.949 Y123.294 E2.48021
G1 X79.949 Y124.09 E.05418
G1 X104.91 Y149.051 E2.40359
G1 X104.115 Y149.051 E.05418
G1 X79.949 Y124.885 E2.32697
G1 X79.949 Y125.681 E.05418
G1 X103.319 Y149.051 E2.25034
G1 X102.523 Y149.051 E.05418
G1 X79.949 Y126.477 E2.17372
G1 X79.949 Y127.272 E.05418
G1 X101.728 Y149.051 E2.09709
G1 X100.932 Y149.051 E.05418
G1 X79.949 Y128.068 E2.02047
G1 X79.949 Y128.864 E.05418
G1 X100.136 Y149.051 E1.94385
G1 X99.34 Y149.051 E.05418
G1 X79.949 Y129.66 E1.86722
G1 X79.949 Y130.455 E.05418
G1 X98.545 Y149.051 E1.7906
G1 X97.749 Y149.051 E.05418
G1 X89.945 Y141.247 E.75147
G1 X89.945 Y142.043 E.05421
G1 X96.953 Y149.051 E.67481
G1 X96.157 Y149.051 E.05418
G1 X89.946 Y142.839 E.59814
G1 X89.946 Y143.635 E.05421
G1 X95.362 Y149.051 E.52148
G1 X94.566 Y149.051 E.05418
G1 X89.946 Y144.432 E.44481
G1 X89.947 Y145.228 E.05421
G1 X93.77 Y149.051 E.36814
G1 X92.974 Y149.051 E.05418
G1 X89.947 Y146.024 E.29148
G1 X89.948 Y146.82 E.05421
G1 X92.179 Y149.051 E.21481
G1 X91.383 Y149.051 E.05418
G1 X89.948 Y147.616 E.13814
G1 X89.949 Y148.413 E.05421
G1 X90.837 Y149.301 E.08555
G1 E-1.15 F3600
G1 X88.004 Y139.307 F9000
G1 E1.15 F2400
G1 F2100
G1 X79.949 Y131.251 E.77567
G1 X79.949 Y132.047 E.05418
G1 X86.958 Y139.056 E.6749
G1 X86.162 Y139.055 E.05422
G1 X79.949 Y132.843 E.59822
G1 X79.949 Y133.638 E.05418
G1 X85.365 Y139.055 E.52155
G1 X84.569 Y139.054 E.05422
G1 X79.949 Y134.434 E.44487
G1 X79.949 Y135.23 E.05418
G1 X83.773 Y139.054 E.36819
G1 X82.976 Y139.053 E.05422
G1 X79.949 Y136.026 E.29152
G1 X79.949 Y136.821 E.05418
G1 X82.18 Y139.053 E.21484
G1 X81.384 Y139.052 E.05422
G1 X79.949 Y137.617 E.13816
G1 X79.949 Y138.413 E.05418
G1 X80.838 Y139.302 E.08558
G1 E-.805 F3600
;WIPE_START
G1 F2100
G1 X80.131 Y138.595 E-.345
;WIPE_END
EXCLUDE_OBJECT_END NAME=flowrate_m1_id_0_copy_0
EXCLUDE_OBJECT_START NAME=flowrate_m4_id_3_copy_0
G1 X106.479 Y117.479 F9000
G1 E1.15 F2400
;TYPE:Inner wall
;WIDTH:0.62
G1 F1200
G1 X89.521 Y117.479 E1.12815
G1 X89.521 Y108.868 E.57287
G1 X89.463 Y108.469 E.02684
G1 X89.284 Y108.091 E.02783
G1 X88.966 Y107.757 E.03068
G1 X88.583 Y107.554 E.02883
G1 X88.132 Y107.479 E.03038
G1 X79.521 Y107.479 E.57287
G1 X79.521 Y90.521 E1.12815
G1 X116.479 Y90.521 E2.45871
G1 X116.479 Y99 E.56407
M73 P5 R41
G1 X116.479 Y107.479 E.56407
G1 X107.868 Y107.479 E.57287
G1 X107.417 Y107.554 E.03038
G1 X107.034 Y107.757 E.02883
G1 X106.717 Y108.091 E.03068
G1 X106.537 Y108.469 E.02783
G1 X106.479 Y108.868 E.02684
G1 X106.479 Y117.419 E.56888
G1 X107.034 Y118.034 F9000
G1 F1200
G1 X88.966 Y118.034 E1.20208
G1 X88.966 Y108.868 E.60983
G1 X88.913 Y108.575 E.01979
G1 X88.724 Y108.281 E.02325
G1 X88.465 Y108.104 E.02088
G1 X88.132 Y108.034 E.02262
G1 X78.966 Y108.034 E.60983
G1 X78.966 Y89.966 E1.20208
G1 X117.034 Y89.966 E2.53263
G1 X117.034 Y99 E.60104
G1 X117.034 Y108.034 E.60104
G1 X107.868 Y108.034 E.60983
G1 X107.535 Y108.104 E.02262
G1 X107.276 Y108.281 E.02088
G1 X107.108 Y108.526 E.01976
G1 X107.034 Y108.868 E.02327
G1 X107.034 Y117.974 E.60584
G1 X107.59 Y118.59 F9000
;TYPE:Outer wall
G1 F1200
G1 X88.41 Y118.59 E1.276
G1 X88.41 Y109 E.638
G1 X88.407 Y108.827 E.01154
G1 X88.315 Y108.659 E.01275
G1 X88.132 Y108.59 E.01298
G1 X78.41 Y108.59 E.6468
G1 X78.41 Y89.41 E1.276
G1 X117.59 Y89.41 E2.60656
G1 X117.59 Y99 E.638
G1 X117.59 Y108.59 E.638
G1 X108 Y108.59 E.638
G1 X107.822 Y108.594 E.01186
G1 X107.657 Y108.686 E.01256
G1 X107.59 Y108.868 E.01287
G1 X107.59 Y118.53 E.6428
G1 E-1.15 F3600
G1 X107.167 Y118.167 F9000
G1 X107.167 Y108.167
G1 X115.163 Y90.699
G1 E1.15 F2400
;TYPE:Bottom surface
;WIDTH:0.627058
G1 F2100
M106 S0
G1 X116.051 Y91.587 E.08293
G1 X116.051 Y92.383 E.05254
G1 X114.617 Y90.949 E.13388
G1 X113.821 Y90.949 E.05254
G1 X116.051 Y93.179 E.20818
G1 X116.051 Y93.974 E.05254
G1 X113.026 Y90.949 E.28249
G1 X112.23 Y90.949 E.05254
G1 X116.051 Y94.77 E.35679
G1 X116.051 Y95.566 E.05254
G1 X111.434 Y90.949 E.43109
G1 X110.638 Y90.949 E.05254
G1 X116.051 Y96.362 E.50539
G1 X116.051 Y97.157 E.05254
G1 X109.843 Y90.949 E.57969
G1 X109.047 Y90.949 E.05254
G1 X116.051 Y97.953 E.654
G1 X116.051 Y98.749 E.05254
G1 X108.251 Y90.949 E.7283
G1 X107.455 Y90.949 E.05254
G1 X116.051 Y99.545 E.8026
G1 X116.051 Y100.34 E.05254
G1 X106.66 Y90.949 E.8769
G1 X105.864 Y90.949 E.05254
G1 X116.051 Y101.136 E.9512
G1 X116.051 Y101.932 E.05254
G1 X105.068 Y90.949 E1.02551
G1 X104.272 Y90.949 E.05254
G1 X116.051 Y102.728 E1.09981
G1 X116.051 Y103.523 E.05254
G1 X103.477 Y90.949 E1.17411
G1 X102.681 Y90.949 E.05254
G1 X116.051 Y104.319 E1.24841
G1 X116.051 Y105.115 E.05254
G1 X101.885 Y90.949 E1.32271
G1 X101.089 Y90.949 E.05254
G1 X116.051 Y105.911 E1.39702
G1 X116.051 Y106.706 E.05254
G1 X100.294 Y90.949 E1.47132
G1 X99.498 Y90.949 E.05254
G1 X115.6 Y107.051 E1.50354
G1 X114.805 Y107.052 E.0525
G1 X98.702 Y90.949 E1.50359
G1 X97.906 Y90.949 E.05254
M73 P6 R41
G1 X114.01 Y107.052 E1.50364
G1 X113.215 Y107.053 E.0525
G1 X97.111 Y90.949 E1.50369
G1 X96.315 Y90.949 E.05254
G1 X112.419 Y107.054 E1.50374
G1 X111.624 Y107.054 E.0525
G1 X95.519 Y90.949 E1.50379
G1 X94.723 Y90.949 E.05254
G1 X110.829 Y107.055 E1.50384
G1 X110.034 Y107.055 E.0525
G1 X93.928 Y90.949 E1.50389
G1 X93.132 Y90.949 E.05254
G1 X109.239 Y107.056 E1.50394
G1 X108.443 Y107.056 E.0525
G1 X92.336 Y90.949 E1.50399
G1 X91.541 Y90.949 E.05254
G1 X107.658 Y107.067 E1.50496
G1 X107.421 Y107.106 E.0159
M73 P6 R40
G1 X107.142 Y107.202 E.01942
G1 X107.048 Y107.252 E.00708
G1 X90.745 Y90.949 E1.52227
G1 X89.949 Y90.949 E.05254
G1 X106.583 Y107.583 E1.55318
G1 X106.362 Y107.85 E.02292
G1 X106.252 Y108.048 E.0149
G1 X89.153 Y90.949 E1.59657
G1 X88.358 Y90.949 E.05254
G1 X106.067 Y108.658 E1.65357
G1 X106.055 Y109.442 E.05179
G1 X87.562 Y90.949 E1.72681
G1 X86.766 Y90.949 E.05254
G1 X106.055 Y110.238 E1.80107
G1 X106.054 Y111.033 E.05251
G1 X85.97 Y90.949 E1.87533
G1 X85.175 Y90.949 E.05254
G1 X106.054 Y111.828 E1.94959
G1 X106.053 Y112.624 E.05251
