; HEADER_BLOCK_START
; generated by OrcaSlicer 1.7.0 on 2023-10-21 at 12:26:27
; total layer number: 7
; HEADER_BLOCK_END

; THUMBNAIL_BLOCK_START
; THUMBNAIL_BLOCK_END

; external perimeters extrusion width = 0.60mm
; perimeters extrusion width = 0.60mm
; infill extrusion width = 0.60mm
; solid infill extrusion width = 0.72mm
; top infill extrusion width = 0.72mm
; first layer extrusion width = 0.62mm

; external perimeters extrusion width = 0.60mm
; perimeters extrusion width = 0.60mm
; infill extrusion width = 0.60mm
; solid infill extrusion width = 0.72mm
; top infill extrusion width = 0.72mm
; first layer extrusion width = 0.62mm

; external perimeters extrusion width = 0.60mm
; perimeters extrusion width = 0.60mm
; infill extrusion width = 0.60mm
; solid infill extrusion width = 0.72mm
; top infill extrusion width = 0.72mm
; first layer extrusion width = 0.62mm

; external perimeters extrusion width = 0.60mm
; perimeters extrusion width = 0.60mm
; infill extrusion width = 0.60mm
; solid infill extrusion width = 0.72mm
; top infill extrusion width = 0.72mm
; first layer extrusion width = 0.62mm

; external perimeters extrusion width = 0.60mm
; perimeters extrusion width = 0.60mm
; infill extrusion width = 0.60mm
; solid infill extrusion width = 0.72mm
; top infill extrusion width = 0.72mm
; first layer extrusion width = 0.62mm

; external perimeters extrusion width = 0.60mm
; perimeters extrusion width = 0.60mm
; infill extrusion width = 0.60mm
; solid infill extrusion width = 0.72mm
; top infill extrusion width = 0.72mm
; first layer extrusion width = 0.62mm

; external perimeters extrusion width = 0.60mm
; perimeters extrusion width = 0.60mm
; infill extrusion width = 0.60mm
; solid infill extrusion width = 0.72mm
; top infill extrusion width = 0.72mm
; first layer extrusion width = 0.62mm

; external perimeters extrusion width = 0.60mm
; perimeters extrusion width = 0.60mm
; infill extrusion width = 0.60mm
; solid infill extrusion width = 0.72mm
; top infill extrusion width = 0.72mm
; first layer extrusion width = 0.62mm

; external perimeters extrusion width = 0.60mm
; perimeters extrusion width = 0.60mm
; infill extrusion width = 0.60mm
; solid infill extrusion width = 0.72mm
; top infill extrusion width = 0.72mm
; first layer extrusion width = 0.62mm

; EXECUTABLE_BLOCK_START
EXCLUDE_OBJECT_DEFINE NAME=flowrate_0_id_0_copy_0 CENTER=140,120 POLYGON=[[120,105],[160,105],[160,125],[150,135],[130,135],[120,125],[120,105]]
EXCLUDE_OBJECT_DEFINE NAME=flowrate_10_id_1_copy_0 CENTER=182,152 POLYGON=[[162,137],[202,137],[202,157],[192,167],[172,167],[162,157],[162,137]]
EXCLUDE_OBJECT_DEFINE NAME=flowrate_15_id_2_copy_0 CENTER=140,152 POLYGON=[[120,137],[160,137],[160,157],[150,167],[130,167],[120,157],[120,137]]
EXCLUDE_OBJECT_DEFINE NAME=flowrate_20_id_3_copy_0 CENTER=98,152 POLYGON=[[78,137],[118,137],[118,157],[108,167],[88,167],[78,157],[78,137]]
EXCLUDE_OBJECT_DEFINE NAME=flowrate_5_id_4_copy_0 CENTER=98,120 POLYGON=[[78,105],[118,105],[118,125],[108,135],[88,135],[78,125],[78,105]]
EXCLUDE_OBJECT_DEFINE NAME=flowrate_m10_id_5_copy_0 CENTER=182,88 POLYGON=[[162,73],[202,73],[202,93],[192,103],[172,103],[162,93],[162,73]]
EXCLUDE_OBJECT_DEFINE NAME=flowrate_m15_id_6_copy_0 CENTER=140,88 POLYGON=[[120,73],[160,73],[160,93],[150,103],[130,103],[120,93],[120,73]]
EXCLUDE_OBJECT_DEFINE NAME=flowrate_m20_id_7_copy_0 CENTER=98,88 POLYGON=[[78,73],[118,73],[118,93],[108,103],[88,103],[78,93],[78,73]]
EXCLUDE_OBJECT_DEFINE NAME=flowrate_m5_id_8_copy_0 CENTER=182,120 POLYGON=[[162,105],[202,105],[202,125],[192,135],[172,135],[162,125],[162,105]]
M73 P0 R49
;TYPE:Custom
M104 S216 ; set extruder temp
M140 S60 ; set bed temp
M190 S60 ; wait for bed temp
M109 S216 ; wait for extruder temp

G28 ; home all
BED_MESH_PROFILE LOAD=default;

G1 Z2.0 F3000 ; Move Z Axis up little to prevent scratching of Heat Bed
G1 X0.1 Y5 Z0.28 F5000.0 ; Move to start position


G92 E0 ; Reset Extruder
G1 Z2.0 F3000 ; Move Z Axis up little to prevent scratching of Heat Bed
G1 X0.1 Y10 Z0.28 F5000.0 ; Move to start position

G1 X0.1 Y200 Z0.28 F1500.0 E15 ; Draw the first line
G1 X0.4 Y200 Z0.28 F5000.0 ; Move to side a little
G1 X0.4 Y10 Z0.28 F1500.0 E30 ; Draw the second line


G92 E0 ; Reset Extruder
G1 Z0.5 F3000 ; Move Z Axis up little to prevent scratching of Heat Bed
M117 Godmode is enabled
G90
G21
M83 ; use relative distances for extrusion
; filament start gcode
M106 S0
;LAYER_CHANGE
;Z:0.3
;HEIGHT:0.3
;BEFORE_LAYER_CHANGE
;0.3
G92 E0

M73 P0 R48
G1 E-1.15 F3600
;_SET_FAN_SPEED_CHANGING_LAYER
G1 X75.393 Y69.821 F9000
G1 Z.3
G1 E1.15 F2400
;TYPE:Skirt
;WIDTH:0.62
G1 F1200
G1 X77.004 Y69.011 E.12491
G1 X78 Y68.889 E.06955
G1 X202 Y68.889 E8.59319
G1 X203.759 Y69.284 E.12491
G1 X205.179 Y70.393 E.12491
G1 X205.989 Y72.004 E.12491
G1 X206.111 Y73 E.06955
G1 X206.111 Y157 E5.82119
G1 X205.716 Y158.759 E.12491
G1 X204.907 Y159.907 E.09735
G1 X194.907 Y169.907 E.98005
G1 X193.384 Y170.871 E.12491
G1 X192 Y171.111 E.09735
G1 X88 Y171.111 E7.20719
G1 X86.241 Y170.716 E.12491
M73 P1 R48
G1 X85.093 Y169.907 E.09735
G1 X75.093 Y159.907 E.98005
G1 X74.129 Y158.384 E.12491
G1 X73.889 Y157 E.09735
G1 X73.889 Y73 E5.82119
G1 X74.284 Y71.241 E.12491
G1 X75.356 Y69.868 E.12075
G1 X75.805 Y70.256 F9000
G1 F1200
G1 X75.934 Y70.106 E.01374
G1 X78 Y69.444 E.15031
G1 X202 Y69.444 E8.59319
G1 X203.628 Y69.839 E.11605
G1 X204.894 Y70.934 E.11605
G1 X205.556 Y73 E.15031
G1 X205.556 Y157 E5.82119
G1 X205.161 Y158.628 E.11605
G1 X204.514 Y159.514 E.07607
G1 X194.514 Y169.514 E.98005
G1 X193.084 Y170.386 E.11605
G1 X192 Y170.556 E.07607
G1 X88 Y170.556 E7.20719
G1 X86.372 Y170.161 E.11605
G1 X85.486 Y169.514 E.07607
G1 X75.486 Y159.514 E.98005
G1 X74.614 Y158.084 E.11605
G1 X74.444 Y157 E.07607
G1 X74.444 Y73 E5.82119
G1 X74.839 Y71.372 E.11605
M73 P2 R48
G1 X75.765 Y70.301 E.09816
G1 E-.805 F3600
;WIPE_START
G1 F1200
G1 X75.934 Y70.106 E-.08909
G1 X76.641 Y69.88 E-.25591
;WIPE_END
EXCLUDE_OBJECT_START NAME=flowrate_m20_id_7_copy_0
G1 X106.479 Y101.479 F9000
G1 E1.15 F2400
;TYPE:Inner wall
;WIDTH:0.62
G1 F1200
G1 X89.521 Y101.479 E.94012
G1 X89.521 Y92.868 E.47739
G1 X89.463 Y92.469 E.02237
G1 X89.284 Y92.091 E.02319
G1 X88.966 Y91.757 E.02557
G1 X88.583 Y91.554 E.02402
G1 X88.132 Y91.479 E.02532
G1 X79.521 Y91.479 E.47739
G1 X79.521 Y74.521 E.94012
G1 X116.479 Y74.521 E2.04892
G1 X116.479 Y83 E.47006
G1 X116.479 Y91.479 E.47006
G1 X107.868 Y91.479 E.47739
G1 X107.417 Y91.554 E.02532
G1 X107.034 Y91.757 E.02402
G1 X106.717 Y92.091 E.02557
G1 X106.537 Y92.469 E.02319
G1 X106.479 Y92.868 E.02237
G1 X106.479 Y101.419 E.47406
G1 X107.034 Y102.034 F9000
G1 F1200
G1 X88.966 Y102.034 E1.00173
G1 X88.966 Y92.868 E.50819
G1 X88.913 Y92.575 E.01649
G1 X88.724 Y92.281 E.01937
G1 X88.465 Y92.104 E.0174
G1 X88.132 Y92.034 E.01885
G1 X78.966 Y92.034 E.50819
G1 X78.966 Y73.966 E1.00173
G1 X117.034 Y73.966 E2.11053
M73 P2 R47
G1 X117.034 Y83 E.50087
G1 X117.034 Y92.034 E.50087
G1 X107.868 Y92.034 E.50819
G1 X107.535 Y92.104 E.01885
G1 X107.276 Y92.281 E.0174
G1 X107.108 Y92.526 E.01647
G1 X107.034 Y92.868 E.01939
G1 X107.034 Y101.974 E.50487
G1 X107.59 Y102.59 F9000
;TYPE:Outer wall
G1 F1200
G1 X88.41 Y102.59 E1.06334
G1 X88.41 Y93 E.53167
G1 X88.407 Y92.827 E.00961
G1 X88.315 Y92.659 E.01063
G1 X88.132 Y92.59 E.01082
G1 X78.41 Y92.59 E.539
G1 X78.41 Y73.41 E1.06334
G1 X117.59 Y73.41 E2.17213
G1 X117.59 Y83 E.53167
G1 X117.59 Y92.59 E.53167
G1 X108 Y92.59 E.53167
G1 X107.822 Y92.594 E.00988
G1 X107.657 Y92.686 E.01046
G1 X107.59 Y92.868 E.01073
G1 X107.59 Y102.53 E.53567
G1 E-1.15 F3600
G1 X107.167 Y102.167 F9000
G1 X107.167 Y92.167
G1 X115.163 Y74.699
G1 E1.15 F2400
;TYPE:Bottom surface
;WIDTH:0.627058
G1 F2100
M106 S0
G1 X116.051 Y75.587 E.07052
G1 X116.051 Y76.383 E.04468
G1 X114.617 Y74.949 E.11384
G1 X113.821 Y74.949 E.04468
G1 X116.051 Y77.179 E.17703
G1 X116.051 Y77.974 E.04468
G1 X113.026 Y74.949 E.24021
G1 X112.23 Y74.949 E.04468
G1 X116.051 Y78.77 E.30339
G1 X116.051 Y79.566 E.04468
G1 X111.434 Y74.949 E.36657
G1 X110.638 Y74.949 E.04468
G1 X116.051 Y80.362 E.42975
G1 X116.051 Y81.157 E.04468
G1 X109.843 Y74.949 E.49294
G1 X109.047 Y74.949 E.04468
G1 X116.051 Y81.953 E.55612
G1 X116.051 Y82.749 E.04468
G1 X108.251 Y74.949 E.6193
G1 X107.455 Y74.949 E.04468
G1 X116.051 Y83.545 E.68248
G1 X116.051 Y84.34 E.04468
G1 X106.66 Y74.949 E.74567
G1 X105.864 Y74.949 E.04468
G1 X116.051 Y85.136 E.80885
G1 X116.051 Y85.932 E.04468
G1 X105.068 Y74.949 E.87203
G1 X104.272 Y74.949 E.04468
G1 X116.051 Y86.728 E.93521
G1 X116.051 Y87.523 E.04468
M73 P3 R47
G1 X103.477 Y74.949 E.99839
G1 X102.681 Y74.949 E.04468
G1 X116.051 Y88.319 E1.06158
G1 X116.051 Y89.115 E.04468
G1 X101.885 Y74.949 E1.12476
G1 X101.089 Y74.949 E.04468
G1 X116.051 Y89.911 E1.18794
G1 X116.051 Y90.706 E.04468
G1 X100.294 Y74.949 E1.25112
G1 X99.498 Y74.949 E.04468
G1 X115.6 Y91.051 E1.27852
G1 X114.805 Y91.052 E.04465
G1 X98.702 Y74.949 E1.27856
G1 X97.906 Y74.949 E.04468
G1 X114.01 Y91.052 E1.27861
G1 X113.215 Y91.053 E.04465
G1 X97.111 Y74.949 E1.27865
G1 X96.315 Y74.949 E.04468
G1 X112.419 Y91.054 E1.27869
G1 X111.624 Y91.054 E.04465
G1 X95.519 Y74.949 E1.27874
G1 X94.723 Y74.949 E.04468
G1 X110.829 Y91.055 E1.27878
G1 X110.034 Y91.055 E.04465
G1 X93.928 Y74.949 E1.27882
G1 X93.132 Y74.949 E.04468
G1 X109.239 Y91.056 E1.27886
G1 X108.443 Y91.056 E.04465
G1 X92.336 Y74.949 E1.27891
G1 X91.541 Y74.949 E.04468
G1 X107.658 Y91.067 E1.27973
G1 X107.421 Y91.106 E.01352
G1 X107.142 Y91.202 E.01652
G1 X107.048 Y91.252 E.00602
G1 X90.745 Y74.949 E1.29445
G1 X89.949 Y74.949 E.04468
G1 X106.583 Y91.583 E1.32074
G1 X106.362 Y91.85 E.01949
G1 X106.252 Y92.048 E.01267
G1 X89.153 Y74.949 E1.35763
G1 X88.358 Y74.949 E.04468
G1 X106.067 Y92.658 E1.4061
G1 X106.055 Y93.442 E.04404
G1 X87.562 Y74.949 E1.46838
G1 X86.766 Y74.949 E.04468
G1 X106.055 Y94.238 E1.53152
G1 X106.054 Y95.033 E.04465
G1 X85.97 Y74.949 E1.59467
G1 X85.175 Y74.949 E.04468
G1 X106.054 Y95.828 E1.65782
G1 X106.053 Y96.624 E.04465
G1 X84.379 Y74.949 E1.72096
G1 X83.583 Y74.949 E.04468
G1 X106.053 Y97.419 E1.78411
G1 X106.053 Y98.214 E.04465
G1 X82.787 Y74.949 E1.84726
G1 X81.992 Y74.949 E.04468
G1 X106.052 Y99.01 E1.91041
G1 X106.052 Y99.805 E.04465
G1 X81.196 Y74.949 E1.97355
G1 X80.4 Y74.949 E.04468
G1 X106.051 Y100.6 E2.0367
G1 X106.051 Y101.051 E.0253
G1 X105.706 Y101.051 E.01936
G1 X79.949 Y75.294 E2.04512
G1 X79.949 Y76.09 E.04468
G1 X104.91 Y101.051 E1.98193
G1 X104.115 Y101.051 E.04468
G1 X79.949 Y76.885 E1.91875
G1 X79.949 Y77.681 E.04468
G1 X103.319 Y101.051 E1.85557
G1 X102.523 Y101.051 E.04468
G1 X79.949 Y78.477 E1.79239
G1 X79.949 Y79.272 E.04468
M73 P4 R47
G1 X101.728 Y101.051 E1.7292
G1 X100.932 Y101.051 E.04468
G1 X79.949 Y80.068 E1.66602
G1 X79.949 Y80.864 E.04468
G1 X100.136 Y101.051 E1.60284
G1 X99.34 Y101.051 E.04468
G1 X79.949 Y81.66 E1.53966
G1 X79.949 Y82.455 E.04468
G1 X98.545 Y101.051 E1.47648
G1 X97.749 Y101.051 E.04468
G1 X89.945 Y93.247 E.61964
G1 X89.945 Y94.043 E.0447
G1 X96.953 Y101.051 E.55643
G1 X96.157 Y101.051 E.04468
G1 X89.946 Y94.839 E.49321
G1 X89.946 Y95.635 E.0447
G1 X95.362 Y101.051 E.42999
G1 X94.566 Y101.051 E.04468
G1 X89.946 Y96.432 E.36678
G1 X89.947 Y97.228 E.0447
G1 X93.77 Y101.051 E.30356
G1 X92.974 Y101.051 E.04468
G1 X89.947 Y98.024 E.24034
G1 X89.948 Y98.82 E.0447
G1 X92.179 Y101.051 E.17713
G1 X91.383 Y101.051 E.04468
G1 X89.948 Y99.616 E.11391
G1 X89.949 Y100.413 E.0447
G1 X90.837 Y101.301 E.07054
G1 E-1.15 F3600
G1 X88.004 Y91.307 F9000
G1 E1.15 F2400
G1 F2100
G1 X79.949 Y83.251 E.63959
G1 X79.949 Y84.047 E.04468
G1 X86.958 Y91.056 E.5565
G1 X86.162 Y91.055 E.04471
G1 X79.949 Y84.843 E.49328
G1 X79.949 Y85.638 E.04468
G1 X85.365 Y91.055 E.43005
G1 X84.569 Y91.054 E.04471
G1 X79.949 Y86.434 E.36683
G1 X79.949 Y87.23 E.04468
G1 X83.773 Y91.054 E.3036
G1 X82.976 Y91.053 E.04471
G1 X79.949 Y88.026 E.24038
G1 X79.949 Y88.821 E.04468
G1 X82.18 Y91.053 E.17715
G1 X81.384 Y91.052 E.04471
G1 X79.949 Y89.617 E.11393
G1 X79.949 Y90.413 E.04468
G1 X80.838 Y91.302 E.07057
G1 E-.805 F3600
;WIPE_START
G1 F2100
G1 X80.131 Y90.595 E-.345
;WIPE_END
EXCLUDE_OBJECT_END NAME=flowrate_m20_id_7_copy_0
EXCLUDE_OBJECT_START NAME=flowrate_5_id_4_copy_0
G1 X106.479 Y133.479 F9000
G1 E1.15 F2400
;TYPE:Inner wall
;WIDTH:0.62
G1 F1200
G1 X89.521 Y133.479 E1.23391
G1 X89.521 Y124.868 E.62657
G1 X89.463 Y124.469 E.02935
G1 X89.284 Y124.091 E.03044
G1 X88.966 Y123.757 E.03356
G1 X88.583 Y123.554 E.03153
G1 X88.132 Y123.479 E.03323
G1 X79.521 Y123.479 E.62657
G1 X79.521 Y106.521 E1.23391
G1 X116.479 Y106.521 E2.68921
M73 P4 R46
G1 X116.479 Y115 E.61696
G1 X116.479 Y123.479 E.61696
G1 X107.868 Y123.479 E.62657
G1 X107.417 Y123.554 E.03323
G1 X107.034 Y123.757 E.03153
G1 X106.717 Y124.091 E.03356
G1 X106.537 Y124.469 E.03044
G1 X106.479 Y124.868 E.02935
G1 X106.479 Y133.419 E.62221
G1 X107.034 Y134.034 F9000
G1 F1200
G1 X88.966 Y134.034 E1.31477
G1 X88.966 Y124.868 E.667
G1 X88.913 Y124.575 E.02164
G1 X88.724 Y124.281 E.02543
G1 X88.465 Y124.104 E.02283
G1 X88.132 Y124.034 E.02474
G1 X78.966 Y124.034 E.667
G1 X78.966 Y105.966 E1.31477
G1 X117.034 Y105.966 E2.77007
G1 X117.034 Y115 E.65739
G1 X117.034 Y124.034 E.65739
G1 X107.868 Y124.034 E.667
G1 X107.535 Y124.104 E.02474
G1 X107.276 Y124.281 E.02283
G1 X107.108 Y124.526 E.02162
G1 X107.034 Y124.868 E.02545
G1 X107.034 Y133.974 E.66264
G1 X107.59 Y134.59 F9000
;TYPE:Outer wall
G1 F1200
G1 X88.41 Y134.59 E1.39563
G1 X88.41 Y125 E.69781
G1 X88.407 Y124.827 E.01262
G1 X88.315 Y124.659 E.01395
G1 X88.132 Y124.59 E.0142
G1 X78.41 Y124.59 E.70743
G1 X78.41 Y105.41 E1.39563
G1 X117.59 Y105.41 E2.85093
G1 X117.59 Y115 E.69781
G1 X117.59 Y124.59 E.69781
M73 P5 R46
G1 X108 Y124.59 E.69781
G1 X107.822 Y124.594 E.01297
G1 X107.657 Y124.686 E.01373
G1 X107.59 Y124.868 E.01408
G1 X107.59 Y134.53 E.70307
G1 E-1.15 F3600
G1 X107.167 Y134.167 F9000
G1 X107.167 Y124.167
G1 X115.163 Y106.699
G1 E1.15 F2400
;TYPE:Bottom surface
;WIDTH:0.627058
G1 F2100
M106 S0
G1 X116.051 Y107.587 E.09255
G1 X116.051 Y108.383 E.05864
G1 X114.617 Y106.949 E.14942
G1 X113.821 Y106.949 E.05864
G1 X116.051 Y109.179 E.23235
G1 X116.051 Y109.974 E.05864
G1 X113.026 Y106.949 E.31527
G1 X112.23 Y106.949 E.05864
G1 X116.051 Y110.77 E.3982
G1 X116.051 Y111.566 E.05864
G1 X111.434 Y106.949 E.48113
G1 X110.638 Y106.949 E.05864
G1 X116.051 Y112.362 E.56405
G1 X116.051 Y113.157 E.05864
G1 X109.843 Y106.949 E.64698
G1 X109.047 Y106.949 E.05864
G1 X116.051 Y113.953 E.72991
G1 X116.051 Y114.749 E.05864
G1 X108.251 Y106.949 E.81283
G1 X107.455 Y106.949 E.05864
G1 X116.051 Y115.545 E.89576
G1 X116.051 Y116.34 E.05864
G1 X106.66 Y106.949 E.97869
G1 X105.864 Y106.949 E.05864
G1 X116.051 Y117.136 E1.06161
G1 X116.051 Y117.932 E.05864
G1 X105.068 Y106.949 E1.14454
G1 X104.272 Y106.949 E.05864
G1 X116.051 Y118.728 E1.22746
G1 X116.051 Y119.523 E.05864
G1 X103.477 Y106.949 E1.31039
G1 X102.681 Y106.949 E.05864
G1 X116.051 Y120.319 E1.39332
G1 X116.051 Y121.115 E.05864
G1 X101.885 Y106.949 E1.47624
G1 X101.089 Y106.949 E.05864
G1 X116.051 Y121.911 E1.55917
G1 X116.051 Y122.706 E.05864
G1 X100.294 Y106.949 E1.6421
G1 X99.498 Y106.949 E.05864
G1 X115.6 Y123.051 E1.67806
G1 X114.805 Y123.052 E.0586
G1 X98.702 Y106.949 E1.67811
G1 X97.906 Y106.949 E.05864
G1 X114.01 Y123.052 E1.67817
G1 X113.215 Y123.053 E.0586
G1 X97.111 Y106.949 E1.67823
G1 X96.315 Y106.949 E.05864
G1 X112.419 Y123.054 E1.67828
G1 X111.624 Y123.054 E.0586
G1 X95.519 Y106.949 E1.67834
G1 X94.723 Y106.949 E.05864
G1 X110.829 Y123.055 E1.6784
G1 X110.034 Y123.055 E.0586
G1 X93.928 Y106.949 E1.67845
G1 X93.132 Y106.949 E.05864
G1 X109.239 Y123.056 E1.67851
G1 X108.443 Y123.056 E.0586
G1 X92.336 Y106.949 E1.67857
G1 X91.541 Y106.949 E.05864
G1 X107.658 Y123.067 E1.67964
G1 X107.421 Y123.106 E.01774
G1 X107.142 Y123.202 E.02168
G1 X107.048 Y123.252 E.0079
G1 X90.745 Y106.949 E1.69896
G1 X89.949 Y106.949 E.05864
G1 X106.583 Y123.583 E1.73346
G1 X106.362 Y123.85 E.02558
G1 X106.252 Y124.048 E.01663
G1 X89.153 Y106.949 E1.78188
G1 X88.358 Y106.949 E.05864
