; generated by PrusaSlicer 2.6.0+win64 on 2023-09-06 at 18:46:31 UTC

; 

; external perimeters extrusion width = 0.60mm
; perimeters extrusion width = 0.60mm
; infill extrusion width = 0.65mm
; solid infill extrusion width = 0.60mm
; top infill extrusion width = 0.65mm
; support material extrusion width = 0.65mm
; first layer extrusion width = 0.60mm

M73 P0 R19
;TYPE:Custom
M104 S216 ; set extruder temp
M140 S60 ; set bed temp
M190 S60 ; wait for bed temp
M109 S216 ; wait for extruder temp

G28 ; home all
BED_MESH_PROFILE LOAD=default;

G1 Z2.0 F3000 ; Move Z Axis up little to prevent scratching of Heat Bed
G1 X0.1 Y5 Z0.28 F5000.0 ; Move to start position


G92 E0 ; Reset Extruder
G1 Z2.0 F3000 ; Move Z Axis up little to prevent scratching of Heat Bed
G1 X0.1 Y10 Z0.28 F5000.0 ; Move to start position

G1 X0.1 Y200 Z0.28 F1500.0 E15 ; Draw the first line
G1 X0.4 Y200 Z0.28 F5000.0 ; Move to side a little
G1 X0.4 Y10 Z0.28 F1500.0 E30 ; Draw the second line


G92 E0 ; Reset Extruder
G1 Z0.5 F3000 ; Move Z Axis up little to prevent scratching of Heat Bed
M117 Godmode is enabled
G21 ; set units to millimeters
G90 ; use absolute coordinates
M82 ; use absolute distances for extrusion
G92 E0
; Filament gcode
M107
;LAYER_CHANGE
;Z:0.3
;HEIGHT:0.3
M73 P1 R19
G1 Z.3 F7800
G1 E-1.4 F2100
G92 E0
G1 Z.8 F7800
G1 X88.916 Y126.806
G1 Z.3
G1 E1.4 F2100
;TYPE:Skirt/Brim
;WIDTH:0.6
G1 F1800
G1 X89.513 Y126.433 E1.44703
G1 X89.722 Y126.339 E1.46234
G1 X90.263 Y126.23 E1.49921
G1 X90.735 Y126.265 E1.53083
G1 X91.292 Y126.24 E1.56808
G1 X91.765 Y126.358 E1.60065
G1 X92.426 Y126.709 E1.65065
G1 X92.607 Y126.849 E1.66594
G1 X92.95 Y127.241 E1.70074
G1 X93.642 Y128.634 E1.80465
G1 X93.904 Y127.794 E1.86343
G1 X94.063 Y127.48 E1.88694
G1 X94.239 Y127.242 E1.90671
G1 X94.876 Y126.666 E1.96408
G1 X95.128 Y126.517 E1.98364
G1 X95.451 Y126.393 E2.00675
G1 X95.79 Y126.33 E2.02978
G1 X204.21 Y126.33 E9.27282
G1 X204.549 Y126.393 E9.29585
G1 X204.873 Y126.517 E9.31903
G1 X205.166 Y126.698 E9.34204
G1 X205.798 Y127.284 E9.39962
G1 X205.937 Y127.48 E9.41567
G1 X206.096 Y127.794 E9.43918
G1 X206.358 Y128.636 E9.49809
G1 X207.079 Y127.199 E9.6055
G1 X207.341 Y126.899 E9.63211
G1 X207.56 Y126.722 E9.65092
G1 X208.327 Y126.326 E9.70859
G1 X208.729 Y126.237 E9.7361
G1 X209.277 Y126.266 E9.77276
G1 X209.744 Y126.228 E9.80406
G1 X209.89 Y126.245 E9.81388
G1 X210.407 Y126.394 E9.84982
G1 X211.082 Y126.804 E9.90258
G1 X211.299 Y126.996 E9.92194
G1 X211.669 Y127.533 E9.96551
G1 X211.935 Y128.316 E10.02075
G1 X212.017 Y128.799 E10.05348
G1 X212.02 Y132.771 E10.31883
G1 X211.928 Y133.535 E10.37024
M73 P2 R19
G1 X211.812 Y134.057 E10.40596
G1 X211.786 Y134.271 E10.42036
G1 X211.751 Y135.808 E10.52307
G1 X211.689 Y136.055 E10.54008
G1 X211.544 Y136.394 E10.56471
G1 X211.338 Y136.695 E10.58908
G1 X210.679 Y137.328 E10.65012
G1 X210.462 Y137.46 E10.66709
G1 X210.12 Y137.6 E10.69178
G1 X209.763 Y137.67 E10.71608
G1 X90.237 Y137.67 E18.70106
G1 X89.88 Y137.6 E18.72536
G1 X89.54 Y137.461 E18.7499
G1 X89.236 Y137.26 E18.77425
G1 X88.593 Y136.611 E18.83528
G1 X88.457 Y136.394 E18.85239
G1 X88.28 Y135.953 E18.88414
G1 X88.236 Y135.702 E18.90116
G1 X88.214 Y134.271 E18.99677
G1 X88.188 Y134.057 E19.01117
G1 X88.073 Y133.541 E19.04649
G1 X87.982 Y132.812 E19.09557
G1 X87.98 Y128.853 E19.36005
G1 X88.06 Y128.333 E19.3952
G1 X88.329 Y127.537 E19.45133
G1 X88.741 Y126.952 E19.49913
G1 X88.847 Y126.864 E19.50833
G1 X89.194 Y127.269 F7800
G1 F1800
G1 X89.778 Y126.898 E19.55455
G1 X89.905 Y126.843 E19.5638
G1 X90.322 Y126.764 E19.59215
G1 X90.727 Y126.803 E19.61933
G1 X91.206 Y126.771 E19.6514
G1 X91.601 Y126.87 E19.6786
G1 X92.126 Y127.153 E19.71844
G1 X92.226 Y127.226 E19.72671
G1 X92.524 Y127.567 E19.75696
G1 X92.824 Y128.177 E19.80237
G1 X92.946 Y128.59 E19.83114
G1 X93.178 Y130.855 E19.98325
G1 X94.074 Y130.859 E20.04311
G1 X94.34 Y128.2 E20.22163
G1 X94.395 Y128.011 E20.23478
G1 X94.529 Y127.745 E20.25468
G1 X94.648 Y127.589 E20.26779
G1 X95.212 Y127.084 E20.31836
G1 X95.34 Y127.01 E20.32824
G1 X95.621 Y126.901 E20.34838
G1 X95.814 Y126.865 E20.3615
G1 X204.186 Y126.865 E27.60134
G1 X204.379 Y126.901 E27.61446
M73 P2 R18
G1 X204.657 Y127.008 E27.63436
G1 X204.824 Y127.111 E27.64747
G1 X205.382 Y127.622 E27.69802
G1 X205.47 Y127.742 E27.70796
G1 X205.605 Y128.011 E27.72807
G1 X205.66 Y128.2 E27.74122
G1 X205.927 Y130.862 E27.91995
G1 X206.814 Y130.857 E27.97921
G1 X207.061 Y128.562 E28.13341
G1 X207.166 Y128.213 E28.15776
G1 X207.505 Y127.524 E28.20906
G1 X207.73 Y127.268 E28.23183
G1 X207.836 Y127.181 E28.24099
G1 X208.479 Y126.841 E28.28958
G1 X208.804 Y126.769 E28.31182
G1 X209.28 Y126.804 E28.34371
G1 X209.726 Y126.764 E28.37362
G1 X210.221 Y126.898 E28.40788
G1 X210.782 Y127.248 E28.45205
G1 X210.885 Y127.336 E28.4611
G1 X211.175 Y127.744 E28.49454
G1 X211.421 Y128.468 E28.54562
G1 X211.481 Y128.822 E28.56961
G1 X211.485 Y132.755 E28.83236
G1 X211.399 Y133.455 E28.87948
G1 X211.284 Y133.965 E28.91441
G1 X211.251 Y134.234 E28.93252
G1 X211.223 Y135.714 E29.03141
G1 X211.187 Y135.866 E29.04185
G1 X211.061 Y136.159 E29.06316
G1 X210.945 Y136.331 E29.07702
G1 X210.369 Y136.89 E29.13064
G1 X210.236 Y136.974 E29.14115
G1 X209.941 Y137.094 E29.16243
G1 X209.737 Y137.135 E29.17633
G1 X90.263 Y137.135 E37.15784
G1 X90.059 Y137.094 E37.17174
M73 P3 R18
G1 X89.767 Y136.975 E37.1928
G1 X89.594 Y136.861 E37.20664
G1 X89.025 Y136.294 E37.2603
G1 X88.941 Y136.164 E37.27064
G1 X88.8 Y135.824 E37.29523
G1 X88.771 Y135.669 E37.30576
G1 X88.749 Y134.234 E37.40164
G1 X88.716 Y133.965 E37.41975
G1 X88.602 Y133.46 E37.45434
G1 X88.518 Y132.794 E37.49918
G1 X88.515 Y128.873 E37.76112
G1 X88.575 Y128.482 E37.78755
G1 X88.824 Y127.746 E37.83946
G1 X89.125 Y127.327 E37.87393
G1 X89.493 Y127.716 F7800
G1 F1800
G1 X90.04 Y127.366 E37.91731
G1 X90.37 Y127.299 E37.93981
G1 X90.719 Y127.342 E37.9633
G1 X91.135 Y127.303 E37.99121
G1 X91.381 Y127.36 E38.00808
G1 X91.851 Y127.614 E38.04377
G1 X92.06 Y127.837 E38.06419
G1 X92.333 Y128.391 E38.10545
G1 X92.425 Y128.713 E38.12782
G1 X92.692 Y131.389 E38.30748
G1 X94.558 Y131.396 E38.43214
G1 X94.884 Y128.23 E38.64476
G1 X95.026 Y127.969 E38.66461
G1 X95.516 Y127.525 E38.70878
G1 X95.839 Y127.401 E38.73189
G1 X204.161 Y127.401 E45.96839
G1 X204.484 Y127.525 E45.9915
G1 X204.974 Y127.969 E46.03567
G1 X205.116 Y128.23 E46.05552
G1 X205.442 Y131.4 E46.26841
G1 X207.297 Y131.391 E46.39234
G1 X207.582 Y128.688 E46.57392
G1 X207.66 Y128.422 E46.59244
G1 X207.934 Y127.848 E46.63493
G1 X208.14 Y127.622 E46.65536
G1 X208.688 Y127.336 E46.69666
G1 X208.86 Y127.303 E46.70836
G1 X209.276 Y127.342 E46.73627
G1 X209.704 Y127.304 E46.76498
G1 X209.974 Y127.375 E46.78363
G1 X210.506 Y127.716 E46.82584
G1 X210.681 Y127.956 E46.84568
G1 X210.907 Y128.621 E46.8926
G1 X210.945 Y128.845 E46.90778
G1 X210.949 Y132.738 E47.16785
G1 X210.869 Y133.375 E47.21074
G1 X210.755 Y133.873 E47.24487
G1 X210.716 Y134.198 E47.26674
G1 X210.683 Y135.683 E47.36597
G1 X210.55 Y135.968 E47.38698
G1 X210.049 Y136.46 E47.43389
G1 X209.711 Y136.599 E47.45831
G1 X90.289 Y136.599 E55.43635
G1 X89.951 Y136.46 E55.46077
G1 X89.45 Y135.968 E55.50768
G1 X89.306 Y135.632 E55.5321
G1 X89.284 Y134.198 E55.62791
G1 X89.245 Y133.873 E55.64978
G1 X89.132 Y133.378 E55.6837
G1 X89.053 Y132.776 E55.72426
G1 X89.051 Y128.893 E55.98367
G1 X89.09 Y128.631 E56.00137
G1 X89.318 Y127.958 E56.04884
G1 X89.44 Y127.789 E56.06276
G1 X89.856 Y128.119 F7800
G1 F1800
G1 X90.266 Y127.857 E56.09527
G1 X90.356 Y127.837 E56.10143
G1 X90.723 Y127.882 E56.12613
G1 X91.086 Y127.838 E56.15056
G1 X91.168 Y127.853 E56.15613
G1 X91.542 Y128.055 E56.18453
G1 X91.6 Y128.115 E56.1901
M73 P4 R18
G1 X91.841 Y128.606 E56.22664
G1 X91.894 Y128.79 E56.23943
G1 X92.207 Y131.922 E56.44971
G1 X95.043 Y131.934 E56.63917
G1 X95.396 Y128.405 E56.8761
G1 X95.441 Y128.316 E56.88276
G1 X95.821 Y127.972 E56.917
G1 X95.914 Y127.937 E56.92364
G1 X204.087 Y127.937 E64.15018
G1 X204.179 Y127.972 E64.15676
G1 X204.559 Y128.316 E64.191
G1 X204.604 Y128.405 E64.19766
G1 X204.958 Y131.937 E64.4348
G1 X207.781 Y131.924 E64.62339
G1 X208.104 Y128.809 E64.8326
G1 X208.154 Y128.63 E64.84502
G1 X208.397 Y128.121 E64.8827
G1 X208.455 Y128.06 E64.88832
G1 X208.832 Y127.853 E64.91705
G1 X208.915 Y127.838 E64.92268
G1 X209.277 Y127.883 E64.94705
G1 X209.644 Y127.837 E64.97176
G1 X209.734 Y127.857 E64.97792
G1 X210.134 Y128.107 E65.00943
G1 X210.192 Y128.179 E65.01561
G1 X210.385 Y128.742 E65.05537
G1 X210.41 Y128.872 E65.06421
G1 X210.413 Y132.721 E65.32134
G1 X210.34 Y133.292 E65.3598
G1 X210.227 Y133.779 E65.3932
G1 X210.18 Y134.161 E65.41891
G1 X210.159 Y135.545 E65.51138
G1 X210.118 Y135.641 E65.51835
G1 X209.73 Y136.023 E65.55472
G1 X209.632 Y136.063 E65.56179
G1 X90.368 Y136.063 E73.52927
G1 X90.27 Y136.023 E73.53634
G1 X89.882 Y135.641 E73.57271
G1 X89.841 Y135.545 E73.57968
G1 X89.82 Y134.161 E73.67215
G1 X89.773 Y133.779 E73.69786
G1 X89.661 Y133.293 E73.73118
G1 X89.589 Y132.758 E73.76724
G1 X89.587 Y128.911 E74.02424
G1 X89.606 Y128.779 E74.03315
G1 X89.804 Y128.192 E74.07454
G1 X90.269 Y128.486 F7800
G1 F1800
G1 X90.43 Y128.386 E74.0872
G1 X90.723 Y128.422 E74.10692
G1 X91.025 Y128.385 E74.12725
G1 X91.175 Y128.466 E74.13864
G1 X91.363 Y128.867 E74.16823
G1 X91.706 Y132.297 E74.39852
G1 X91.978 Y132.396 E74.41786
G1 X92.386 Y132.459 E74.44544
G1 X95.527 Y132.471 E74.65528
G1 X95.913 Y128.611 E74.91444
G1 X96.067 Y128.472 E74.9283
G1 X203.934 Y128.472 E82.1344
G1 X204.087 Y128.611 E82.14821
M73 P5 R18
G1 X204.473 Y132.472 E82.40743
G1 X207.177 Y132.471 E82.58807
G1 X207.611 Y132.459 E82.61707
G1 X208.022 Y132.396 E82.64485
G1 X208.294 Y132.297 E82.66419
G1 X208.647 Y128.84 E82.89634
G1 X208.825 Y128.468 E82.92389
G1 X208.977 Y128.385 E82.93546
G1 X209.277 Y128.422 E82.95565
G1 X209.57 Y128.386 E82.97537
G1 X209.731 Y128.487 E82.98807
G1 X209.878 Y128.936 E83.01963
G1 X209.878 Y132.703 E83.27129
G1 X209.81 Y133.208 E83.30533
G1 X209.699 Y133.685 E83.33805
G1 X209.645 Y134.124 E83.3676
G1 X209.626 Y135.374 E83.45112
G1 X209.47 Y135.528 E83.46576
G1 X90.53 Y135.528 E91.4116
G1 X90.374 Y135.374 E91.42624
G1 X90.355 Y134.124 E91.50976
G1 X90.301 Y133.685 E91.53931
G1 X90.189 Y133.207 E91.57211
G1 X90.125 Y132.739 E91.60367
G1 X90.122 Y128.936 E91.85773
G1 X90.24 Y128.572 E91.88329
G1 E90.48329 F2100
G92 E0
G1 Z.8 F7800
G1 X90.24 Y123.67
G1 Z.3
G1 E1.4 F2100
G1 F1800
G1 X89.88 Y123.6 E1.4245
G1 X89.54 Y123.461 E1.44904
G1 X89.236 Y123.26 E1.47339
G1 X88.593 Y122.611 E1.53442
G1 X88.457 Y122.394 E1.55153
G1 X88.28 Y121.953 E1.58328
G1 X88.236 Y121.702 E1.6003
G1 X88.214 Y120.271 E1.69591
G1 X88.188 Y120.057 E1.71031
G1 X88.073 Y119.541 E1.74563
G1 X87.982 Y118.812 E1.79471
G1 X87.98 Y114.853 E2.05919
G1 X88.06 Y114.333 E2.09434
G1 X88.329 Y113.537 E2.15047
G1 X88.741 Y112.952 E2.19827
G1 X88.915 Y112.806 E2.21344
G1 X89.513 Y112.433 E2.26052
G1 X89.722 Y112.339 E2.27583
G1 X90.263 Y112.23 E2.3127
G1 X90.735 Y112.265 E2.34432
G1 X91.292 Y112.24 E2.38157
G1 X91.765 Y112.358 E2.41414
G1 X92.426 Y112.709 E2.46414
G1 X92.607 Y112.849 E2.47943
G1 X92.95 Y113.241 E2.51423
G1 X93.642 Y114.634 E2.61814
G1 X93.904 Y113.794 E2.67692
G1 X94.063 Y113.48 E2.70043
G1 X94.239 Y113.242 E2.7202
G1 X94.876 Y112.666 E2.77757
G1 X95.128 Y112.517 E2.79713
G1 X95.451 Y112.393 E2.82024
G1 X95.79 Y112.33 E2.84327
G1 X204.21 Y112.33 E10.08631
G1 X204.549 Y112.393 E10.10934
G1 X204.873 Y112.517 E10.13252
G1 X205.166 Y112.698 E10.15553
G1 X205.798 Y113.284 E10.21311
G1 X205.937 Y113.48 E10.22916
G1 X206.096 Y113.794 E10.25267
G1 X206.358 Y114.636 E10.31158
G1 X207.079 Y113.199 E10.41899
G1 X207.341 Y112.899 E10.4456
G1 X207.56 Y112.722 E10.46441
M73 P6 R18
G1 X208.327 Y112.326 E10.52208
G1 X208.729 Y112.237 E10.54959
G1 X209.277 Y112.266 E10.58625
G1 X209.744 Y112.228 E10.61755
G1 X209.89 Y112.245 E10.62737
G1 X210.407 Y112.394 E10.66331
G1 X211.082 Y112.804 E10.71607
G1 X211.299 Y112.996 E10.73543
G1 X211.669 Y113.533 E10.779
G1 X211.935 Y114.316 E10.83424
G1 X212.017 Y114.799 E10.86697
G1 X212.02 Y118.771 E11.13232
G1 X211.928 Y119.535 E11.18373
G1 X211.812 Y120.057 E11.21945
G1 X211.786 Y120.271 E11.23385
G1 X211.751 Y121.808 E11.33656
G1 X211.689 Y122.055 E11.35357
G1 X211.544 Y122.394 E11.3782
G1 X211.338 Y122.695 E11.40257
G1 X210.679 Y123.328 E11.46361
G1 X210.462 Y123.46 E11.48058
G1 X210.12 Y123.6 E11.50527
G1 X209.763 Y123.67 E11.52957
G1 X90.33 Y123.67 E19.50834
G1 X90.33 Y123.135 F7800
G1 F1800
G1 X90.059 Y123.094 E19.52665
G1 X89.767 Y122.975 E19.54771
G1 X89.594 Y122.861 E19.56155
G1 X89.025 Y122.294 E19.61521
G1 X88.941 Y122.164 E19.62555
G1 X88.8 Y121.824 E19.65014
G1 X88.771 Y121.669 E19.66067
G1 X88.749 Y120.234 E19.75655
G1 X88.716 Y119.965 E19.77466
G1 X88.602 Y119.46 E19.80925
G1 X88.518 Y118.794 E19.85409
G1 X88.515 Y114.873 E20.11603
G1 X88.575 Y114.482 E20.14246
G1 X88.824 Y113.746 E20.19437
G1 X89.115 Y113.337 E20.2279
G1 X89.218 Y113.249 E20.23695
G1 X89.778 Y112.898 E20.2811
G1 X89.905 Y112.843 E20.29035
G1 X90.322 Y112.764 E20.3187
G1 X90.727 Y112.803 E20.34588
G1 X91.206 Y112.771 E20.37795
G1 X91.601 Y112.87 E20.40515
G1 X92.126 Y113.153 E20.44499
G1 X92.226 Y113.226 E20.45326
G1 X92.524 Y113.567 E20.48351
G1 X92.824 Y114.177 E20.52892
G1 X92.946 Y114.59 E20.55769
G1 X93.178 Y116.855 E20.7098
G1 X94.074 Y116.859 E20.76966
G1 X94.34 Y114.2 E20.94818
G1 X94.395 Y114.011 E20.96133
G1 X94.529 Y113.745 E20.98123
G1 X94.648 Y113.589 E20.99434
G1 X95.212 Y113.084 E21.04491
G1 X95.34 Y113.01 E21.05479
G1 X95.621 Y112.901 E21.07493
G1 X95.814 Y112.865 E21.08805
G1 X204.186 Y112.865 E28.32789
G1 X204.379 Y112.901 E28.34101
G1 X204.657 Y113.008 E28.36091
G1 X204.824 Y113.111 E28.37402
G1 X205.382 Y113.622 E28.42457
G1 X205.47 Y113.742 E28.43451
G1 X205.605 Y114.011 E28.45462
G1 X205.66 Y114.2 E28.46777
G1 X205.927 Y116.862 E28.6465
G1 X206.814 Y116.857 E28.70576
G1 X207.061 Y114.562 E28.85996
G1 X207.166 Y114.213 E28.88431
G1 X207.505 Y113.524 E28.93561
G1 X207.73 Y113.268 E28.95838
G1 X207.836 Y113.181 E28.96754
G1 X208.479 Y112.841 E29.01613
G1 X208.804 Y112.769 E29.03837
G1 X209.28 Y112.804 E29.07026
G1 X209.77 Y112.767 E29.10309
G1 X210.221 Y112.898 E29.13446
G1 X210.782 Y113.248 E29.17863
G1 X210.885 Y113.336 E29.18768
G1 X211.175 Y113.744 E29.22112
G1 X211.421 Y114.468 E29.2722
G1 X211.481 Y114.822 E29.29619
G1 X211.485 Y118.755 E29.55894
G1 X211.399 Y119.455 E29.60606
G1 X211.284 Y119.965 E29.64099
G1 X211.251 Y120.234 E29.6591
G1 X211.223 Y121.714 E29.75799
G1 X211.187 Y121.866 E29.76843
G1 X211.061 Y122.159 E29.78974
G1 X210.945 Y122.331 E29.8036
G1 X210.369 Y122.89 E29.85722
G1 X210.236 Y122.974 E29.86773
G1 X209.941 Y123.094 E29.88901
G1 X209.737 Y123.135 E29.90291
G1 X90.42 Y123.135 E37.87393
G1 X90.42 Y122.599 F7800
M73 P7 R18
G1 F1800
G1 X90.238 Y122.589 E37.88611
G1 X89.951 Y122.46 E37.90713
G1 X89.45 Y121.968 E37.95404
G1 X89.317 Y121.683 E37.97505
G1 X89.284 Y120.198 E38.07428
G1 X89.245 Y119.873 E38.09615
G1 X89.132 Y119.378 E38.13007
G1 X89.053 Y118.776 E38.17063
G1 X89.051 Y114.893 E38.43004
G1 X89.09 Y114.631 E38.44774
G1 X89.318 Y113.958 E38.49521
G1 X89.493 Y113.716 E38.51516
G1 X90.04 Y113.366 E38.55854
G1 X90.37 Y113.299 E38.58104
G1 X90.719 Y113.342 E38.60453
G1 X91.135 Y113.303 E38.63244
G1 X91.381 Y113.36 E38.64931
G1 X91.851 Y113.614 E38.685
G1 X92.06 Y113.837 E38.70542
G1 X92.333 Y114.391 E38.74668
G1 X92.425 Y114.713 E38.76905
G1 X92.692 Y117.389 E38.94871
G1 X94.558 Y117.396 E39.07337
G1 X94.884 Y114.23 E39.28599
G1 X95.026 Y113.969 E39.30584
G1 X95.516 Y113.525 E39.35001
G1 X95.839 Y113.401 E39.37312
G1 X204.161 Y113.401 E46.60962
G1 X204.484 Y113.525 E46.63273
G1 X204.974 Y113.969 E46.6769
G1 X205.116 Y114.23 E46.69675
G1 X205.442 Y117.4 E46.90964
G1 X207.297 Y117.391 E47.03357
G1 X207.582 Y114.688 E47.21515
G1 X207.66 Y114.422 E47.23367
G1 X207.934 Y113.848 E47.27616
G1 X208.113 Y113.643 E47.29434
G1 X208.688 Y113.336 E47.33789
G1 X208.86 Y113.303 E47.34959
G1 X209.276 Y113.342 E47.3775
G1 X209.704 Y113.304 E47.40621
G1 X209.974 Y113.375 E47.42486
G1 X210.477 Y113.689 E47.46447
G1 X210.681 Y113.956 E47.48692
