; HEADER_BLOCK_START
; generated by OrcaSlicer 1.7.0 on 2023-10-21 at 21:31:41
; total layer number: 94
; HEADER_BLOCK_END

; THUMBNAIL_BLOCK_START
; THUMBNAIL_BLOCK_END

; external perimeters extrusion width = 0.60mm
; perimeters extrusion width = 0.60mm
; infill extrusion width = 0.60mm
; solid infill extrusion width = 0.60mm
; top infill extrusion width = 0.60mm
; first layer extrusion width = 0.62mm

; EXECUTABLE_BLOCK_START
EXCLUDE_OBJECT_DEFINE NAME=Lid_1_.STL_id_0_copy_0 CENTER=140,120 POLYGON=[[92.939,120],[93.1672,116.518],[93.848,113.096],[94.9695,109.792],[96.5128,106.662],[98.4514,103.761],[100.752,101.138],[103.375,98.8371],[120.517,86.0941],[124.196,83.7049],[128.105,81.7133],[132.2,80.1412],[136.437,79.0058],[140.77,78.3196],[145.151,78.09],[146.047,78.137],[146.73,78.1727],[149.532,78.3196],[152.503,78.7902],[153.865,79.0058],[158.102,80.1412],[162.197,81.7133],[166.106,83.7049],[169.785,86.0941],[173.194,88.8548],[176.296,91.9567],[179.057,95.3659],[181.446,99.045],[183.438,102.954],[185.01,107.049],[186.145,111.286],[186.831,115.619],[187.061,120],[186.831,124.381],[186.145,128.714],[185.01,132.951],[183.438,137.046],[182.341,139.198],[181.446,140.955],[179.057,144.634],[178.784,144.972],[176.296,148.043],[173.194,151.145],[169.785,153.906],[166.106,156.295],[162.197,158.287],[158.102,159.859],[153.865,160.994],[152.503,161.21],[149.532,161.68],[146.73,161.827],[146.047,161.863],[145.151,161.91],[140.77,161.68],[136.437,160.994],[132.2,159.859],[128.105,158.287],[124.196,156.295],[120.517,153.906],[103.375,141.163],[100.752,138.862],[98.4514,136.239],[96.5128,133.338],[94.9695,130.208],[93.848,126.904],[93.1672,123.482],[92.939,120]]
M73 P0 R51
;TYPE:Custom
M104 S216 ; set extruder temp
M140 S60 ; set bed temp
M190 S60 ; wait for bed temp
M109 S216 ; wait for extruder temp

G28 ; home all
BED_MESH_PROFILE LOAD=default;

G1 Z2.0 F3000 ; Move Z Axis up little to prevent scratching of Heat Bed
G1 X0.1 Y5 Z0.28 F5000.0 ; Move to start position


G92 E0 ; Reset Extruder
G1 Z2.0 F3000 ; Move Z Axis up little to prevent scratching of Heat Bed
G1 X0.1 Y10 Z0.28 F5000.0 ; Move to start position

G1 X0.1 Y200 Z0.28 F1500.0 E15 ; Draw the first line
G1 X0.4 Y200 Z0.28 F5000.0 ; Move to side a little
G1 X0.4 Y10 Z0.28 F1500.0 E30 ; Draw the second line


G92 E0 ; Reset Extruder
G1 Z0.5 F3000 ; Move Z Axis up little to prevent scratching of Heat Bed
M117 Godmode is enabled
G90
G21
M83 ; use relative distances for extrusion
; filament start gcode
M106 S0
;LAYER_CHANGE
;Z:0.26
;HEIGHT:0.26
;BEFORE_LAYER_CHANGE
;0.26
G92 E0

G1 E-1.15 F3600
;_SET_FAN_SPEED_CHANGING_LAYER
G1 X110.797 Y89.359 F9000
G1 Z.26
G1 E1.15 F2400
;TYPE:Skirt
;WIDTH:0.62
G1 F1200
G1 X114.188 Y85.936 E.29386
G1 X117.919 Y82.886 E.29386
G1 X121.947 Y80.243 E.29386
G1 X126.23 Y78.035 E.29386
G1 X130.721 Y76.287 E.29386
G1 X135.369 Y75.018 E.29386
G1 X140.124 Y74.242 E.29386
G1 X144.935 Y73.967 E.29386
G1 X146.147 Y74.008 E.07394
G1 X150.178 Y74.242 E.24625
G1 X154.933 Y75.018 E.29386
G1 X159.581 Y76.287 E.29386
G1 X164.072 Y78.035 E.29386
G1 X168.354 Y80.243 E.29386
G1 X172.383 Y82.886 E.29386
G1 X175.792 Y85.646 E.26754
G1 X179.215 Y89.038 E.29386
G1 X182.519 Y93.117 E.32018
G1 X185.125 Y97.171 E.29386
G1 X187.292 Y101.474 E.29386
G1 X188.997 Y105.981 E.29386
G1 X190.223 Y110.641 E.29386
G1 X190.954 Y115.403 E.29386
G1 X191.184 Y120.216 E.29386
G1 X190.909 Y125.027 E.29386
G1 X190.133 Y129.782 E.29386
G1 X188.997 Y134.019 E.26754
G1 X187.292 Y138.526 E.29386
G1 X185.125 Y142.829 E.29386
G1 X182.519 Y146.883 E.29386
G1 X179.505 Y150.641 E.29386
G1 X176.113 Y154.064 E.29386
G1 X172.034 Y157.368 E.32018
G1 X167.98 Y159.974 E.29386
G1 X163.677 Y162.141 E.29386
G1 X159.17 Y163.847 E.29386
G1 X154.51 Y165.072 E.29386
G1 X149.748 Y165.803 E.29386
G1 X144.935 Y166.033 E.29386
G1 X140.124 Y165.758 E.29386
G1 X135.369 Y164.982 E.29386
G1 X130.721 Y163.713 E.29386
G1 X126.625 Y162.141 E.26754
G1 X122.322 Y159.974 E.29386
G1 X118.268 Y157.368 E.29386
G1 X114.51 Y154.354 E.29386
G1 X111.087 Y150.962 E.29386
G1 X108.037 Y147.232 E.29386
G1 X105.393 Y143.203 E.29386
G1 X103.186 Y138.921 E.29386
G1 X101.438 Y134.43 E.29386
G1 X100.169 Y129.782 E.29386
G1 X99.393 Y125.027 E.29386
G1 X99.118 Y119.784 E.32018
G1 X99.393 Y114.973 E.29386
G1 X100.079 Y110.641 E.26754
G1 X101.304 Y105.981 E.29386
G1 X103.01 Y101.474 E.29386
M73 P1 R51
G1 X105.177 Y97.171 E.29386
G1 X107.783 Y93.117 E.29386
G1 X110.76 Y89.405 E.2902
G1 X111.2 Y89.759 F9000
G1 F1200
G1 X111.236 Y89.714 E.00352
G1 X114.587 Y86.335 E.29027
G1 X118.274 Y83.324 E.29027
G1 X122.255 Y80.716 E.29027
G1 X126.487 Y78.538 E.29027
G1 X130.923 Y76.814 E.29027
G1 X135.515 Y75.563 E.29027
G1 X140.213 Y74.799 E.29027
G1 X144.964 Y74.531 E.29027
G1 X146.117 Y74.572 E.07034
G1 X150.089 Y74.799 E.24266
G1 X154.787 Y75.563 E.29027
G1 X159.379 Y76.814 E.29026
G1 X163.815 Y78.538 E.29027
G1 X167.724 Y80.529 E.26754
G1 X171.726 Y83.105 E.29027
G1 X175.437 Y86.085 E.29027
G1 X178.816 Y89.436 E.29027
G1 X182.046 Y93.425 E.31299
G1 X184.622 Y97.427 E.29027
G1 X186.765 Y101.676 E.29027
G1 X188.453 Y106.127 E.29026
G1 X189.665 Y110.729 E.29027
G1 X190.391 Y115.433 E.29027
G1 X190.62 Y120.187 E.29027
G1 X190.391 Y124.567 E.26754
G1 X189.665 Y129.271 E.29027
G1 X188.453 Y133.873 E.29027
G1 X186.765 Y138.324 E.29026
G1 X184.622 Y142.573 E.29027
G1 X182.046 Y146.575 E.29027
G1 X179.066 Y150.286 E.29027
G1 X175.715 Y153.665 E.29027
G1 X171.726 Y156.895 E.31299
G1 X167.724 Y159.471 E.29027
G1 X163.475 Y161.614 E.29027
G1 X159.024 Y163.302 E.29027
G1 X154.422 Y164.514 E.29027
G1 X149.718 Y165.24 E.29027
G1 X144.964 Y165.469 E.29027
G1 X140.213 Y165.201 E.29027
G1 X135.515 Y164.437 E.29027
G1 X130.923 Y163.186 E.29027
G1 X126.487 Y161.462 E.29027
G1 X122.578 Y159.471 E.26754
G1 X118.576 Y156.895 E.29027
G1 X114.865 Y153.915 E.29027
G1 X111.486 Y150.564 E.29026
G1 X108.475 Y146.877 E.29027
G1 X105.867 Y142.896 E.29027
G1 X103.689 Y138.664 E.29027
G1 X101.965 Y134.228 E.29027
G1 X100.714 Y129.636 E.29027
G1 X99.95 Y124.938 E.29027
G1 X99.682 Y119.813 E.31298
G1 X99.95 Y115.062 E.29027
G1 X100.714 Y110.364 E.29027
G1 X101.849 Y106.127 E.26754
G1 X103.537 Y101.676 E.29027
G1 X105.68 Y97.427 E.29027
G1 X108.256 Y93.425 E.29027
G1 X111.162 Y89.805 E.28309
G1 E-.805 F3600
;WIPE_START
G1 F1200
G1 X111.236 Y89.714 E-.0406
G1 X111.857 Y89.087 E-.3044
;WIPE_END
EXCLUDE_OBJECT_START NAME=Lid_1_.STL_id_0_copy_0
G1 X146.047 Y154.771 F9000
G1 E1.15 F2400
;TYPE:Inner wall
;WIDTH:0.62
M73 P1 R50
G1 F1200
G1 X146.041 Y154.773 E.00036
G1 X146.047 Y153.444 F9000
;TYPE:Outer wall
;WIDTH:0.802842
G1 F1200
G1 X146.047 Y153.411 E.0025
;WIDTH:0.799999
G1 X146.047 Y146.553 E.52414
G1 X146.682 Y146.29 F9000
;WIDTH:0.799996
G1 F1200
G1 X151.529 Y151.137 E.52387
;WIDTH:0.802838
G1 X151.552 Y151.16 E.0025
G1 E-.805 F3600
;WIPE_START
G1 F1200
G1 X151.529 Y151.137 E-.01123
G1 X150.845 Y150.453 E-.33377
;WIPE_END
G1 X146.913 Y145.654 F9000
G1 E1.15 F2400
;WIDTH:0.802842
G1 F1200
G1 X146.945 Y145.654 E.0025
;WIDTH:0.799999
G1 X153.804 Y145.654 E.52414
;WIDTH:0.80284
G1 X153.836 Y145.654 E.0025
G1 E-.805 F3600
;WIPE_START
G1 F1200
G1 X153.804 Y145.654 E-.01123
G1 X152.836 Y145.654 E-.33377
;WIPE_END
G1 X146.659 Y145.042 F9000
G1 E1.15 F2400
G1 F1200
G1 X146.682 Y145.019 E.0025
;WIDTH:0.799996
G1 X151.529 Y140.172 E.52387
G1 E-.805 F3600
;WIPE_START
G1 F1200
G1 X150.822 Y140.879 E-.345
;WIPE_END
G1 X146.047 Y137.898 F9000
G1 E1.15 F2400
;WIDTH:0.8
G1 F1200
G1 X146.047 Y144.756 E.52415
;WIDTH:0.802842
G1 X146.047 Y144.789 E.0025
G1 X145.435 Y145.042 F9000
;WIDTH:0.80284
G1 F1200
G1 X145.412 Y145.019 E.0025
;WIDTH:0.799999
G1 X140.565 Y140.172 E.52387
G1 E-.805 F3600
;WIPE_START
G1 F1200
G1 X141.272 Y140.879 E-.345
;WIPE_END
G1 X145.149 Y145.654 F9000
G1 E1.15 F2400
;WIDTH:0.8
G1 F1200
G1 X138.29 Y145.654 E.52415
G1 E-.805 F3600
;WIPE_START
G1 F1200
G1 X139.29 Y145.654 E-.345
;WIPE_END
G1 X146.912 Y154.83 F9000
G1 E1.15 F2400
;TYPE:Inner wall
;WIDTH:0.62
G1 F1200
G1 X145.924 Y154.8 E.05726
G1 X144.662 Y154.808 E.07313
G1 X144.321 Y154.762 E.01991
G1 X142.996 Y154.412 E.07939
G1 X142.57 Y154.238 E.0267
G1 X141.517 Y153.747 E.06731
G1 X141.276 Y153.604 E.01623
G1 X140.173 Y152.791 E.07937
G1 X139.862 Y152.475 E.0257
G1 X139.545 Y152.064 E.03004
G1 X139.051 Y151.691 E.03589
G1 X138.656 Y151.21 E.03603
G1 X138.082 Y150.405 E.05733
G1 X137.955 Y150.185 E.01473
G1 X137.375 Y148.942 E.07947
G1 X137.289 Y148.705 E.01457
G1 X136.94 Y147.38 E.07939
G1 X136.868 Y146.613 E.04466
G1 X136.88 Y145.989 E.03614
G1 X136.92 Y145.617 E.02167
G1 X136.88 Y145.263 E.02064
G1 X136.893 Y144.269 E.0576
G1 X136.94 Y143.929 E.01991
G1 X137.289 Y142.604 E.07939
G1 X137.489 Y142.122 E.03023
G1 X137.955 Y141.124 E.06379
G1 X138.923 Y139.766 E.09666
G1 X139.241 Y139.454 E.02577
G1 X139.621 Y139.178 E.02724
G1 X139.919 Y138.759 E.0298
G1 X140.491 Y138.264 E.04382
G1 X141.228 Y137.738 E.05244
G1 X141.517 Y137.562 E.0196
G1 X142.76 Y136.982 E.07948
G1 X144.399 Y136.537 E.09842
G1 X144.881 Y136.492 E.02801
G1 X145.667 Y136.487 E.04553
G1 X146.091 Y136.526 E.02469
G1 X146.438 Y136.487 E.02025
G1 X147.432 Y136.501 E.0576
G1 X147.773 Y136.547 E.01991
G1 X149.098 Y136.897 E.07939
G1 X149.334 Y136.982 E.01457
G1 X150.577 Y137.562 E.07947
G1 X150.818 Y137.705 E.01623
G1 X151.921 Y138.518 E.07936
G1 X152.232 Y138.834 E.0257
G1 X152.549 Y139.244 E.03005
G1 X152.955 Y139.537 E.02902
G1 X153.438 Y140.098 E.04287
G1 X154.012 Y140.904 E.05733
G1 X154.14 Y141.124 E.01473
G1 X154.719 Y142.367 E.07947
G1 X154.805 Y142.604 E.01457
G1 X155.154 Y143.929 E.0794
G1 X155.226 Y144.696 E.04465
G1 X155.214 Y145.32 E.03614
G1 X155.169 Y145.672 E.02056
G1 X155.214 Y146.046 E.02182
G1 X155.201 Y147.04 E.0576
G1 X155.154 Y147.38 E.01991
G1 X154.805 Y148.705 E.07939
G1 X154.14 Y150.185 E.09399
G1 X153.997 Y150.426 E.01623
G1 X153.184 Y151.528 E.07936
G1 X152.867 Y151.839 E.02571
G1 X152.457 Y152.156 E.03004
G1 X152.09 Y152.644 E.03535
G1 X151.603 Y153.045 E.03657
G1 X150.931 Y153.524 E.04781
G1 X150.577 Y153.747 E.02423
G1 X149.334 Y154.327 E.07947
G1 X147.773 Y154.762 E.09391
G1 X147.005 Y154.833 E.04466
G1 X146.972 Y154.832 E.00196
G1 X146.932 Y154.269 F9000
G1 F1200
G1 X146.397 Y154.257 E.03102
G1 X146.047 Y154.168 E.0209
G1 X145.719 Y154.256 E.01967
G1 X144.669 Y154.244 E.06083
G1 X144.465 Y154.216 E.01195
G1 X143.14 Y153.867 E.07939
G1 X141.755 Y153.236 E.08818
G1 X141.611 Y153.15 E.00974
G1 X140.508 Y152.337 E.07937
G1 X140.321 Y152.147 E.01542
G1 X140.07 Y151.777 E.02588
G1 X140.033 Y151.668 E.00668
G1 X139.81 Y151.563 E.0143
G1 X139.384 Y151.218 E.03177
G1 X139.07 Y150.822 E.02929
G1 X138.543 Y150.078 E.05281
G1 X138.466 Y149.946 E.00884
G1 X137.886 Y148.703 E.07947
G1 X137.835 Y148.561 E.00874
G1 X137.485 Y147.236 E.07939
G1 X137.432 Y146.581 E.03807
G1 X137.444 Y146.004 E.03346
G1 X137.529 Y145.654 E.02084
G1 X137.444 Y145.312 E.02044
G1 X137.458 Y144.277 E.05997
G1 X137.675 Y143.353 E.055
G1 X137.835 Y142.747 E.03627
G1 X138.534 Y141.243 E.09612
G1 X139.377 Y140.101 E.08225
G1 X139.577 Y139.907 E.01612
G1 X139.946 Y139.667 E.02551
G1 X140.033 Y139.641 E.00527
G1 X140.139 Y139.417 E.01433
G1 X140.483 Y138.991 E.03177
G1 X140.88 Y138.677 E.02929
G1 X141.623 Y138.15 E.05281
G1 X143.069 Y137.464 E.09269
G1 X144.539 Y137.084 E.08801
G1 X145.67 Y137.052 E.06553
G1 X145.871 Y137.075 E.01175
G1 X146.054 Y137.134 E.01114
G1 X146.41 Y137.051 E.02119
G1 X147.425 Y137.065 E.05877
G1 X148.323 Y137.276 E.05346
G1 X149.096 Y137.493 E.04652
G1 X150.339 Y138.073 E.07947
G1 X150.484 Y138.159 E.00974
G1 X151.586 Y138.972 E.07936
G1 X151.773 Y139.162 E.01542
G1 X152.024 Y139.531 E.02588
G1 X152.061 Y139.64 E.00669
G1 X152.284 Y139.746 E.0143
G1 X152.688 Y140.063 E.02976
G1 X153.024 Y140.487 E.03134
G1 X153.552 Y141.231 E.05281
G1 X153.628 Y141.362 E.00884
G1 X154.208 Y142.606 E.07947
G1 X154.259 Y142.747 E.00874
G1 X154.609 Y144.073 E.0794
G1 X154.662 Y144.727 E.03807
G1 X154.65 Y145.305 E.03346
G1 X154.562 Y145.654 E.02089
G1 X154.65 Y145.998 E.02054
G1 X154.637 Y147.032 E.05992
G1 X154.609 Y147.236 E.01195
G1 X154.259 Y148.561 E.07939
G1 X153.628 Y149.946 E.08818
G1 X153.542 Y150.091 E.00974
G1 X152.73 Y151.193 E.07936
G1 X152.54 Y151.38 E.01543
G1 X152.17 Y151.631 E.02588
G1 X152.061 Y151.668 E.00668
G1 X151.955 Y151.891 E.0143
G1 X151.611 Y152.318 E.03176
G1 X151.214 Y152.632 E.02929
G1 X150.471 Y153.159 E.05281
G1 X150.339 Y153.236 E.00884
G1 X149.096 Y153.815 E.07947
G1 X147.629 Y154.216 E.0881
G1 X146.992 Y154.268 E.03703
G1 X146.401 Y153.69 F9000
;TYPE:Outer wall
G1 F1200
G1 X146.286 Y153.66 E.00694
;WIDTH:0.66571
G1 X146.226 Y153.606 E.00504
;WIDTH:0.711421
G1 X146.166 Y153.552 E.00541
;WIDTH:0.757132
G1 X146.107 Y153.498 E.00579
;WIDTH:0.802842
G1 X146.047 Y153.444 E.00617
G1 X145.972 Y153.504 E.00735
;WIDTH:0.757132
G1 X145.898 Y153.564 E.0069
;WIDTH:0.711421
G1 X145.823 Y153.624 E.00645
;WIDTH:0.66571
G1 X145.748 Y153.684 E.006
;WIDTH:0.62
G1 X144.609 Y153.67 E.06601
G1 X143.284 Y153.321 E.07939
G1 X141.994 Y152.724 E.08238
G1 X140.843 Y151.883 E.0826
;WIDTH:0.643317
G1 X140.54 Y151.457 E.03153
;WIDTH:0.683198
G1 X140.54 Y151.383 E.00479
;WIDTH:0.723078
G1 X140.541 Y151.308 E.00509
;WIDTH:0.762958
G1 X140.541 Y151.234 E.0054
;WIDTH:0.802838
G1 X140.542 Y151.16 E.0057
G1 X140.467 Y151.16 E.0057
;WIDTH:0.762958
G1 X140.393 Y151.161 E.0054
;WIDTH:0.723078
G1 X140.319 Y151.161 E.00509
;WIDTH:0.683198
G1 X140.244 Y151.162 E.00479
;WIDTH:0.643317
G1 X139.825 Y150.867 E.03094
;WIDTH:0.62
G1 X139.003 Y149.752 E.08027
G1 X138.397 Y148.465 E.08241
G1 X138.031 Y147.092 E.0823
G1 X137.995 Y146.55 E.03149
G1 X138.008 Y146.019 E.03078
G1 X138.037 Y145.903 E.00694
;WIDTH:0.665
G1 X138.1 Y145.841 E.00555
;WIDTH:0.71
G1 X138.164 Y145.778 E.00596
;WIDTH:0.755
G1 X138.227 Y145.716 E.00637
;WIDTH:0.8
G1 X138.29 Y145.654 E.00678
G1 X138.222 Y145.578 E.00784
;WIDTH:0.755
G1 X138.153 Y145.502 E.00736
;WIDTH:0.71
G1 X138.085 Y145.425 E.00689
;WIDTH:0.665
G1 X138.016 Y145.349 E.00641
;WIDTH:0.62
G1 X138.022 Y144.284 E.06169
G1 X138.38 Y142.891 E.08335
G1 X139.006 Y141.552 E.08563
G1 X139.831 Y140.436 E.08041
G1 X140.183 Y140.179 E.02527
;WIDTH:0.648175
G1 X140.257 Y140.143 E.00501
;WIDTH:0.68613
G1 X140.334 Y140.15 E.005
;WIDTH:0.724085
G1 X140.411 Y140.157 E.0053
;WIDTH:0.76204
G1 X140.488 Y140.165 E.0056
;WIDTH:0.799994
G1 X140.565 Y140.172 E.00591
G1 X140.557 Y140.095 E.00591
;WIDTH:0.76204
G1 X140.55 Y140.018 E.0056
;WIDTH:0.724085
G1 X140.542 Y139.941 E.0053
;WIDTH:0.68613
G1 X140.535 Y139.864 E.005
;WIDTH:0.648175
G1 X140.817 Y139.447 E.03064
;WIDTH:0.62
G1 X141.881 Y138.659 E.0767
G1 X143.26 Y137.995 E.08869
G1 X144.679 Y137.63 E.0849
G1 X145.673 Y137.616 E.05759
G1 X145.796 Y137.643 E.00731
;WIDTH:0.665
G1 X145.859 Y137.707 E.00558
;WIDTH:0.71
G1 X145.922 Y137.77 E.006
;WIDTH:0.755
G1 X145.984 Y137.834 E.00641
;WIDTH:0.8
G1 X146.047 Y137.898 E.00682
G1 X146.124 Y137.829 E.00786
;WIDTH:0.755
G1 X146.2 Y137.76 E.00738
;WIDTH:0.71
G1 X146.277 Y137.692 E.00691
;WIDTH:0.665
G1 X146.354 Y137.623 E.00643
;WIDTH:0.62
G1 X147.417 Y137.629 E.06162
G1 X148.857 Y138.005 E.08625
G1 X150.149 Y138.613 E.0827
G1 X151.251 Y139.426 E.07936
G1 X151.519 Y139.783 E.02585
;WIDTH:0.633168
G1 X151.55 Y139.853 E.00452
;WIDTH:0.674875
G1 X151.544 Y139.933 E.00508
;WIDTH:0.716581
G1 X151.539 Y140.012 E.00543
;WIDTH:0.758288
G1 X151.534 Y140.092 E.00577
;WIDTH:0.799994
G1 X151.529 Y140.172 E.00611
G1 X151.609 Y140.167 E.00611
;WIDTH:0.758288
G1 X151.689 Y140.162 E.00577
;WIDTH:0.716581
G1 X151.769 Y140.157 E.00543
;WIDTH:0.674875
G1 X151.849 Y140.152 E.00508
;WIDTH:0.633168
G1 X152.262 Y140.433 E.02961
;WIDTH:0.62
G1 X152.688 Y140.988 E.04057
G1 X153.091 Y141.557 E.0404
G1 X153.714 Y142.891 E.08531
G1 X154.063 Y144.216 E.0794
G1 X154.099 Y144.759 E.03149
G1 X154.086 Y145.29 E.03078
G1 X154.054 Y145.412 E.00733
;WIDTH:0.66571
G1 X154 Y145.473 E.0051
;WIDTH:0.71142
G1 X153.945 Y145.533 E.00548
;WIDTH:0.75713
G1 X153.891 Y145.594 E.00586
;WIDTH:0.80284
G1 X153.836 Y145.654 E.00624
G1 X153.897 Y145.73 E.00739
;WIDTH:0.75713
G1 X153.957 Y145.805 E.00694
