; HEADER_BLOCK_START
; generated by OrcaSlicer 1.7.0 on 2023-11-29 at 14:19:38
; total layer number: 18
; HEADER_BLOCK_END

; THUMBNAIL_BLOCK_START
; THUMBNAIL_BLOCK_END

; external perimeters extrusion width = 0.60mm
; perimeters extrusion width = 0.60mm
; infill extrusion width = 0.60mm
; solid infill extrusion width = 0.60mm
; top infill extrusion width = 0.60mm
; first layer extrusion width = 0.62mm

; EXECUTABLE_BLOCK_START
M73 P0 R86
;TYPE:Custom
M104 S220 ; set extruder temp
M140 S60 ; set bed temp
M190 S60 ; wait for bed temp
M109 S220 ; wait for extruder temp

G28 ; home all
BED_MESH_PROFILE LOAD=default;

G1 Z2.0 F3000 ; Move Z Axis up little to prevent scratching of Heat Bed
G1 X0.1 Y5 Z0.28 F5000.0 ; Move to start position


G92 E0 ; Reset Extruder
G1 Z2.0 F3000 ; Move Z Axis up little to prevent scratching of Heat Bed
G1 X0.1 Y10 Z0.28 F5000.0 ; Move to start position

G1 X0.1 Y200 Z0.28 F1500.0 E15 ; Draw the first line
G1 X0.4 Y200 Z0.28 F5000.0 ; Move to side a little
G1 X0.4 Y10 Z0.28 F1500.0 E30 ; Draw the second line


G92 E0 ; Reset Extruder
G1 Z0.5 F3000 ; Move Z Axis up little to prevent scratching of Heat Bed
M117 Godmode is enabled
G90
G21
M83 ; use relative distances for extrusion
; filament start gcode
M106 S0
;LAYER_CHANGE
;Z:0.2
;HEIGHT:0.2
;BEFORE_LAYER_CHANGE
;0.2
G92 E0

G1 E-1.15 F3600
;_SET_FAN_SPEED_CHANGING_LAYER
G1 X95.363 Y75.82 F9000
G1 Z.2
G1 E1.15 F2400
;TYPE:Brim
;WIDTH:0.62
G1 F1200
G1 X95.642 Y75.507 E.02013
G1 X95.98 Y75.258 E.02013
G1 X96.362 Y75.085 E.02013
G1 X96.779 Y74.993 E.02046
G1 X97.008 Y74.98 E.01102
G1 X182.985 Y74.98 E4.12554
G1 X183.417 Y75.025 E.02085
G1 X183.816 Y75.154 E.02013
G1 X184.18 Y75.363 E.02013
G1 X184.493 Y75.642 E.02013
G1 X184.742 Y75.98 E.02013
G1 X184.915 Y76.362 E.02013
G1 X185.007 Y76.779 E.02046
G1 X185.02 Y77.008 E.01102
G1 X185.02 Y162.985 E4.12554
G1 X184.975 Y163.417 E.02086
G1 X184.846 Y163.816 E.02013
G1 X184.637 Y164.18 E.02013
G1 X184.358 Y164.493 E.02013
G1 X184.02 Y164.742 E.02013
G1 X183.638 Y164.915 E.02013
G1 X183.221 Y165.007 E.02046
G1 X182.992 Y165.02 E.01102
G1 X97.015 Y165.02 E4.12554
G1 X96.583 Y164.975 E.02086
G1 X96.184 Y164.846 E.02013
G1 X95.82 Y164.637 E.02013
G1 X95.507 Y164.358 E.02013
G1 X95.258 Y164.02 E.02013
G1 X95.085 Y163.638 E.02013
G1 X94.993 Y163.221 E.02046
G1 X94.98 Y162.992 E.01102
G1 X94.98 Y77.015 E4.12554
G1 X95.025 Y76.583 E.02085
G1 X95.154 Y76.184 E.02013
G1 X95.333 Y75.872 E.01725
G1 X95.825 Y76.175 F9000
G1 F1200
G1 X96.021 Y75.95 E.01432
G1 X96.259 Y75.77 E.01432
G1 X96.529 Y75.643 E.01432
G1 X96.844 Y75.57 E.01552
G1 X97.029 Y75.557 E.0089
G1 X182.964 Y75.558 E4.12351
G1 X183.279 Y75.591 E.01522
G1 X183.564 Y75.679 E.01432
G1 X183.825 Y75.825 E.01432
G1 X184.05 Y76.021 E.01432
G1 X184.23 Y76.259 E.01432
G1 X184.357 Y76.529 E.01432
G1 X184.43 Y76.844 E.01552
G1 X184.443 Y77.029 E.0089
G1 X184.443 Y162.946 E4.12265
G1 X184.409 Y163.279 E.01608
G1 X184.321 Y163.564 E.01432
G1 X184.175 Y163.825 E.01432
G1 X183.979 Y164.05 E.01432
G1 X183.741 Y164.23 E.01432
G1 X183.471 Y164.357 E.01432
G1 X183.156 Y164.43 E.01552
G1 X182.971 Y164.443 E.0089
G1 X97.054 Y164.443 E4.12265
G1 X96.721 Y164.409 E.01608
G1 X96.436 Y164.321 E.01432
G1 X96.175 Y164.175 E.01432
G1 X95.95 Y163.979 E.01432
G1 X95.77 Y163.741 E.01432
G1 X95.643 Y163.471 E.01432
G1 X95.57 Y163.156 E.01552
G1 X95.557 Y162.971 E.0089
G1 X95.557 Y77.054 E4.12265
G1 X95.591 Y76.721 E.01608
M73 P1 R85
G1 X95.679 Y76.436 E.01432
G1 X95.795 Y76.227 E.01145
G1 X96.305 Y76.491 F9000
G1 F1200
G1 X96.31 Y76.481 E.00054
G1 X96.403 Y76.386 E.00639
G1 X96.509 Y76.299 E.00657
G1 X96.795 Y76.165 E.01518
G1 X97.012 Y76.134 E.01049
G1 X182.987 Y76.134 E4.12546
G1 X183.314 Y76.204 E.01601
G1 X183.519 Y76.31 E.01109
G1 X183.614 Y76.403 E.00639
G1 X183.701 Y76.509 E.00657
G1 X183.835 Y76.795 E.01518
G1 X183.866 Y77.012 E.0105
G1 X183.866 Y162.987 E4.12546
G1 X183.796 Y163.314 E.01601
G1 X183.69 Y163.519 E.01109
G1 X183.597 Y163.614 E.00639
G1 X183.491 Y163.701 E.00657
G1 X183.205 Y163.835 E.01518
G1 X182.988 Y163.866 E.0105
G1 X97.013 Y163.866 E4.12546
G1 X96.686 Y163.796 E.01601
G1 X96.481 Y163.69 E.01109
G1 X96.386 Y163.597 E.00639
G1 X96.299 Y163.491 E.00657
G1 X96.165 Y163.205 E.01518
G1 X96.134 Y162.988 E.01049
G1 X96.134 Y77.013 E4.12546
G1 X96.204 Y76.686 E.01601
G1 X96.277 Y76.544 E.00767
G1 X96.76 Y76.839 F9000
G1 F1200
G1 X96.891 Y76.733 E.00806
G1 X97 Y76.711 E.00535
G1 X183 Y76.711 E4.12666
G1 X183.161 Y76.76 E.00806
G1 X183.267 Y76.891 E.00806
G1 X183.289 Y77 E.00535
G1 X183.289 Y163 E4.12666
G1 X183.24 Y163.161 E.00806
G1 X183.109 Y163.267 E.00806
G1 X183 Y163.289 E.00535
G1 X97 Y163.289 E4.12666
G1 X96.839 Y163.24 E.00806
G1 X96.733 Y163.109 E.00806
G1 X96.711 Y163 E.00535
G1 X96.711 Y77 E4.12666
G1 X96.743 Y76.897 E.00518
G1 E-.805 F3600
;WIPE_START
G1 F1200
G1 X96.891 Y76.733 E-.07604
G1 X97 Y76.711 E-.03849
G1 X97.668 Y76.711 E-.23048
;WIPE_END
G1 X181.436 Y161.436 F9000
G1 E1.15 F2400
;TYPE:Inner wall
;WIDTH:0.619999
G1 F1200
G1 X98.564 Y161.436 E3.77771
G1 X98.564 Y78.564 E3.77771
G1 X181.436 Y78.564 E3.77771
G1 X181.436 Y82.956 E.20022
G1 X181.436 Y161.376 E3.57475
G1 X182.013 Y162.013 F9000
M73 P2 R85
G1 F1200
G1 X97.987 Y162.013 E3.83033
G1 X97.987 Y77.987 E3.83033
G1 X182.013 Y77.987 E3.83033
M73 P2 R84
G1 X182.013 Y82.956 E.22653
G1 X182.013 Y161.953 E3.60106
G1 X182.59 Y162.59 F9000
;TYPE:Outer wall
G1 F1200
G1 X97.41 Y162.59 E3.88294
G1 X97.41 Y77.41 E3.88294
G1 X182.59 Y77.41 E3.88294
G1 X182.59 Y82.956 E.25284
G1 X182.59 Y162.53 E3.62737
G1 E-.805 F3600
;WIPE_START
G1 F1200
G1 X181.59 Y162.531 E-.345
;WIPE_END
G1 X162.013 Y94.746 F9000
G1 E1.15 F2400
;TYPE:Inner wall
G1 F1200
G1 X161.819 Y94.722 E.00893
G1 X161.525 Y94.614 E.01425
G1 X161.15 Y94.347 E.021
G1 X160.878 Y93.972 E.02113
G1 X160.743 Y93.561 E.01971
G1 X160.723 Y93.321 E.01095
G1 X160.723 Y82.679 E.48516
G1 X160.8 Y82.214 E.02148
G1 X160.921 Y81.949 E.01329
G1 X161.119 Y81.685 E.01502
G1 X161.402 Y81.455 E.01664
G1 X161.916 Y81.258 E.02511
G1 X162.166 Y81.236 E.01141
G1 X171.209 Y81.236 E.41222
G1 X171.612 Y81.294 E.0186
G1 X171.971 Y81.454 E.01789
G1 X172.253 Y81.684 E.01661
G1 X172.451 Y81.946 E.015
G1 X172.573 Y82.211 E.01328
G1 X172.651 Y82.679 E.02162
G1 X172.651 Y93.321 E.48516
G1 X172.585 Y93.753 E.01989
G1 X172.42 Y94.104 E.0177
G1 X172.091 Y94.462 E.02216
G1 X171.87 Y94.604 E.01197
G1 X171.569 Y94.718 E.01469
G1 X171.209 Y94.764 E.01656
G1 X162.166 Y94.764 E.41222
G1 X162.073 Y94.753 E.00426
G1 X162.089 Y94.178 F9000
G1 F1200
G1 X161.958 Y94.162 E.00606
G1 X161.649 Y94.016 E.01553
G1 X161.448 Y93.805 E.01333
G1 X161.312 Y93.465 E.01667
G1 X161.3 Y93.321 E.00657
G1 X161.3 Y82.679 E.48516
G1 X161.346 Y82.4 E.01289
G1 X161.538 Y82.083 E.01688
G1 X161.707 Y81.944 E.00998
G1 X162.016 Y81.826 E.01507
G1 X162.166 Y81.813 E.00684
G1 X171.209 Y81.813 E.41222
G1 X171.451 Y81.848 E.01116
G1 X171.666 Y81.944 E.01073
G1 X171.954 Y82.239 E.01882
G1 X172.064 Y82.546 E.01486
G1 X172.074 Y82.956 E.01871
G1 X172.074 Y93.321 E.47249
G1 X172.035 Y93.58 E.01194
G1 X171.893 Y93.852 E.01397
G1 X171.605 Y94.091 E.01703
G1 X171.425 Y94.16 E.00881
G1 X171.209 Y94.187 E.00994
G1 X162.166 Y94.187 E.41222
G1 X162.149 Y94.185 E.00076
G1 X162.166 Y93.61 F9000
;TYPE:Outer wall
G1 F1200
G1 X161.994 Y93.553 E.00826
G1 X161.892 Y93.414 E.00787
G1 X161.877 Y93.321 E.00425
G1 X161.877 Y82.679 E.48516
G1 X161.917 Y82.533 E.0069
G1 X162.085 Y82.402 E.00971
G1 X162.166 Y82.39 E.00373
G1 X171.209 Y82.39 E.41222
G1 X171.361 Y82.434 E.00723
G1 X171.481 Y82.585 E.00882
G1 X171.497 Y82.956 E.01695
G1 X171.497 Y93.321 E.47249
G1 X171.437 Y93.498 E.00852
G1 X171.281 Y93.601 E.00851
G1 X162.226 Y93.61 E.41277
G1 E-.805 F3600
;WIPE_START
G1 F1200
G1 X161.994 Y93.553 E-.08242
G1 X161.892 Y93.414 E-.05953
G1 X161.877 Y93.321 E-.03218
G1 X161.877 Y92.826 E-.17087
;WIPE_END
G1 X154.361 Y94.746 F9000
G1 E1.15 F2400
;TYPE:Inner wall
G1 F1200
G1 X154.209 Y94.764 E.007
G1 X145.166 Y94.764 E.41222
G1 X144.819 Y94.722 E.01592
G1 X144.525 Y94.614 E.01425
G1 X144.15 Y94.347 E.021
G1 X143.878 Y93.972 E.02113
G1 X143.743 Y93.561 E.01971
G1 X143.723 Y93.321 E.01095
G1 X143.723 Y82.679 E.48516
G1 X143.8 Y82.214 E.02148
G1 X143.921 Y81.949 E.01329
G1 X144.119 Y81.685 E.01502
G1 X144.402 Y81.455 E.01664
G1 X144.916 Y81.258 E.02511
G1 X145.166 Y81.236 E.01141
G1 X154.209 Y81.236 E.41222
G1 X154.613 Y81.294 E.01864
G1 X154.972 Y81.455 E.01792
G1 X155.255 Y81.685 E.01664
G1 X155.453 Y81.949 E.01502
G1 X155.631 Y82.436 E.02367
G1 X155.651 Y82.679 E.01107
G1 X155.651 Y93.321 E.48516
G1 X155.576 Y93.782 E.02126
G1 X155.405 Y94.127 E.01756
G1 X155.069 Y94.48 E.02222
G1 X154.849 Y94.614 E.01176
G1 X154.555 Y94.722 E.01425
G1 X154.42 Y94.738 E.00619
G1 X154.285 Y94.178 F9000
G1 F1200
G1 X154.209 Y94.187 E.0035
G1 X145.166 Y94.187 E.41222
G1 X144.958 Y94.162 E.00955
G1 X144.649 Y94.016 E.01553
G1 X144.448 Y93.805 E.01333
G1 X144.312 Y93.465 E.01667
G1 X144.3 Y93.321 E.00657
G1 X144.3 Y82.679 E.48516
G1 X144.346 Y82.4 E.01289
G1 X144.538 Y82.083 E.01688
G1 X144.707 Y81.944 E.00998
G1 X145.016 Y81.826 E.01507
G1 X145.166 Y81.813 E.00684
G1 X154.209 Y81.813 E.41222
G1 X154.451 Y81.848 E.01119
G1 X154.667 Y81.944 E.01075
G1 X154.955 Y82.241 E.01885
G1 X155.062 Y82.533 E.0142
G1 X155.074 Y82.679 E.00664
G1 X155.074 Y93.321 E.48516
G1 X155.029 Y93.598 E.01276
G1 X154.882 Y93.865 E.01393
G1 X154.725 Y94.016 E.00994
G1 X154.417 Y94.162 E.01553
G1 X154.344 Y94.171 E.00332
G1 X154.209 Y93.61 F9000
;TYPE:Outer wall
G1 F1200
G1 X145.166 Y93.61 E.41222
G1 X144.994 Y93.553 E.00826
G1 X144.892 Y93.414 E.00787
G1 X144.877 Y93.321 E.00425
G1 X144.877 Y82.679 E.48516
G1 X144.917 Y82.533 E.0069
G1 X145.085 Y82.402 E.00971
G1 X145.166 Y82.39 E.00373
G1 X154.209 Y82.39 E.41222
G1 X154.361 Y82.434 E.00724
G1 X154.482 Y82.586 E.00883
G1 X154.497 Y82.679 E.0043
G1 X154.497 Y93.321 E.48516
G1 X154.433 Y93.503 E.00877
G1 X154.381 Y93.553 E.00331
G1 X154.265 Y93.591 E.00552
G1 E-.805 F3600
;WIPE_START
G1 F1200
G1 X153.265 Y93.593 E-.345
;WIPE_END
G1 X128.013 Y94.746 F9000
G1 E1.15 F2400
;TYPE:Inner wall
G1 F1200
G1 X127.819 Y94.722 E.00893
G1 X127.525 Y94.614 E.01425
G1 X127.15 Y94.347 E.021
G1 X126.878 Y93.972 E.02113
G1 X126.743 Y93.561 E.01971
G1 X126.723 Y93.321 E.01095
G1 X126.723 Y82.679 E.48516
G1 X126.8 Y82.214 E.02148
M73 P3 R84
G1 X126.921 Y81.949 E.01329
G1 X127.119 Y81.685 E.01502
G1 X127.402 Y81.455 E.01664
G1 X127.916 Y81.258 E.02511
G1 X128.166 Y81.236 E.01141
G1 X137.209 Y81.236 E.41222
G1 X137.613 Y81.294 E.01864
G1 X137.972 Y81.455 E.01792
G1 X138.255 Y81.685 E.01664
G1 X138.453 Y81.949 E.01502
G1 X138.631 Y82.436 E.02367
G1 X138.651 Y82.679 E.01107
G1 X138.651 Y93.321 E.48516
G1 X138.576 Y93.782 E.02126
G1 X138.405 Y94.127 E.01756
G1 X138.069 Y94.48 E.02222
G1 X137.849 Y94.614 E.01176
G1 X137.555 Y94.722 E.01425
G1 X137.209 Y94.764 E.01592
G1 X128.166 Y94.764 E.41222
G1 X128.073 Y94.753 E.00426
G1 X128.089 Y94.178 F9000
G1 F1200
G1 X127.958 Y94.162 E.00606
G1 X127.649 Y94.016 E.01553
G1 X127.448 Y93.805 E.01333
G1 X127.312 Y93.465 E.01667
G1 X127.3 Y93.321 E.00657
G1 X127.3 Y82.679 E.48516
G1 X127.346 Y82.4 E.01289
G1 X127.538 Y82.083 E.01688
G1 X127.707 Y81.944 E.00998
G1 X128.016 Y81.826 E.01507
G1 X128.166 Y81.813 E.00684
G1 X137.209 Y81.813 E.41222
G1 X137.451 Y81.848 E.01119
G1 X137.667 Y81.944 E.01075
G1 X137.955 Y82.241 E.01885
G1 X138.062 Y82.533 E.0142
G1 X138.074 Y82.679 E.00664
G1 X138.074 Y93.321 E.48516
G1 X138.029 Y93.598 E.01276
G1 X137.882 Y93.865 E.01393
G1 X137.593 Y94.097 E.0169
G1 X137.417 Y94.162 E.00855
G1 X137.209 Y94.187 E.00955
G1 X128.166 Y94.187 E.41222
G1 X128.149 Y94.185 E.00076
G1 X128.166 Y93.61 F9000
;TYPE:Outer wall
G1 F1200
G1 X127.994 Y93.553 E.00826
G1 X127.892 Y93.414 E.00787
G1 X127.877 Y93.321 E.00425
G1 X127.877 Y82.679 E.48516
G1 X127.917 Y82.533 E.0069
G1 X128.085 Y82.402 E.00971
G1 X128.166 Y82.39 E.00373
G1 X137.209 Y82.39 E.41222
G1 X137.361 Y82.434 E.00724
G1 X137.482 Y82.586 E.00883
G1 X137.497 Y82.679 E.0043
G1 X137.497 Y93.321 E.48516
G1 X137.433 Y93.503 E.00877
G1 X137.278 Y93.602 E.00838
G1 X128.226 Y93.61 E.41265
G1 E-.805 F3600
;WIPE_START
G1 F1200
G1 X127.994 Y93.553 E-.08242
G1 X127.892 Y93.414 E-.05953
G1 X127.877 Y93.321 E-.03218
G1 X127.877 Y92.826 E-.17087
;WIPE_END
G1 X110.996 Y94.738 F9000
G1 E1.15 F2400
;TYPE:Inner wall
G1 F1200
G1 X110.731 Y94.697 E.0122
G1 X110.395 Y94.541 E.01688
G1 X110.034 Y94.217 E.02211
G1 X109.824 Y93.852 E.01918
G1 X109.735 Y93.504 E.01639
G1 X109.723 Y93.321 E.00835
G1 X109.723 Y82.679 E.48516
G1 X109.801 Y82.211 E.02162
G1 X109.923 Y81.946 E.01328
G1 X110.121 Y81.684 E.015
G1 X110.403 Y81.454 E.01661
G1 X110.916 Y81.258 E.02503
G1 X111.166 Y81.236 E.01141
G1 X120.209 Y81.236 E.41222
G1 X120.613 Y81.294 E.01864
G1 X120.972 Y81.455 E.01792
G1 X121.255 Y81.685 E.01664
G1 X121.453 Y81.949 E.01502
G1 X121.631 Y82.436 E.02367
G1 X121.651 Y82.679 E.01107
G1 X121.651 Y93.321 E.48516
G1 X121.576 Y93.782 E.02126
G1 X121.405 Y94.127 E.01756
G1 X121.069 Y94.48 E.02222
G1 X120.849 Y94.614 E.01176
G1 X120.555 Y94.722 E.01425
G1 X120.209 Y94.764 E.01592
G1 X111.166 Y94.764 E.41222
G1 X111.055 Y94.747 E.0051
G1 X111.081 Y94.174 F9000
G1 F1200
G1 X110.905 Y94.147 E.00811
G1 X110.57 Y93.95 E.0177
G1 X110.377 Y93.678 E.0152
G1 X110.3 Y93.321 E.01664
G1 X110.3 Y82.679 E.48516
G1 X110.347 Y82.398 E.01297
G1 X110.539 Y82.082 E.01686
G1 X110.708 Y81.944 E.00996
G1 X111.016 Y81.826 E.01502
G1 X111.166 Y81.813 E.00684
G1 X120.209 Y81.813 E.41222
G1 X120.451 Y81.848 E.01119
G1 X120.667 Y81.944 E.01075
G1 X120.955 Y82.241 E.01885
G1 X121.062 Y82.533 E.0142
G1 X121.074 Y82.679 E.00664
G1 X121.074 Y93.321 E.48516
G1 X121.029 Y93.598 E.01276
G1 X120.882 Y93.865 E.01393
G1 X120.593 Y94.097 E.0169
G1 X120.417 Y94.162 E.00855
G1 X120.209 Y94.187 E.00955
G1 X111.166 Y94.187 E.41222
G1 X111.14 Y94.183 E.00118
G1 X111.166 Y93.61 F9000
;TYPE:Outer wall
G1 F1200
G1 X111.012 Y93.565 E.00731
G1 X110.897 Y93.428 E.00816
G1 X110.877 Y93.321 E.00493
G1 X110.877 Y82.679 E.48516
G1 X110.917 Y82.532 E.00692
G1 X111.085 Y82.402 E.00969
G1 X111.166 Y82.39 E.00372
G1 X120.209 Y82.39 E.41222
G1 X120.361 Y82.434 E.00724
G1 X120.482 Y82.586 E.00883
G1 X120.497 Y82.679 E.0043
G1 X120.497 Y93.321 E.48516
G1 X120.433 Y93.503 E.00877
G1 X120.278 Y93.602 E.00838
G1 X111.226 Y93.61 E.41265
G1 E-.805 F3600
;WIPE_START
G1 F1200
G1 X111.012 Y93.565 E-.07544
G1 X110.897 Y93.428 E-.06174
G1 X110.877 Y93.321 E-.0373
G1 X110.877 Y92.827 E-.17053
;WIPE_END
G1 X110.996 Y110.738 F9000
G1 E1.15 F2400
;TYPE:Inner wall
G1 F1200
G1 X110.731 Y110.697 E.0122
G1 X110.395 Y110.541 E.01688
G1 X110.034 Y110.217 E.02211
G1 X109.824 Y109.852 E.01918
G1 X109.735 Y109.504 E.01639
G1 X109.723 Y109.321 E.00835
G1 X109.723 Y98.679 E.48516
G1 X109.769 Y98.318 E.01659
G1 X109.947 Y97.907 E.02041
G1 X110.173 Y97.631 E.01626
G1 X110.395 Y97.459 E.01281
G1 X110.731 Y97.303 E.01688
G1 X111.166 Y97.236 E.02004
G1 X120.209 Y97.236 E.41222
G1 X120.555 Y97.278 E.01592
M73 P3 R83
G1 X120.849 Y97.386 E.01425
G1 X121.224 Y97.653 E.021
G1 X121.496 Y98.028 E.02113
G1 X121.631 Y98.439 E.01971
G1 X121.651 Y98.679 E.01095
G1 X121.651 Y109.321 E.48516
G1 X121.576 Y109.782 E.02126
G1 X121.405 Y110.127 E.01756
G1 X121.069 Y110.48 E.02222
G1 X120.849 Y110.614 E.01176
G1 X120.555 Y110.722 E.01425
G1 X120.209 Y110.764 E.01592
G1 X111.166 Y110.764 E.41222
G1 X111.055 Y110.747 E.0051
G1 X111.081 Y110.174 F9000
G1 F1200
G1 X110.905 Y110.147 E.00811
G1 X110.57 Y109.95 E.0177
G1 X110.377 Y109.678 E.0152
G1 X110.3 Y109.321 E.01664
G1 X110.3 Y98.679 E.48516
G1 X110.377 Y98.322 E.01664
G1 X110.57 Y98.05 E.0152
G1 X110.905 Y97.853 E.0177
G1 X111.166 Y97.813 E.01202
G1 X120.209 Y97.813 E.41222
G1 X120.593 Y97.903 E.01798
G1 X120.882 Y98.135 E.0169
G1 X121.029 Y98.402 E.01393
G1 X121.074 Y98.679 E.01276
G1 X121.074 Y109.321 E.48516
G1 X121.029 Y109.598 E.01276
G1 X120.882 Y109.865 E.01393
G1 X120.593 Y110.097 E.0169
G1 X120.417 Y110.162 E.00855
G1 X120.209 Y110.187 E.00955
G1 X111.166 Y110.187 E.41222
G1 X111.14 Y110.183 E.00118
