; generated by PrusaSlicer 2.6.0+win64 on 2023-09-07 at 10:08:22 UTC

; 

; external perimeters extrusion width = 0.60mm
; perimeters extrusion width = 0.60mm
; infill extrusion width = 0.65mm
; solid infill extrusion width = 0.60mm
; top infill extrusion width = 0.65mm
; support material extrusion width = 0.65mm
; first layer extrusion width = 0.60mm

M73 P0 R87
;TYPE:Custom
M104 S216 ; set extruder temp
M140 S60 ; set bed temp
M190 S60 ; wait for bed temp
M109 S216 ; wait for extruder temp

G28 ; home all
BED_MESH_PROFILE LOAD=default;

G1 Z2.0 F3000 ; Move Z Axis up little to prevent scratching of Heat Bed
G1 X0.1 Y5 Z0.28 F5000.0 ; Move to start position


G92 E0 ; Reset Extruder
G1 Z2.0 F3000 ; Move Z Axis up little to prevent scratching of Heat Bed
G1 X0.1 Y10 Z0.28 F5000.0 ; Move to start position

G1 X0.1 Y200 Z0.28 F1500.0 E15 ; Draw the first line
G1 X0.4 Y200 Z0.28 F5000.0 ; Move to side a little
G1 X0.4 Y10 Z0.28 F1500.0 E30 ; Draw the second line


G92 E0 ; Reset Extruder
G1 Z0.5 F3000 ; Move Z Axis up little to prevent scratching of Heat Bed
M117 Godmode is enabled
G21 ; set units to millimeters
G90 ; use absolute coordinates
M82 ; use absolute distances for extrusion
G92 E0
; Filament gcode
M107
;LAYER_CHANGE
;Z:0.3
;HEIGHT:0.3
G1 Z.3 F7800
G1 E-1.4 F2100
G92 E0
G1 Z.8 F7800
G1 X182.463 Y64.974
G1 Z.3
G1 E1.4 F2100
;TYPE:Skirt/Brim
;WIDTH:0.6
G1 F1800
G1 X182.606 Y64.629 E1.42495
G1 X182.811 Y64.323 E1.44956
G1 X183.471 Y63.679 E1.51116
G1 X183.69 Y63.544 E1.52835
G1 X184.036 Y63.401 E1.55336
G1 X184.286 Y63.341 E1.57054
G1 X199.714 Y63.341 E2.60121
G1 X199.964 Y63.401 E2.61839
G1 X200.31 Y63.544 E2.6434
G1 X200.529 Y63.679 E2.66059
G1 X201.189 Y64.323 E2.72219
G1 X201.394 Y64.629 E2.7468
G1 X201.536 Y64.972 E2.7716
G1 X201.608 Y65.333 E2.79619
G1 X201.596 Y184.777 E10.7757
G1 X201.537 Y185.026 E10.7928
G1 X201.394 Y185.371 E10.81775
G1 X201.189 Y185.677 E10.84236
G1 X200.529 Y186.321 E10.90396
G1 X200.31 Y186.456 E10.92115
G1 X199.964 Y186.599 E10.94616
G1 X199.714 Y186.659 E10.96334
G1 X184.286 Y186.659 E11.99401
G1 X184.036 Y186.599 E12.01119
G1 X183.69 Y186.456 E12.0362
G1 X183.471 Y186.321 E12.05339
G1 X182.811 Y185.677 E12.11499
G1 X182.606 Y185.371 E12.1396
G1 X182.464 Y185.028 E12.1644
G1 X182.392 Y184.667 E12.18899
G1 X182.404 Y65.223 E20.1685
G1 X182.442 Y65.061 E20.17962
G1 X182.963 Y65.178 F7800
G1 F1800
G1 X183.091 Y64.859 E20.20258
G1 X183.207 Y64.685 E20.21655
G1 X183.784 Y64.114 E20.27078
G1 X183.918 Y64.029 E20.28138
G1 X184.218 Y63.905 E20.30307
G1 X184.372 Y63.87 E20.31362
G1 X199.628 Y63.87 E21.3328
G1 X199.782 Y63.905 E21.34335
G1 X200.082 Y64.029 E21.36504
G1 X200.216 Y64.114 E21.37564
G1 X200.793 Y64.685 E21.42987
G1 X200.909 Y64.859 E21.44384
G1 X201.031 Y65.153 E21.4651
G1 X201.072 Y65.359 E21.47913
G1 X201.067 Y184.69 E29.45109
G1 X201.032 Y184.844 E29.46164
G1 X200.909 Y185.141 E29.48312
G1 X200.793 Y185.315 E29.49709
G1 X200.216 Y185.886 E29.55132
G1 X200.082 Y185.971 E29.56192
G1 X199.782 Y186.095 E29.58361
G1 X199.628 Y186.13 E29.59416
G1 X184.372 Y186.13 E30.61334
G1 X184.218 Y186.095 E30.62389
G1 X183.918 Y185.971 E30.64558
G1 X183.784 Y185.886 E30.65618
G1 X183.207 Y185.315 E30.71041
G1 X183.091 Y185.141 E30.72438
G1 X182.969 Y184.847 E30.74564
G1 X182.928 Y184.641 E30.75967
G1 X182.943 Y65.266 E38.73457
G1 X183.466 Y65.37 F7800
G1 F1800
G1 X183.605 Y65.044 E38.75825
G1 X184.107 Y64.542 E38.80568
G1 X184.448 Y64.401 E38.83033
G1 X199.552 Y64.401 E39.83936
G1 X199.893 Y64.542 E39.86401
G1 X200.395 Y65.044 E39.91144
G1 X200.537 Y65.385 E39.93612
G1 X200.537 Y184.615 E47.90133
G1 X200.395 Y184.956 E47.92601
G1 X199.893 Y185.458 E47.97344
G1 X199.552 Y185.599 E47.99809
G1 X184.448 Y185.599 E49.00712
G1 X184.107 Y185.458 E49.03177
G1 X183.605 Y184.956 E49.0792
G1 X183.463 Y184.615 E49.10388
G1 X183.463 Y65.46 E57.06408
G1 X183.999 Y65.465 F7800
G1 F1800
G1 X184.04 Y65.366 E57.07124
G1 X184.429 Y64.977 E57.10799
G1 X184.527 Y64.937 E57.11506
G1 X199.473 Y64.937 E58.11353
G1 X199.571 Y64.977 E58.1206
G1 X199.96 Y65.366 E58.15735
G1 X200.001 Y65.465 E58.16451
G1 X200.001 Y184.535 E66.11903
G1 X199.96 Y184.634 E66.12619
G1 X199.571 Y185.023 E66.16294
G1 X199.473 Y185.063 E66.17001
G1 X184.527 Y185.063 E67.16848
G1 X184.429 Y185.023 E67.17555
G1 X184.04 Y184.634 E67.2123
G1 X183.999 Y184.535 E67.21946
G1 X183.999 Y65.555 E75.16797
G1 X184.535 Y65.629 F7800
M73 P1 R86
G1 F1800
G1 X184.692 Y65.472 E75.1828
G1 X199.308 Y65.472 E76.15923
G1 X199.465 Y65.629 E76.17406
G1 X199.465 Y184.371 E84.10667
G1 X199.308 Y184.528 E84.1215
G1 X184.692 Y184.528 E85.09793
G1 X184.535 Y184.371 E85.11276
G1 X184.535 Y65.719 E93.03936
G1 E91.63936 F2100
G92 E0
G1 Z.8 F7800
G1 X180.608 Y65.719
G1 Z.3
G1 E1.4 F2100
G1 F1800
G1 X180.596 Y184.777 E9.35372
G1 X180.537 Y185.026 E9.37082
G1 X180.394 Y185.371 E9.39577
G1 X180.189 Y185.677 E9.42038
G1 X179.529 Y186.321 E9.48198
G1 X179.31 Y186.456 E9.49917
G1 X178.964 Y186.599 E9.52418
G1 X178.714 Y186.659 E9.54136
G1 X163.286 Y186.659 E10.57203
G1 X163.036 Y186.599 E10.58921
G1 X162.69 Y186.456 E10.61422
G1 X162.471 Y186.321 E10.63141
G1 X161.811 Y185.677 E10.69301
G1 X161.606 Y185.371 E10.71762
G1 X161.464 Y185.028 E10.74242
G1 X161.392 Y184.667 E10.76701
G1 X161.404 Y65.223 E18.74652
G1 X161.463 Y64.974 E18.76362
G1 X161.606 Y64.629 E18.78857
G1 X161.811 Y64.323 E18.81318
G1 X162.471 Y63.679 E18.87478
G1 X162.69 Y63.544 E18.89197
G1 X163.036 Y63.401 E18.91698
G1 X163.286 Y63.341 E18.93416
G1 X178.714 Y63.341 E19.96483
G1 X178.964 Y63.401 E19.98201
G1 X179.31 Y63.544 E20.00702
G1 X179.529 Y63.679 E20.02421
G1 X180.189 Y64.323 E20.08581
G1 X180.394 Y64.629 E20.11042
G1 X180.536 Y64.972 E20.13522
G1 X180.608 Y65.333 E20.15981
G1 X180.608 Y65.629 E20.17958
G1 X180.072 Y65.629 F7800
G1 F1800
G1 X180.067 Y184.69 E28.1335
G1 X180.032 Y184.844 E28.14405
G1 X179.909 Y185.141 E28.16553
G1 X179.793 Y185.315 E28.1795
G1 X179.216 Y185.886 E28.23373
G1 X179.082 Y185.971 E28.24433
G1 X178.782 Y186.095 E28.26602
G1 X178.628 Y186.13 E28.27657
G1 X163.372 Y186.13 E29.29575
G1 X163.218 Y186.095 E29.3063
G1 X162.918 Y185.971 E29.32799
G1 X162.784 Y185.886 E29.33859
G1 X162.207 Y185.315 E29.39282
G1 X162.091 Y185.141 E29.40679
G1 X161.969 Y184.847 E29.42805
G1 X161.928 Y184.641 E29.44208
G1 X161.933 Y65.31 E37.41404
G1 X161.968 Y65.156 E37.42459
G1 X162.091 Y64.859 E37.44607
G1 X162.207 Y64.685 E37.46004
G1 X162.784 Y64.114 E37.51427
G1 X162.918 Y64.029 E37.52487
G1 X163.218 Y63.905 E37.54656
G1 X163.372 Y63.87 E37.55711
G1 X178.628 Y63.87 E38.57629
G1 X178.782 Y63.905 E38.58684
G1 X179.082 Y64.029 E38.60853
G1 X179.216 Y64.114 E38.61913
G1 X179.793 Y64.685 E38.67336
G1 X179.909 Y64.859 E38.68733
G1 X180.031 Y65.153 E38.70859
G1 X180.072 Y65.359 E38.72262
G1 X180.072 Y65.539 E38.73464
G1 X179.537 Y65.539 F7800
G1 F1800
G1 X179.537 Y184.615 E46.68956
G1 X179.395 Y184.956 E46.71424
G1 X178.893 Y185.458 E46.76167
G1 X178.552 Y185.599 E46.78632
G1 X163.448 Y185.599 E47.79535
G1 X163.107 Y185.458 E47.82
G1 X162.605 Y184.956 E47.86743
G1 X162.463 Y184.615 E47.89211
G1 X162.463 Y65.385 E55.85732
G1 X162.605 Y65.044 E55.882
G1 X163.107 Y64.542 E55.92943
G1 X163.448 Y64.401 E55.95408
G1 X178.552 Y64.401 E56.96311
G1 X178.893 Y64.542 E56.98776
G1 X179.395 Y65.044 E57.03519
G1 X179.526 Y65.333 E57.05639
G1 X179.537 Y65.449 E57.06417
G1 X179.001 Y65.465 F7800
G1 F1800
G1 X179.001 Y184.535 E65.01869
G1 X178.96 Y184.634 E65.02585
G1 X178.571 Y185.023 E65.0626
G1 X178.473 Y185.063 E65.06967
G1 X163.527 Y185.063 E66.06814
G1 X163.429 Y185.023 E66.07521
G1 X163.04 Y184.634 E66.11196
G1 X162.999 Y184.535 E66.11912
G1 X162.999 Y65.465 E74.07364
G1 X163.04 Y65.366 E74.0808
G1 X163.429 Y64.977 E74.11755
G1 X163.527 Y64.937 E74.12462
G1 X178.473 Y64.937 E75.12309
G1 X178.571 Y64.977 E75.13016
G1 X178.966 Y65.382 E75.16795
G1 X178.465 Y65.629 F7800
G1 F1800
G1 X178.465 Y184.371 E83.10056
G1 X178.308 Y184.528 E83.11539
M73 P2 R86
G1 X163.692 Y184.528 E84.09182
G1 X163.535 Y184.371 E84.10665
G1 X163.535 Y65.629 E92.03926
G1 X163.692 Y65.472 E92.05409
G1 X178.308 Y65.472 E93.03052
G1 X178.402 Y65.565 E93.03935
G1 E91.63935 F2100
G92 E0
G1 Z.8 F7800
G1 X159.608 Y65.564
G1 Z.3
G1 E1.4 F2100
G1 F1800
G1 X159.596 Y184.777 E9.36407
G1 X159.537 Y185.026 E9.38117
M73 P2 R85
G1 X159.394 Y185.371 E9.40612
G1 X159.189 Y185.677 E9.43073
G1 X158.529 Y186.321 E9.49233
G1 X158.31 Y186.456 E9.50952
G1 X157.964 Y186.599 E9.53453
G1 X157.714 Y186.659 E9.55171
G1 X142.286 Y186.659 E10.58238
G1 X142.036 Y186.599 E10.59956
G1 X141.69 Y186.456 E10.62457
G1 X141.471 Y186.321 E10.64176
G1 X140.811 Y185.677 E10.70336
G1 X140.606 Y185.371 E10.72797
G1 X140.464 Y185.028 E10.75277
G1 X140.392 Y184.667 E10.77736
G1 X140.404 Y65.223 E18.75687
G1 X140.463 Y64.974 E18.77397
G1 X140.606 Y64.629 E18.79892
G1 X140.811 Y64.323 E18.82353
G1 X141.471 Y63.679 E18.88513
G1 X141.69 Y63.544 E18.90232
G1 X142.036 Y63.401 E18.92733
G1 X142.286 Y63.341 E18.94451
G1 X157.714 Y63.341 E19.97518
G1 X157.964 Y63.401 E19.99236
G1 X158.31 Y63.544 E20.01737
G1 X158.529 Y63.679 E20.03456
G1 X159.189 Y64.323 E20.09616
G1 X159.394 Y64.629 E20.12077
G1 X159.536 Y64.972 E20.14557
G1 X159.608 Y65.333 E20.17016
G1 X159.608 Y65.474 E20.17958
G1 X159.072 Y65.474 F7800
G1 F1800
G1 X159.067 Y184.69 E28.14385
G1 X159.032 Y184.844 E28.1544
G1 X158.909 Y185.141 E28.17588
G1 X158.793 Y185.315 E28.18985
G1 X158.216 Y185.886 E28.24408
G1 X158.082 Y185.971 E28.25468
G1 X157.782 Y186.095 E28.27637
G1 X157.628 Y186.13 E28.28692
G1 X142.372 Y186.13 E29.3061
G1 X142.218 Y186.095 E29.31665
G1 X141.918 Y185.971 E29.33834
G1 X141.784 Y185.886 E29.34894
G1 X141.207 Y185.315 E29.40317
G1 X141.091 Y185.141 E29.41714
G1 X140.969 Y184.847 E29.4384
G1 X140.928 Y184.641 E29.45243
G1 X140.933 Y65.31 E37.42439
G1 X140.968 Y65.156 E37.43494
G1 X141.091 Y64.859 E37.45642
G1 X141.207 Y64.685 E37.47039
G1 X141.784 Y64.114 E37.52462
G1 X141.918 Y64.029 E37.53522
G1 X142.218 Y63.905 E37.55691
G1 X142.372 Y63.87 E37.56746
G1 X157.628 Y63.87 E38.58664
G1 X157.782 Y63.905 E38.59719
G1 X158.082 Y64.029 E38.61888
G1 X158.216 Y64.114 E38.62948
G1 X158.793 Y64.685 E38.68371
G1 X158.909 Y64.859 E38.69768
G1 X159.031 Y65.153 E38.71894
G1 X159.072 Y65.384 E38.73461
G1 X158.537 Y65.385 F7800
G1 F1800
G1 X158.537 Y184.615 E46.69982
G1 X158.395 Y184.956 E46.7245
G1 X157.893 Y185.458 E46.77193
G1 X157.552 Y185.599 E46.79658
G1 X142.448 Y185.599 E47.80561
G1 X142.107 Y185.458 E47.83026
G1 X141.605 Y184.956 E47.87769
G1 X141.463 Y184.615 E47.90237
G1 X141.463 Y65.385 E55.86758
G1 X141.605 Y65.044 E55.89226
G1 X142.107 Y64.542 E55.93969
G1 X142.448 Y64.401 E55.96434
G1 X157.552 Y64.401 E56.97337
G1 X157.893 Y64.542 E56.99802
G1 X158.395 Y65.044 E57.04545
G1 X158.512 Y65.299 E57.06419
G1 X158.001 Y65.465 F7800
G1 F1800
G1 X158.001 Y184.535 E65.01871
G1 X157.96 Y184.634 E65.02587
G1 X157.571 Y185.023 E65.06262
G1 X157.473 Y185.063 E65.06969
G1 X142.527 Y185.063 E66.06816
G1 X142.429 Y185.023 E66.07523
G1 X142.04 Y184.634 E66.11198
G1 X141.999 Y184.535 E66.11914
G1 X141.999 Y65.465 E74.07366
G1 X142.04 Y65.366 E74.08082
G1 X142.429 Y64.977 E74.11757
G1 X142.527 Y64.937 E74.12464
G1 X157.473 Y64.937 E75.12311
G1 X157.571 Y64.977 E75.13018
G1 X157.966 Y65.382 E75.16797
G1 X157.465 Y65.629 F7800
G1 F1800
G1 X157.465 Y184.371 E83.10058
G1 X157.308 Y184.528 E83.11541
G1 X142.692 Y184.528 E84.09184
G1 X142.535 Y184.371 E84.10667
G1 X142.535 Y65.629 E92.03928
G1 X142.692 Y65.472 E92.05411
M73 P3 R85
G1 X157.308 Y65.472 E93.03054
G1 X157.402 Y65.565 E93.03937
G1 E91.63937 F2100
G92 E0
G1 Z.8 F7800
G1 X138.608 Y65.564
G1 Z.3
G1 E1.4 F2100
G1 F1800
G1 X138.596 Y184.777 E9.36407
G1 X138.537 Y185.026 E9.38117
G1 X138.394 Y185.371 E9.40612
G1 X138.189 Y185.677 E9.43073
G1 X137.529 Y186.321 E9.49233
G1 X137.31 Y186.456 E9.50952
G1 X136.964 Y186.599 E9.53453
G1 X136.714 Y186.659 E9.55171
G1 X121.286 Y186.659 E10.58238
G1 X121.036 Y186.599 E10.59956
G1 X120.69 Y186.456 E10.62457
G1 X120.471 Y186.321 E10.64176
G1 X119.811 Y185.677 E10.70336
G1 X119.606 Y185.371 E10.72797
G1 X119.464 Y185.028 E10.75277
G1 X119.392 Y184.667 E10.77736
G1 X119.404 Y65.223 E18.75687
G1 X119.463 Y64.974 E18.77397
G1 X119.606 Y64.629 E18.79892
G1 X119.811 Y64.323 E18.82353
G1 X120.471 Y63.679 E18.88513
G1 X120.69 Y63.544 E18.90232
G1 X121.036 Y63.401 E18.92733
G1 X121.286 Y63.341 E18.94451
G1 X136.714 Y63.341 E19.97518
G1 X136.964 Y63.401 E19.99236
G1 X137.31 Y63.544 E20.01737
G1 X137.529 Y63.679 E20.03456
G1 X138.189 Y64.323 E20.09616
G1 X138.394 Y64.629 E20.12077
G1 X138.536 Y64.972 E20.14557
G1 X138.608 Y65.333 E20.17016
G1 X138.608 Y65.474 E20.17958
G1 X138.072 Y65.474 F7800
G1 F1800
G1 X138.067 Y184.69 E28.14385
G1 X138.032 Y184.844 E28.1544
G1 X137.909 Y185.141 E28.17588
G1 X137.793 Y185.315 E28.18985
G1 X137.216 Y185.886 E28.24408
G1 X137.082 Y185.971 E28.25468
G1 X136.782 Y186.095 E28.27637
G1 X136.628 Y186.13 E28.28692
G1 X121.372 Y186.13 E29.3061
G1 X121.218 Y186.095 E29.31665
G1 X120.918 Y185.971 E29.33834
G1 X120.784 Y185.886 E29.34894
G1 X120.207 Y185.315 E29.40317
G1 X120.091 Y185.141 E29.41714
G1 X119.969 Y184.847 E29.4384
G1 X119.928 Y184.641 E29.45243
G1 X119.933 Y65.31 E37.42439
G1 X119.968 Y65.156 E37.43494
M73 P3 R84
G1 X120.091 Y64.859 E37.45642
G1 X120.207 Y64.685 E37.47039
G1 X120.784 Y64.114 E37.52462
G1 X120.918 Y64.029 E37.53522
G1 X121.218 Y63.905 E37.55691
G1 X121.372 Y63.87 E37.56746
G1 X136.628 Y63.87 E38.58664
G1 X136.782 Y63.905 E38.59719
G1 X137.082 Y64.029 E38.61888
G1 X137.216 Y64.114 E38.62948
G1 X137.793 Y64.685 E38.68371
G1 X137.909 Y64.859 E38.69768
G1 X138.031 Y65.153 E38.71894
G1 X138.072 Y65.384 E38.73461
G1 X137.537 Y65.385 F7800
G1 F1800
G1 X137.537 Y184.615 E46.69982
G1 X137.395 Y184.956 E46.7245
G1 X136.893 Y185.458 E46.77193
G1 X136.552 Y185.599 E46.79658
G1 X121.448 Y185.599 E47.80561
G1 X121.107 Y185.458 E47.83026
G1 X120.605 Y184.956 E47.87769
G1 X120.463 Y184.615 E47.90237
G1 X120.463 Y65.385 E55.86758
G1 X120.605 Y65.044 E55.89226
G1 X121.107 Y64.542 E55.93969
G1 X121.448 Y64.401 E55.96434
G1 X136.552 Y64.401 E56.97337
G1 X136.893 Y64.542 E56.99802
G1 X137.395 Y65.044 E57.04545
G1 X137.512 Y65.299 E57.06419
G1 X137.001 Y65.465 F7800
G1 F1800
G1 X137.001 Y184.535 E65.01871
G1 X136.96 Y184.634 E65.02587
G1 X136.571 Y185.023 E65.06262
G1 X136.473 Y185.063 E65.06969
G1 X121.527 Y185.063 E66.06816
G1 X121.429 Y185.023 E66.07523
G1 X121.04 Y184.634 E66.11198
G1 X120.999 Y184.535 E66.11914
G1 X120.999 Y65.465 E74.07366
G1 X121.04 Y65.366 E74.08082
G1 X121.429 Y64.977 E74.11757
G1 X121.527 Y64.937 E74.12464
G1 X136.473 Y64.937 E75.12311
G1 X136.571 Y64.977 E75.13018
G1 X136.966 Y65.382 E75.16797
G1 X136.465 Y65.629 F7800
G1 F1800
G1 X136.465 Y184.371 E83.10058
G1 X136.308 Y184.528 E83.11541
G1 X121.692 Y184.528 E84.09184
G1 X121.535 Y184.371 E84.10667
G1 X121.535 Y65.629 E92.03928
G1 X121.692 Y65.472 E92.05411
G1 X136.308 Y65.472 E93.03054
G1 X136.402 Y65.565 E93.03937
G1 E91.63937 F2100
G92 E0
G1 Z.8 F7800
G1 X117.608 Y65.564
G1 Z.3
G1 E1.4 F2100
G1 F1800
G1 X117.596 Y184.777 E9.36407
G1 X117.537 Y185.026 E9.38117
G1 X117.394 Y185.371 E9.40612
G1 X117.189 Y185.677 E9.43073
G1 X116.529 Y186.321 E9.49233
G1 X116.31 Y186.456 E9.50952
G1 X115.964 Y186.599 E9.53453
G1 X115.714 Y186.659 E9.55171
G1 X100.286 Y186.659 E10.58238
G1 X100.036 Y186.599 E10.59956
M73 P4 R84
G1 X99.69 Y186.456 E10.62457
G1 X99.471 Y186.321 E10.64176
G1 X98.811 Y185.677 E10.70336
G1 X98.606 Y185.371 E10.72797
G1 X98.464 Y185.028 E10.75277
G1 X98.392 Y184.667 E10.77736
G1 X98.404 Y65.223 E18.75687
G1 X98.463 Y64.974 E18.77397
G1 X98.606 Y64.629 E18.79892
G1 X98.811 Y64.323 E18.82353
G1 X99.471 Y63.679 E18.88513
G1 X99.69 Y63.544 E18.90232
G1 X100.036 Y63.401 E18.92733
G1 X100.286 Y63.341 E18.94451
G1 X115.714 Y63.341 E19.97518
G1 X115.964 Y63.401 E19.99236
G1 X116.31 Y63.544 E20.01737
G1 X116.529 Y63.679 E20.03456
G1 X117.189 Y64.323 E20.09616
G1 X117.394 Y64.629 E20.12077
G1 X117.536 Y64.972 E20.14557
G1 X117.608 Y65.333 E20.17016
G1 X117.608 Y65.474 E20.17958
G1 X117.072 Y65.474 F7800
G1 F1800
