; generated by PrusaSlicer 2.6.1+win64 on 2023-10-23 at 08:43:38 UTC


;
;

;
;
; 

; external perimeters extrusion width = 0.60mm
; perimeters extrusion width = 0.60mm
; infill extrusion width = 0.65mm
; solid infill extrusion width = 0.60mm
; top infill extrusion width = 0.65mm
; support material extrusion width = 0.65mm
; first layer extrusion width = 0.60mm

M73 P0 R34
;TYPE:Custom
M104 S216 ; set extruder temp
M140 S60 ; set bed temp
M190 S60 ; wait for bed temp
M109 S216 ; wait for extruder temp

G28 ; home all
BED_MESH_PROFILE LOAD=default;

G1 Z2.0 F3000 ; Move Z Axis up little to prevent scratching of Heat Bed
G1 X0.1 Y5 Z0.28 F5000.0 ; Move to start position


G92 E0 ; Reset Extruder
G1 Z2.0 F3000 ; Move Z Axis up little to prevent scratching of Heat Bed
G1 X0.1 Y10 Z0.28 F5000.0 ; Move to start position

G1 X0.1 Y200 Z0.28 F1500.0 E15 ; Draw the first line
G1 X0.4 Y200 Z0.28 F5000.0 ; Move to side a little
M73 P0 R33
G1 X0.4 Y10 Z0.28 F1500.0 E30 ; Draw the second line


G92 E0 ; Reset Extruder
G1 Z0.5 F3000 ; Move Z Axis up little to prevent scratching of Heat Bed
M117 Godmode is enabled
G21 ; set units to millimeters
G90 ; use absolute coordinates
M82 ; use absolute distances for extrusion
G92 E0
; Filament gcode
M107
;LAYER_CHANGE
;Z:0.2
;HEIGHT:0.2
G1 Z.2 F7800
G1 E-1.4 F2400
G92 E0
G1 Z.7 F7800
G1 X114.151 Y94.582
G1 Z.2
G1 E1.4 F2400
;TYPE:Skirt/Brim
;WIDTH:0.6
G1 F1800
G1 X115.495 Y93.065 E1.49388
G1 X116.321 Y92.195 E1.54945
G1 X117.641 Y90.891 E1.6354
G1 X119.168 Y89.505 E1.73092
G1 X120.761 Y88.181 E1.82687
G1 X122.393 Y86.942 E1.92178
G1 X124.256 Y85.663 E2.02646
G1 X125.768 Y84.743 E2.10844
G1 X127.415 Y83.831 E2.19565
G1 X129.14 Y82.966 E2.28504
G1 X131.045 Y82.111 E2.38176
G1 X132.845 Y81.395 E2.47149
G1 X134.677 Y80.754 E2.5614
G1 X136.548 Y80.186 E2.65197
G1 X138.889 Y79.593 E2.76383
G1 X140.841 Y79.196 E2.8561
G1 X142.734 Y78.894 E2.9449
G1 X144.893 Y78.649 E3.04555
G1 X146.47 Y78.528 E3.11881
G1 X148.056 Y78.467 E3.19233
G1 X149.983 Y78.462 E3.28159
G1 X151.647 Y78.52 E3.35872
G1 X153.556 Y78.662 E3.44739
M73 P1 R33
G1 X154.573 Y78.772 E3.49477
G1 X156.117 Y78.98 E3.56694
G1 X157.99 Y79.304 E3.65499
G1 X159.308 Y79.582 E3.71738
G1 X161.229 Y80.051 E3.80898
G1 X163.182 Y80.622 E3.90323
G1 X165.112 Y81.28 E3.99768
G1 X167.012 Y82.023 E4.09218
G1 X168.937 Y82.878 E4.18975
G1 X170.532 Y83.663 E4.2721
G1 X172.136 Y84.534 E4.35665
G1 X173.79 Y85.521 E4.44587
G1 X175.645 Y86.744 E4.54879
G1 X177.195 Y87.87 E4.63753
G1 X178.707 Y89.069 E4.72692
G1 X180.083 Y90.256 E4.8111
G1 X181.491 Y91.574 E4.90044
G1 X182.758 Y92.863 E4.98416
G1 X184.049 Y94.288 E5.07323
G1 X185.208 Y95.676 E5.15699
G1 X185.998 Y96.69 E5.21653
G1 X186.555 Y97.442 E5.25988
G1 X187.272 Y98.461 E5.3176
G1 X188.589 Y100.502 E5.43012
G1 X189.511 Y102.091 E5.51522
G1 X190.143 Y103.261 E5.57682
G1 X190.658 Y104.293 E5.63025
G1 X191.247 Y105.553 E5.69468
G1 X191.95 Y107.206 E5.77789
G1 X192.617 Y108.967 E5.86512
G1 X193.254 Y110.897 E5.95926
G1 X193.803 Y112.845 E6.05301
G1 X194.261 Y114.802 E6.14611
G1 X194.641 Y116.804 E6.2405
G1 X194.932 Y118.724 E6.33045
G1 X195.143 Y120.664 E6.42084
G1 X195.271 Y122.581 E6.50984
G1 X195.319 Y124.448 E6.59635
G1 X195.291 Y126.316 E6.68289
G1 X195.183 Y128.234 E6.77188
G1 X194.996 Y130.141 E6.86064
G1 X194.724 Y132.066 E6.95069
G1 X194.367 Y133.993 E7.04147
G1 X193.925 Y135.916 E7.13287
G1 X193.39 Y137.854 E7.226
G1 X192.767 Y139.776 E7.31959
G1 X192.066 Y141.653 E7.4124
G1 X191.276 Y143.514 E7.50605
G1 X190.408 Y145.332 E7.59937
G1 X189.459 Y147.112 E7.69281
G1 X188.433 Y148.849 E7.78626
G1 X187.332 Y150.537 E7.87961
G1 X186.159 Y152.173 E7.97286
G1 X184.919 Y153.751 E8.06582
G1 X183.616 Y155.268 E8.15845
G1 X182.254 Y156.72 E8.25067
G1 X180.839 Y158.104 E8.34235
G1 X179.392 Y159.401 E8.43236
G1 X177.893 Y160.634 E8.52227
G1 X176.346 Y161.8 E8.612
G1 X174.737 Y162.91 E8.70255
G1 X173.157 Y163.903 E8.78899
G1 X171.538 Y164.832 E8.87545
G1 X169.845 Y165.713 E8.96385
G1 X168.067 Y166.545 E9.05478
G1 X166.25 Y167.302 E9.14596
G1 X164.409 Y167.979 E9.23682
G1 X162.527 Y168.581 E9.32835
G1 X160.613 Y169.105 E9.42027
G1 X158.906 Y169.499 E9.50142
G1 X157.366 Y169.802 E9.57412
G1 X155.322 Y170.13 E9.67001
G1 X153.264 Y170.365 E9.76596
G1 X151.315 Y170.501 E9.85646
G1 X149.44 Y170.552 E9.94334
G1 X147.55 Y170.525 E10.0309
G1 X145.599 Y170.415 E10.12142
G1 X143.439 Y170.195 E10.22199
G1 X141.257 Y169.862 E10.32423
G1 X139.845 Y169.594 E10.3908
G1 X138.431 Y169.274 E10.45795
G1 X136.258 Y168.691 E10.56217
G1 X135.441 Y168.445 E10.60169
G1 X133.755 Y167.877 E10.6841
G1 X132.037 Y167.221 E10.76928
G1 X130.327 Y166.487 E10.85548
G1 X128.993 Y165.854 E10.92388
G1 X127.083 Y164.856 E11.0237
G1 X125.768 Y164.099 E11.09398
G1 X124.028 Y163.005 E11.18919
G1 X123.182 Y162.431 E11.23655
G1 X121.771 Y161.421 E11.31693
G1 X120.067 Y160.088 E11.41714
G1 X118.54 Y158.775 E11.51043
G1 X117.066 Y157.392 E11.60406
G1 X115.654 Y155.944 E11.69774
G1 X114.121 Y154.218 E11.80467
G1 X112.782 Y152.56 E11.90339
G1 X111.591 Y150.942 E11.99645
G1 X110.522 Y149.353 E12.08516
G1 X110.021 Y148.541 E12.12936
G1 X109.469 Y147.635 E12.1785
G1 X108.554 Y145.99 E12.26569
G1 X107.681 Y144.256 E12.35562
G1 X106.656 Y141.951 E12.47247
G1 X105.962 Y140.166 E12.56118
G1 X105.343 Y138.353 E12.64992
G1 X104.799 Y136.516 E12.73867
G1 X104.34 Y134.696 E12.82561
G1 X103.966 Y132.917 E12.90982
G1 X103.725 Y131.524 E12.9753
G1 X103.413 Y129.167 E13.08543
G1 X103.22 Y126.793 E13.19576
G1 X103.151 Y124.466 E13.3036
G1 X103.183 Y122.486 E13.39533
G1 X103.302 Y120.453 E13.48966
G1 X103.508 Y118.442 E13.5833
G1 X103.801 Y116.426 E13.67766
G1 X104.205 Y114.352 E13.77554
G1 X104.682 Y112.477 E13.86516
G1 X105.241 Y110.608 E13.95552
G1 X105.926 Y108.629 E14.05253
G1 X106.653 Y106.792 E14.14404
G1 X107.485 Y104.926 E14.23868
G1 X108.404 Y103.085 E14.33399
G1 X109.41 Y101.274 E14.42995
G1 X110.488 Y99.519 E14.52536
G1 X111.642 Y97.813 E14.62077
G1 X112.862 Y96.169 E14.7156
G1 X114.094 Y94.651 E14.80616
G1 X114.526 Y95.002 F7800
G1 F1800
G1 X115.902 Y93.445 E14.90241
G1 X116.716 Y92.588 E14.95716
G1 X118.02 Y91.3 E15.04206
G1 X119.528 Y89.929 E15.13647
G1 X121.102 Y88.621 E15.23127
G1 X122.714 Y87.397 E15.32503
G1 X124.552 Y86.135 E15.42831
G1 X126.043 Y85.227 E15.50917
G1 X127.68 Y84.321 E15.59584
G1 X129.385 Y83.466 E15.68419
G1 X131.267 Y82.622 E15.77973
G1 X133.046 Y81.915 E15.8684
G1 X134.856 Y81.282 E15.95722
G1 X136.691 Y80.725 E16.04605
G1 X139.019 Y80.135 E16.1573
G1 X140.934 Y79.745 E16.24783
G1 X142.803 Y79.446 E16.33551
G1 X144.94 Y79.204 E16.43513
G1 X146.508 Y79.084 E16.50797
G1 X148.073 Y79.024 E16.58052
G1 X149.969 Y79.019 E16.66835
G1 X151.611 Y79.076 E16.74446
G1 X153.501 Y79.217 E16.83225
G1 X154.502 Y79.324 E16.87888
G1 X156.037 Y79.532 E16.95063
G1 X157.879 Y79.85 E17.03722
G1 X159.18 Y80.125 E17.09882
G1 X161.091 Y80.59 E17.18992
G1 X163.019 Y81.155 E17.28298
G1 X164.926 Y81.806 E17.37632
G1 X166.792 Y82.534 E17.4691
G1 X168.696 Y83.38 E17.56561
G1 X170.271 Y84.155 E17.64692
G1 X171.865 Y85.021 E17.73095
G1 X173.489 Y85.99 E17.81855
G1 X175.333 Y87.206 E17.92087
G1 X176.853 Y88.31 E18.00789
G1 X178.348 Y89.495 E18.09626
G1 X179.715 Y90.674 E18.17988
G1 X181.097 Y91.969 E18.26761
G1 X182.357 Y93.249 E18.35081
G1 X183.625 Y94.649 E18.4383
G1 X184.777 Y96.029 E18.52157
G1 X185.556 Y97.029 E18.58029
G1 X186.101 Y97.765 E18.62271
G1 X186.813 Y98.776 E18.67999
G1 X188.117 Y100.799 E18.79148
G1 X189.023 Y102.359 E18.87504
G1 X189.65 Y103.522 E18.93624
G1 X190.155 Y104.532 E18.98855
G1 X190.736 Y105.775 E19.05211
G1 X191.435 Y107.418 E19.13482
G1 X192.094 Y109.158 E19.22101
G1 X192.723 Y111.066 E19.31407
G1 X193.265 Y112.99 E19.40666
G1 X193.718 Y114.923 E19.49863
G1 X194.091 Y116.892 E19.59146
G1 X194.379 Y118.79 E19.68038
G1 X194.587 Y120.707 E19.7697
G1 X194.714 Y122.601 E19.85763
G1 X194.762 Y124.445 E19.94308
G1 X194.734 Y126.302 E20.02911
G1 X194.628 Y128.185 E20.11647
G1 X194.442 Y130.08 E20.20467
G1 X194.173 Y131.982 E20.29365
G1 X193.821 Y133.886 E20.38334
G1 X193.384 Y135.786 E20.47365
G1 X192.855 Y137.7 E20.56563
G1 X192.243 Y139.586 E20.65748
G1 X191.551 Y141.441 E20.74919
G1 X190.771 Y143.28 E20.84172
G1 X189.913 Y145.075 E20.93388
G1 X188.977 Y146.834 E21.02618
G1 X187.963 Y148.549 E21.11847
G1 X186.875 Y150.218 E21.21076
G1 X185.717 Y151.833 E21.30281
G1 X184.493 Y153.393 E21.39466
G1 X183.206 Y154.891 E21.48614
G1 X181.86 Y156.326 E21.57728
G1 X180.462 Y157.693 E21.66785
G1 X179.033 Y158.974 E21.75675
G1 X177.553 Y160.193 E21.84557
G1 X176.025 Y161.345 E21.93421
G1 X174.435 Y162.441 E22.02366
G1 X172.866 Y163.429 E22.10955
G1 X171.266 Y164.346 E22.19497
G1 X169.593 Y165.216 E22.28232
G1 X167.836 Y166.037 E22.37215
G1 X166.052 Y166.781 E22.46169
G1 X164.233 Y167.45 E22.55147
G1 X162.375 Y168.045 E22.64184
G1 X160.482 Y168.564 E22.73276
G1 X158.785 Y168.955 E22.81343
G1 X157.273 Y169.253 E22.88482
G1 X155.24 Y169.579 E22.98019
G1 X153.219 Y169.81 E23.07442
G1 X151.293 Y169.944 E23.16385
G1 X149.43 Y169.995 E23.25018
G1 X147.564 Y169.968 E23.33662
G1 X145.649 Y169.86 E23.42547
G1 X143.516 Y169.643 E23.52478
G1 X141.356 Y169.314 E23.62599
G1 X139.954 Y169.048 E23.69209
G1 X138.559 Y168.732 E23.75835
G1 X136.414 Y168.157 E23.86122
G1 X135.615 Y167.916 E23.89988
G1 X133.938 Y167.351 E23.98185
G1 X132.242 Y166.703 E24.06595
G1 X130.561 Y165.982 E24.15068
G1 X129.235 Y165.352 E24.21868
G1 X127.356 Y164.371 E24.31687
G1 X126.05 Y163.619 E24.38668
G1 X124.337 Y162.542 E24.48041
G1 X123.504 Y161.976 E24.52706
G1 X122.1 Y160.971 E24.60704
G1 X120.415 Y159.653 E24.70613
G1 X118.908 Y158.357 E24.7982
G1 X117.452 Y156.99 E24.89071
G1 X116.066 Y155.569 E24.98266
G1 X114.542 Y153.853 E25.08897
G1 X113.227 Y152.225 E25.18591
G1 X112.05 Y150.626 E25.27788
G1 X110.987 Y149.047 E25.36605
G1 X110.495 Y148.249 E25.40948
G1 X109.953 Y147.359 E25.45775
G1 X109.044 Y145.725 E25.54436
G1 X108.182 Y144.012 E25.63319
G1 X107.168 Y141.731 E25.74882
G1 X106.484 Y139.969 E25.83637
G1 X105.872 Y138.179 E25.924
G1 X105.338 Y136.374 E26.01119
G1 X104.884 Y134.576 E26.09709
G1 X104.513 Y132.807 E26.18082
G1 X104.275 Y131.435 E26.24532
G1 X103.967 Y129.115 E26.35373
G1 X103.776 Y126.756 E26.46336
G1 X103.708 Y124.456 E26.56995
G1 X103.74 Y122.501 E26.66052
G1 X103.857 Y120.503 E26.75323
G1 X104.06 Y118.516 E26.84575
G1 X104.349 Y116.526 E26.9389
G1 X104.747 Y114.482 E27.03536
G1 X105.217 Y112.631 E27.12382
G1 X105.773 Y110.772 E27.2137
G1 X106.446 Y108.829 E27.30895
G1 X107.169 Y107.002 E27.39996
G1 X107.991 Y105.159 E27.49344
G1 X108.9 Y103.34 E27.58763
G1 X109.888 Y101.56 E27.68193
G1 X110.953 Y99.826 E27.77619
G1 X112.093 Y98.14 E27.87047
G1 X113.298 Y96.516 E27.96414
G1 X114.47 Y95.072 E28.05029
G1 X114.902 Y95.423 F7800
G1 F1800
G1 X116.31 Y93.825 E28.14895
G1 X117.111 Y92.981 E28.20285
G1 X118.399 Y91.708 E28.28673
G1 X119.889 Y90.354 E28.37999
G1 X121.444 Y89.061 E28.47367
G1 X123.035 Y87.853 E28.5662
G1 X124.848 Y86.607 E28.6681
G1 X126.318 Y85.712 E28.74782
G1 X127.945 Y84.811 E28.83397
G1 X129.629 Y83.967 E28.92122
G1 X131.49 Y83.133 E29.01568
G1 X133.246 Y82.435 E29.10321
G1 X135.023 Y81.813 E29.19042
G1 X136.834 Y81.263 E29.27809
G1 X139.149 Y80.677 E29.38871
G1 X141.028 Y80.295 E29.47753
G1 X142.872 Y79.999 E29.56404
G1 X144.988 Y79.759 E29.66268
G1 X146.535 Y79.641 E29.73455
G1 X148.089 Y79.58 E29.80659
G1 X149.955 Y79.576 E29.89303
G1 X151.576 Y79.632 E29.96816
G1 X153.446 Y79.771 E30.05502
G1 X154.431 Y79.877 E30.10091
G1 X155.957 Y80.083 E30.17224
G1 X157.769 Y80.396 E30.25742
G1 X159.052 Y80.667 E30.31816
G1 X160.953 Y81.13 E30.40879
G1 X162.857 Y81.688 E30.5007
G1 X164.729 Y82.327 E30.59233
G1 X166.571 Y83.046 E30.68392
G1 X168.455 Y83.882 E30.7794
G1 X170.01 Y84.648 E30.85969
G1 X171.595 Y85.508 E30.94322
G1 X173.187 Y86.458 E31.0291
G1 X175.021 Y87.667 E31.13085
G1 X176.521 Y88.758 E31.21677
G1 X177.988 Y89.921 E31.30349
G1 X179.347 Y91.093 E31.38662
G1 X180.704 Y92.363 E31.47271
G1 X181.956 Y93.636 E31.55542
G1 X183.201 Y95.01 E31.64131
G1 X184.346 Y96.382 E31.72409
M73 P2 R33
G1 X185.648 Y98.088 E31.8235
G1 X186.354 Y99.092 E31.88035
G1 X187.639 Y101.084 E31.99015
G1 X188.535 Y102.627 E32.0728
G1 X189.158 Y103.783 E32.13363
G1 X189.652 Y104.771 E32.1848
G1 X190.225 Y105.998 E32.24753
G1 X190.921 Y107.631 E32.32976
G1 X191.571 Y109.35 E32.41489
G1 X192.192 Y111.234 E32.50678
G1 X192.727 Y113.135 E32.59826
G1 X193.174 Y115.045 E32.68912
G1 X193.541 Y116.981 E32.7804
G1 X193.825 Y118.856 E32.86824
G1 X194.032 Y120.75 E32.9565
G1 X194.157 Y122.621 E33.04336
G1 X194.205 Y124.454 E33.1283
G1 X194.177 Y126.288 E33.21326
G1 X194.072 Y128.148 E33.29955
G1 X193.888 Y130.02 E33.38668
G1 X193.622 Y131.898 E33.47454
G1 X193.274 Y133.779 E33.56315
G1 X192.842 Y135.655 E33.65232
G1 X192.32 Y137.545 E33.74315
G1 X191.715 Y139.409 E33.83393
G1 X191.031 Y141.24 E33.92447
G1 X190.265 Y143.045 E34.0153
G1 X189.419 Y144.819 E34.10634
G1 X188.494 Y146.556 E34.1975
G1 X187.493 Y148.25 E34.28864
G1 X186.419 Y149.898 E34.37976
G1 X185.275 Y151.494 E34.47072
G1 X184.066 Y153.035 E34.56145
G1 X182.795 Y154.515 E34.65182
G1 X181.467 Y155.932 E34.74178
G1 X180.086 Y157.282 E34.83124
G1 X178.675 Y158.548 E34.91905
G1 X177.213 Y159.752 E35.00678
G1 X175.704 Y160.89 E35.09433
G1 X174.133 Y161.973 E35.18272
G1 X172.584 Y162.948 E35.2675
G1 X170.994 Y163.86 E35.35241
G1 X169.341 Y164.719 E35.4387
G1 X167.617 Y165.525 E35.52685
G1 X165.854 Y166.26 E35.61533
G1 X164.058 Y166.921 E35.70398
G1 X162.222 Y167.51 E35.7933
G1 X160.352 Y168.022 E35.88311
G1 X158.664 Y168.411 E35.96335
G1 X157.18 Y168.704 E36.03342
G1 X155.158 Y169.028 E36.12828
G1 X153.175 Y169.255 E36.22074
G1 X151.272 Y169.387 E36.3091
G1 X149.432 Y169.438 E36.39436
G1 X147.578 Y169.411 E36.48025
G1 X145.699 Y169.305 E36.56743
G1 X143.593 Y169.092 E36.66548
G1 X141.455 Y168.765 E36.76567
G1 X140.062 Y168.501 E36.83134
G1 X138.688 Y168.19 E36.8966
G1 X136.571 Y167.622 E36.99813
G1 X135.788 Y167.387 E37.036
G1 X134.122 Y166.825 E37.11744
G1 X132.446 Y166.185 E37.20054
G1 X130.796 Y165.476 E37.28373
G1 X129.478 Y164.851 E37.3513
G1 X127.63 Y163.886 E37.44787
G1 X126.333 Y163.139 E37.5172
G1 X124.646 Y162.078 E37.60951
G1 X123.825 Y161.521 E37.65547
G1 X122.429 Y160.522 E37.73499
G1 X120.763 Y159.218 E37.83299
G1 X119.276 Y157.938 E37.92387
G1 X117.838 Y156.588 E38.01523
G1 X116.478 Y155.194 E38.10544
G1 X114.962 Y153.488 E38.21116
G1 X113.672 Y151.89 E38.30629
G1 X112.508 Y150.31 E38.39719
G1 X111.452 Y148.74 E38.48483
G1 X110.97 Y147.957 E38.52742
G1 X110.437 Y147.084 E38.5748
G1 X109.533 Y145.459 E38.66094
G1 X108.682 Y143.768 E38.74863
G1 X107.68 Y141.511 E38.86302
G1 X107.005 Y139.773 E38.94939
G1 X106.405 Y138.015 E39.03544
G1 X105.876 Y136.232 E39.12159
G1 X105.428 Y134.456 E39.20643
G1 X105.059 Y132.697 E39.28968
G1 X104.825 Y131.345 E39.35324
G1 X104.521 Y129.049 E39.46052
G1 X104.332 Y126.718 E39.56885
G1 X104.265 Y124.446 E39.67414
G1 X104.297 Y122.516 E39.76355
G1 X104.412 Y120.554 E39.85459
G1 X104.612 Y118.59 E39.94604
G1 X104.897 Y116.626 E40.03797
G1 X105.289 Y114.611 E40.13306
G1 X105.753 Y112.785 E40.22033
G1 X106.305 Y110.937 E40.30967
G1 X106.966 Y109.028 E40.40325
G1 X107.684 Y107.213 E40.49366
G1 X108.497 Y105.392 E40.58604
G1 X109.395 Y103.594 E40.67914
G1 X110.372 Y101.836 E40.7723
G1 X111.418 Y100.133 E40.86488
G1 X112.544 Y98.467 E40.95802
G1 X113.735 Y96.862 E41.0506
G1 X114.845 Y95.493 E41.13224
G1 X115.278 Y95.844 F7800
G1 F1800
G1 X116.717 Y94.205 E41.23327
G1 X117.506 Y93.374 E41.28635
G1 X118.778 Y92.116 E41.36922
G1 X120.25 Y90.778 E41.46136
G1 X121.786 Y89.501 E41.55389
G1 X123.356 Y88.308 E41.64523
G1 X125.145 Y87.078 E41.7458
G1 X126.593 Y86.197 E41.82431
G1 X128.21 Y85.301 E41.90994
G1 X129.873 Y84.468 E41.9961
G1 X131.712 Y83.644 E42.08945
G1 X133.446 Y82.955 E42.17588
G1 X135.202 Y82.341 E42.26205
G1 X136.977 Y81.802 E42.34798
G1 X139.28 Y81.218 E42.45803
G1 X141.122 Y80.844 E42.54509
G1 X142.941 Y80.552 E42.63043
G1 X145.036 Y80.314 E42.7281
G1 X146.572 Y80.197 E42.79946
G1 X148.106 Y80.137 E42.87057
G1 X149.941 Y80.133 E42.95557
G1 X151.54 Y80.188 E43.02968
