; generated by PrusaSlicer 2.6.1+win64 on 2023-10-22 at 18:14:54 UTC


;
;

;
;
; 

; external perimeters extrusion width = 0.60mm
; perimeters extrusion width = 0.60mm
; infill extrusion width = 0.65mm
; solid infill extrusion width = 0.60mm
; top infill extrusion width = 0.65mm
; first layer extrusion width = 0.60mm

M73 P0 R35
;TYPE:Custom
M104 S216 ; set extruder temp
M140 S60 ; set bed temp
M190 S60 ; wait for bed temp
M109 S216 ; wait for extruder temp

G28 ; home all
BED_MESH_PROFILE LOAD=default;

G1 Z2.0 F3000 ; Move Z Axis up little to prevent scratching of Heat Bed
G1 X0.1 Y5 Z0.28 F5000.0 ; Move to start position


G92 E0 ; Reset Extruder
G1 Z2.0 F3000 ; Move Z Axis up little to prevent scratching of Heat Bed
G1 X0.1 Y10 Z0.28 F5000.0 ; Move to start position

G1 X0.1 Y200 Z0.28 F1500.0 E15 ; Draw the first line
G1 X0.4 Y200 Z0.28 F5000.0 ; Move to side a little
G1 X0.4 Y10 Z0.28 F1500.0 E30 ; Draw the second line


G92 E0 ; Reset Extruder
G1 Z0.5 F3000 ; Move Z Axis up little to prevent scratching of Heat Bed
M117 Godmode is enabled
G21 ; set units to millimeters
G90 ; use absolute coordinates
M82 ; use absolute distances for extrusion
G92 E0
; Filament gcode
M107
;LAYER_CHANGE
;Z:0.3
;HEIGHT:0.3
G1 Z.3 F7800
G1 E-1.4 F2400
G92 E0
G1 Z.8 F7800
G1 X128.75 Y107.162
G1 Z.3
G1 E1.4 F2400
;TYPE:Skirt/Brim
;WIDTH:0.6
G1 F1800
G1 X129.557 Y106.243 E1.48171
G1 X130.403 Y105.361 E1.56336
G1 X131.278 Y104.525 E1.64421
G1 X132.162 Y103.751 E1.7227
G1 X133.087 Y103.007 E1.802
G1 X134.062 Y102.291 E1.88281
G1 X135.068 Y101.617 E1.96371
G1 X136.123 Y100.976 E2.04618
G1 X137.195 Y100.388 E2.12786
G1 X138.281 Y99.853 E2.20874
G1 X139.411 Y99.356 E2.29121
G1 X140.539 Y98.919 E2.37202
G1 X141.319 Y98.655 E2.42703
G1 X142.771 Y98.214 E2.52841
G1 X143.965 Y97.92 E2.61056
G1 X145.153 Y97.683 E2.69149
G1 X146.373 Y97.494 E2.77396
G1 X147.612 Y97.359 E2.85722
G1 X148.819 Y97.281 E2.93802
G1 X149.97 Y97.256 E3.01493
G1 X150.511 Y97.266 E3.05108
G1 X151.24 Y97.284 E3.0998
G1 X152.389 Y97.359 E3.17672
G1 X153.591 Y97.489 E3.25749
G1 X154.788 Y97.672 E3.33839
G1 X155.976 Y97.907 E3.41929
G1 X157.163 Y98.197 E3.50092
G1 X158.337 Y98.538 E3.58259
G1 X159.506 Y98.935 E3.66507
G1 X160.645 Y99.379 E3.74674
G1 X161.752 Y99.868 E3.82759
G1 X162.837 Y100.404 E3.90844
G1 X163.867 Y100.97 E3.98695
G1 X164.882 Y101.585 E4.06623
G1 X165.889 Y102.256 E4.14707
G1 X166.875 Y102.978 E4.22871
G1 X167.829 Y103.743 E4.3104
G1 X168.748 Y104.549 E4.39206
G1 X169.639 Y105.403 E4.47451
G1 X170.475 Y106.278 E4.55536
G1 X171.249 Y107.162 E4.63385
G1 X171.993 Y108.087 E4.71315
G1 X172.709 Y109.062 E4.79396
G1 X173.383 Y110.068 E4.87486
G1 X174.018 Y111.112 E4.95649
G1 X174.607 Y112.184 E5.0382
G1 X175.147 Y113.281 E5.11988
G1 X175.644 Y114.411 E5.20235
G1 X176.081 Y115.539 E5.28316
G1 X176.469 Y116.685 E5.36399
G1 X176.797 Y117.814 E5.44253
G1 X177.08 Y118.966 E5.52178
G1 X177.317 Y120.153 E5.60264
G1 X177.504 Y121.361 E5.6843
G1 X177.639 Y122.588 E5.76676
G1 X177.718 Y123.796 E5.84763
G1 X177.744 Y125.03 E5.93009
G1 X177.716 Y126.24 E6.01095
G1 X177.636 Y127.448 E6.09183
G1 X177.506 Y128.627 E6.17107
G1 X177.328 Y129.788 E6.24954
G1 X177.093 Y130.976 E6.33044
G1 X176.803 Y132.163 E6.41207
M73 P1 R35
G1 X176.462 Y133.337 E6.49374
G1 X176.069 Y134.495 E6.57543
G1 X175.621 Y135.645 E6.65788
G1 X175.132 Y136.752 E6.73873
G1 X174.596 Y137.837 E6.81958
G1 X174.03 Y138.867 E6.89809
G1 X173.415 Y139.882 E6.97737
G1 X172.744 Y140.889 E7.05821
G1 X172.022 Y141.875 E7.13985
G1 X171.249 Y142.838 E7.22235
G1 X170.443 Y143.757 E7.30401
G1 X169.597 Y144.639 E7.38566
G1 X168.722 Y145.475 E7.46651
G1 X167.838 Y146.25 E7.54505
G1 X166.913 Y146.993 E7.62431
G1 X165.938 Y147.709 E7.70512
G1 X164.932 Y148.383 E7.78602
G1 X163.888 Y149.018 E7.86765
G1 X162.816 Y149.607 E7.94936
G1 X161.72 Y150.147 E8.03098
G1 X160.59 Y150.644 E8.11345
G1 X159.494 Y151.069 E8.19198
G1 X158.371 Y151.451 E8.27122
G1 X157.21 Y151.791 E8.35204
G1 X156.034 Y152.08 E8.43294
G1 X154.847 Y152.317 E8.5138
G1 X153.628 Y152.506 E8.59621
G1 X152.412 Y152.639 E8.67793
G1 X151.204 Y152.718 E8.7588
G1 X149.97 Y152.744 E8.84126
G1 X148.76 Y152.716 E8.92212
G1 X147.552 Y152.636 E9.003
G1 X146.373 Y152.506 E9.08224
G1 X145.212 Y152.328 E9.16071
G1 X144.024 Y152.093 E9.24161
G1 X142.837 Y151.803 E9.32324
G1 X141.652 Y151.458 E9.40569
G1 X140.505 Y151.069 E9.4866
G1 X139.355 Y150.621 E9.56905
G1 X138.248 Y150.132 E9.6499
G1 X137.163 Y149.596 E9.73075
G1 X136.123 Y149.024 E9.81004
G1 X135.118 Y148.415 E9.88854
G1 X134.111 Y147.744 E9.96938
G1 X133.125 Y147.022 E10.05102
G1 X132.171 Y146.257 E10.13271
G1 X131.252 Y145.451 E10.21437
G1 X130.361 Y144.597 E10.29682
G1 X129.525 Y143.722 E10.37767
G1 X128.75 Y142.838 E10.45621
G1 X128.007 Y141.913 E10.53547
G1 X127.291 Y140.938 E10.61628
G1 X126.617 Y139.932 E10.69718
G1 X125.982 Y138.888 E10.77881
G1 X125.393 Y137.816 E10.86052
G1 X124.853 Y136.72 E10.94214
G1 X124.356 Y135.589 E11.02467
G1 X123.919 Y134.461 E11.10548
G1 X123.542 Y133.348 E11.18398
G1 X123.209 Y132.21 E11.26319
G1 X122.92 Y131.034 E11.34409
G1 X122.683 Y129.847 E11.42495
G1 X122.496 Y128.639 E11.50661
G1 X122.362 Y127.424 E11.58827
G1 X122.282 Y126.192 E11.67075
G1 X122.256 Y124.97 E11.7524
G1 X122.284 Y123.76 E11.83326
G1 X122.364 Y122.552 E11.91414
G1 X122.493 Y121.385 E11.99258
G1 X122.672 Y120.212 E12.07185
G1 X122.907 Y119.024 E12.15275
G1 X123.197 Y117.837 E12.23438
G1 X123.542 Y116.652 E12.31683
G1 X123.935 Y115.494 E12.39852
G1 X124.379 Y114.355 E12.48019
G1 X124.868 Y113.248 E12.56104
G1 X125.404 Y112.163 E12.64189
G1 X125.976 Y111.123 E12.72118
G1 X126.585 Y110.118 E12.79968
G1 X127.256 Y109.111 E12.88052
G1 X127.978 Y108.125 E12.96216
G1 X128.694 Y107.232 E13.03863
G1 X129.112 Y107.567 F7800
G1 F1800
G1 X129.948 Y106.609 E13.12357
G1 X130.778 Y105.744 E13.20366
G1 X131.636 Y104.924 E13.28295
G1 X132.511 Y104.157 E13.36068
G1 X133.418 Y103.429 E13.43838
G1 X134.374 Y102.726 E13.51765
G1 X135.361 Y102.065 E13.59701
G1 X136.386 Y101.443 E13.67711
G1 X137.437 Y100.866 E13.75721
G1 X138.501 Y100.341 E13.83647
G1 X139.61 Y99.854 E13.91739
G1 X140.717 Y99.424 E13.99673
G1 X141.478 Y99.166 E14.05041
G1 X142.92 Y98.729 E14.15107
G1 X144.088 Y98.442 E14.23142
G1 X145.252 Y98.209 E14.31072
G1 X146.449 Y98.024 E14.39164
G1 X147.652 Y97.893 E14.47248
G1 X148.837 Y97.816 E14.55181
G1 X149.976 Y97.792 E14.62792
G1 X150.5 Y97.802 E14.66293
G1 X151.21 Y97.818 E14.71037
G1 X152.348 Y97.893 E14.78656
G1 X153.528 Y98.021 E14.86585
G1 X154.701 Y98.201 E14.94513
G1 X155.866 Y98.431 E15.02446
G1 X157.03 Y98.716 E15.10452
G1 X158.182 Y99.051 E15.18467
G1 X159.317 Y99.436 E15.26474
G1 X160.434 Y99.872 E15.34484
G1 X161.52 Y100.351 E15.42413
G1 X162.584 Y100.877 E15.50342
G1 X163.604 Y101.437 E15.58116
G1 X164.599 Y102.04 E15.65889
G1 X165.587 Y102.699 E15.73823
G1 X166.554 Y103.407 E15.81829
G1 X167.489 Y104.157 E15.89837
G1 X168.391 Y104.948 E15.97852
G1 X169.256 Y105.778 E16.05861
G1 X170.076 Y106.636 E16.1379
G1 X170.843 Y107.511 E16.21563
G1 X171.571 Y108.418 E16.29333
G1 X172.274 Y109.374 E16.3726
G1 X172.935 Y110.361 E16.45196
G1 X173.557 Y111.385 E16.532
G1 X174.134 Y112.437 E16.61216
G1 X174.664 Y113.512 E16.69223
G1 X175.146 Y114.61 E16.77234
G1 X175.576 Y115.717 E16.85168
G1 X175.956 Y116.841 E16.93094
G1 X176.281 Y117.958 E17.00866
G1 X176.558 Y119.088 E17.08639
G1 X176.791 Y120.252 E17.16569
G1 X176.974 Y121.437 E17.24579
G1 X177.105 Y122.629 E17.3259
G1 X177.183 Y123.813 E17.40517
G1 X177.208 Y125.024 E17.48609
G1 X177.182 Y126.211 E17.56541
G1 X177.103 Y127.395 E17.64468
G1 X176.976 Y128.551 E17.72237
G1 X176.799 Y129.701 E17.8001
G1 X176.569 Y130.866 E17.87943
G1 X176.284 Y132.03 E17.95949
G1 X175.949 Y133.182 E18.03964
G1 X175.563 Y134.317 E18.11973
G1 X175.128 Y135.434 E18.19981
G1 X174.649 Y136.52 E18.2791
G1 X174.123 Y137.584 E18.35839
G1 X173.563 Y138.604 E18.43613
G1 X172.96 Y139.599 E18.51386
G1 X172.302 Y140.587 E18.59316
G1 X171.593 Y141.554 E18.67326
G1 X170.835 Y142.498 E18.75414
G1 X170.052 Y143.39 E18.83343
G1 X169.222 Y144.256 E18.91356
G1 X168.364 Y145.076 E18.99285
G1 X167.489 Y145.843 E19.07058
G1 X166.582 Y146.572 E19.14832
G1 X165.626 Y147.274 E19.22756
G1 X164.639 Y147.935 E19.30692
G1 X163.615 Y148.557 E19.38696
G1 X162.564 Y149.134 E19.46706
G1 X161.488 Y149.664 E19.54719
G1 X160.39 Y150.146 E19.6273
G1 X159.306 Y150.568 E19.70501
G1 X158.204 Y150.942 E19.78275
G1 X157.065 Y151.275 E19.86203
G1 X155.912 Y151.558 E19.94134
G1 X154.748 Y151.791 E20.02064
G1 X153.563 Y151.974 E20.10074
G1 X152.371 Y152.105 E20.18085
G1 X151.187 Y152.183 E20.26012
G1 X149.976 Y152.208 E20.34104
G1 X148.789 Y152.182 E20.42036
G1 X147.605 Y152.103 E20.49963
G1 X146.449 Y151.976 E20.57732
G1 X145.299 Y151.799 E20.65505
G1 X144.134 Y151.569 E20.73438
G1 X142.97 Y151.284 E20.81444
G1 X141.818 Y150.949 E20.89459
G1 X140.694 Y150.568 E20.97388
G1 X139.566 Y150.128 E21.05477
G1 X138.48 Y149.649 E21.13406
G1 X137.416 Y149.123 E21.21335
G1 X136.396 Y148.563 E21.29109
G1 X135.401 Y147.96 E21.36882
G1 X134.413 Y147.302 E21.44812
G1 X133.446 Y146.593 E21.52822
G1 X132.511 Y145.843 E21.6083
G1 X131.609 Y145.052 E21.68845
G1 X130.744 Y144.222 E21.76854
G1 X129.924 Y143.364 E21.84783
G1 X129.157 Y142.489 E21.92556
G1 X128.429 Y141.582 E22.00326
G1 X127.726 Y140.626 E22.08253
G1 X127.065 Y139.639 E22.16189
G1 X126.443 Y138.615 E22.24193
G1 X125.866 Y137.564 E22.32203
G1 X125.336 Y136.488 E22.40216
G1 X124.854 Y135.39 E22.48227
G1 X124.424 Y134.284 E22.56154
G1 X124.051 Y133.182 E22.63926
G1 X123.725 Y132.065 E22.71699
G1 X123.442 Y130.912 E22.7963
G1 X123.209 Y129.748 E22.8756
G1 X123.026 Y128.563 E22.9557
G1 X122.895 Y127.372 E23.03575
G1 X122.817 Y126.175 E23.11589
G1 X122.792 Y124.976 E23.19601
G1 X122.818 Y123.789 E23.27533
G1 X122.897 Y122.605 E23.3546
G1 X123.024 Y121.449 E23.43229
G1 X123.201 Y120.299 E23.51002
G1 X123.431 Y119.134 E23.58935
G1 X123.716 Y117.97 E23.66941
G1 X124.051 Y116.818 E23.74956
G1 X124.436 Y115.683 E23.82963
G1 X124.872 Y114.566 E23.90973
G1 X125.351 Y113.48 E23.98902
G1 X125.877 Y112.416 E24.06831
G1 X126.437 Y111.396 E24.14605
G1 X127.04 Y110.401 E24.22378
G1 X127.698 Y109.413 E24.30308
G1 X128.4 Y108.455 E24.38242
G1 X129.055 Y107.637 E24.45243
G1 X129.473 Y107.973 F7800
G1 F1800
G1 X130.339 Y106.976 E24.54065
G1 X131.152 Y106.127 E24.61918
G1 X131.993 Y105.323 E24.69691
G1 X132.851 Y104.571 E24.77313
G1 X133.749 Y103.85 E24.85006
G1 X134.687 Y103.161 E24.92781
G1 X135.654 Y102.514 E25.00554
G1 X136.659 Y101.904 E25.08408
G1 X137.689 Y101.338 E25.16259
G1 X138.733 Y100.824 E25.24033
G1 X139.809 Y100.351 E25.31885
G1 X140.894 Y99.93 E25.3966
G1 X141.638 Y99.678 E25.44908
G1 X143.068 Y99.244 E25.54891
G1 X144.21 Y98.963 E25.62748
G1 X145.351 Y98.735 E25.70521
G1 X146.513 Y98.556 E25.78375
G1 X147.693 Y98.427 E25.86305
G1 X148.854 Y98.352 E25.94077
G1 X149.982 Y98.327 E26.01615
G1 X150.488 Y98.337 E26.04996
G1 X151.181 Y98.353 E26.09627
G1 X152.307 Y98.427 E26.17166
G1 X153.464 Y98.553 E26.24941
G1 X154.614 Y98.729 E26.32713
G1 X155.756 Y98.956 E26.40491
G1 X156.898 Y99.234 E26.48343
G1 X158.026 Y99.563 E26.56193
G1 X159.128 Y99.938 E26.6397
G1 X160.224 Y100.364 E26.71826
G1 X161.288 Y100.834 E26.79597
G1 X162.332 Y101.349 E26.87374
G1 X163.341 Y101.903 E26.95064
G1 X164.316 Y102.495 E27.02684
G1 X165.284 Y103.141 E27.10459
G1 X166.233 Y103.835 E27.18313
G1 X167.141 Y104.564 E27.26092
G1 X168.024 Y105.339 E27.33941
G1 X168.873 Y106.152 E27.41794
G1 X169.677 Y106.993 E27.49567
G1 X170.429 Y107.85 E27.57184
G1 X171.15 Y108.749 E27.64883
G1 X171.839 Y109.687 E27.72658
G1 X172.486 Y110.654 E27.80431
G1 X173.096 Y111.658 E27.88279
G1 X173.662 Y112.689 E27.96136
G1 X174.176 Y113.733 E28.0391
G1 X174.649 Y114.809 E28.11762
G1 X175.07 Y115.894 E28.19537
G1 X175.444 Y116.996 E28.27311
G1 X175.762 Y118.091 E28.34928
G1 X176.037 Y119.21 E28.42626
G1 X176.265 Y120.351 E28.50399
G1 X176.444 Y121.513 E28.58253
G1 X176.572 Y122.681 E28.66103
G1 X176.648 Y123.843 E28.73882
G1 X176.673 Y125.018 E28.81733
G1 X176.647 Y126.181 E28.89504
G1 X176.57 Y127.342 E28.97277
G1 X176.445 Y128.476 E29.04899
G1 X176.271 Y129.614 E29.1259
G1 X176.044 Y130.756 E29.20368
G1 X175.769 Y131.886 E29.28137
G1 X175.44 Y133.015 E29.35993
G1 X175.062 Y134.128 E29.43846
G1 X174.636 Y135.224 E29.51702
G1 X174.166 Y136.288 E29.59473
G1 X173.651 Y137.332 E29.6725
G1 X173.102 Y138.331 E29.74865
G1 X172.505 Y139.316 E29.8256
G1 X171.859 Y140.284 E29.90335
G1 X171.172 Y141.223 E29.98108
G1 X170.429 Y142.149 E30.06039
G1 X169.661 Y143.024 E30.13817
G1 X168.848 Y143.873 E30.2167
G1 X168.007 Y144.677 E30.29443
G1 X167.14 Y145.436 E30.37141
G1 X166.251 Y146.15 E30.44758
G1 X165.313 Y146.839 E30.52533
G1 X164.346 Y147.486 E30.60306
G1 X163.342 Y148.096 E30.68154
G1 X162.311 Y148.662 E30.76011
G1 X161.267 Y149.176 E30.83785
G1 X160.191 Y149.649 E30.91637
G1 X159.117 Y150.066 E30.99334
G1 X158.037 Y150.433 E31.06954
G1 X156.921 Y150.759 E31.14721
G1 X155.79 Y151.037 E31.22502
G1 X154.649 Y151.265 E31.30275
G1 X153.487 Y151.444 E31.38129
G1 X152.319 Y151.572 E31.45979
G1 X151.157 Y151.648 E31.53758
G1 X149.982 Y151.673 E31.61609
G1 X148.819 Y151.647 E31.6938
G1 X147.658 Y151.57 E31.77153
G1 X146.524 Y151.445 E31.84775
G1 X145.386 Y151.271 E31.92466
G1 X144.244 Y151.044 E32.00244
G1 X143.102 Y150.766 E32.08096
G1 X141.974 Y150.437 E32.15946
G1 X140.872 Y150.062 E32.23723
G1 X139.776 Y149.636 E32.31579
G1 X138.712 Y149.166 E32.3935
G1 X137.668 Y148.651 E32.47127
G1 X136.659 Y148.097 E32.54817
G1 X135.684 Y147.505 E32.62437
G1 X134.716 Y146.859 E32.70212
G1 X133.767 Y146.165 E32.78066
G1 X132.851 Y145.429 E32.85916
G1 X131.976 Y144.661 E32.93694
G1 X131.127 Y143.848 E33.01547
G1 X130.323 Y143.007 E33.0932
G1 X129.564 Y142.141 E33.17013
G1 X128.85 Y141.251 E33.24636
G1 X128.161 Y140.313 E33.32411
G1 X127.514 Y139.346 E33.40184
G1 X126.904 Y138.342 E33.48032
G1 X126.338 Y137.311 E33.55889
G1 X125.824 Y136.267 E33.63663
G1 X125.351 Y135.191 E33.71515
G1 X124.93 Y134.106 E33.7929
G1 X124.563 Y133.026 E33.8691
G1 X124.241 Y131.921 E33.94599
G1 X123.963 Y130.79 E34.0238
G1 X123.735 Y129.649 E34.10153
G1 X123.556 Y128.487 E34.18007
G1 X123.428 Y127.319 E34.25857
G1 X123.352 Y126.158 E34.3363
G1 X123.327 Y124.982 E34.41488
G1 X123.353 Y123.819 E34.49259
G1 X123.43 Y122.658 E34.57032
G1 X123.555 Y121.524 E34.64654
G1 X123.729 Y120.386 E34.72345
G1 X123.956 Y119.244 E34.80123
G1 X124.234 Y118.102 E34.87975
G1 X124.563 Y116.974 E34.95825
G1 X124.938 Y115.872 E35.03602
G1 X125.364 Y114.776 E35.11458
G1 X125.834 Y113.712 E35.19229
G1 X126.349 Y112.668 E35.27006
G1 X126.903 Y111.659 E35.34696
G1 X127.495 Y110.684 E35.42316
G1 X128.141 Y109.716 E35.50091
G1 X128.828 Y108.777 E35.57864
G1 X129.417 Y108.043 E35.64151
G1 X129.835 Y108.378 F7800
G1 F1800
G1 X130.73 Y107.342 E35.73297
G1 X131.526 Y106.51 E35.80989
G1 X132.351 Y105.722 E35.88611
G1 X133.199 Y104.978 E35.96147
G1 X134.079 Y104.271 E36.03688
G1 X134.999 Y103.596 E36.11311
G1 X135.947 Y102.962 E36.1893
G1 X136.931 Y102.364 E36.26622
G1 X137.931 Y101.816 E36.3424
G1 X138.954 Y101.312 E36.41859
G1 X140.009 Y100.848 E36.49559
G1 X141.072 Y100.435 E36.57178
G1 X141.797 Y100.189 E36.62293
G1 X143.217 Y99.758 E36.72207
G1 X144.331 Y99.485 E36.79869
G1 X145.45 Y99.262 E36.87492
G1 X146.588 Y99.086 E36.95185
G1 X147.734 Y98.961 E37.02886
G1 X148.872 Y98.887 E37.10505
G1 X149.988 Y98.863 E37.17962
G1 X150.477 Y98.873 E37.21229
G1 X151.152 Y98.888 E37.25739
G1 X152.266 Y98.961 E37.33197
G1 X153.4 Y99.085 E37.40818
G1 X154.527 Y99.258 E37.48435
G1 X155.646 Y99.48 E37.56056
G1 X156.754 Y99.75 E37.63675
G1 X157.86 Y100.072 E37.7137
G1 X158.939 Y100.439 E37.78984
G1 X160.013 Y100.857 E37.86683
G1 X161.057 Y101.317 E37.94304
G1 X162.079 Y101.821 E38.01917
G1 X163.069 Y102.364 E38.0946
G1 X164.034 Y102.95 E38.17002
G1 X164.982 Y103.583 E38.24617
G1 X165.911 Y104.264 E38.32312
G1 X166.801 Y104.978 E38.39935
G1 X167.667 Y105.738 E38.47632
G1 X168.49 Y106.526 E38.55244
G1 X169.278 Y107.351 E38.62866
G1 X170.015 Y108.19 E38.70326
G1 X170.729 Y109.079 E38.77943
G1 X171.404 Y109.999 E38.85566
