; HEADER_BLOCK_START
; generated by OrcaSlicer 1.7.0 on 2023-10-22 at 14:50:22
; total layer number: 54
; HEADER_BLOCK_END

; THUMBNAIL_BLOCK_START
; THUMBNAIL_BLOCK_END

; external perimeters extrusion width = 0.60mm
; perimeters extrusion width = 0.60mm
; infill extrusion width = 0.60mm
; solid infill extrusion width = 0.60mm
; top infill extrusion width = 0.60mm
; first layer extrusion width = 0.62mm

; external perimeters extrusion width = 0.60mm
; perimeters extrusion width = 0.60mm
; infill extrusion width = 0.60mm
; solid infill extrusion width = 0.60mm
; top infill extrusion width = 0.60mm
; first layer extrusion width = 0.62mm

; EXECUTABLE_BLOCK_START
M73 P0 R52
;TYPE:Custom
M104 S216 ; set extruder temp
M140 S60 ; set bed temp
M190 S60 ; wait for bed temp
M109 S216 ; wait for extruder temp

G28 ; home all
BED_MESH_PROFILE LOAD=default;

G1 Z2.0 F3000 ; Move Z Axis up little to prevent scratching of Heat Bed
G1 X0.1 Y5 Z0.28 F5000.0 ; Move to start position


G92 E0 ; Reset Extruder
G1 Z2.0 F3000 ; Move Z Axis up little to prevent scratching of Heat Bed
G1 X0.1 Y10 Z0.28 F5000.0 ; Move to start position

G1 X0.1 Y200 Z0.28 F1500.0 E15 ; Draw the first line
G1 X0.4 Y200 Z0.28 F5000.0 ; Move to side a little
G1 X0.4 Y10 Z0.28 F1500.0 E30 ; Draw the second line


G92 E0 ; Reset Extruder
G1 Z0.5 F3000 ; Move Z Axis up little to prevent scratching of Heat Bed
M117 Godmode is enabled
G90
G21
M83 ; use relative distances for extrusion
; filament start gcode
M106 S0
;LAYER_CHANGE
;Z:0.26
;HEIGHT:0.26
;BEFORE_LAYER_CHANGE
;0.26
G92 E0

M73 P0 R51
G1 E-1.15 F3600
;_SET_FAN_SPEED_CHANGING_LAYER
G1 X106.699 Y84.802 F9000
G1 Z.26
G1 E1.15 F2400
;TYPE:Skirt
;WIDTH:0.62
G1 F1200
G1 X107.974 Y83.199 E.12489
G1 X109.701 Y81.48 E.14862
G1 X112.078 Y79.598 E.18492
G1 X114.658 Y78.038 E.1839
G1 X117.53 Y76.768 E.1915
G1 X120.423 Y75.908 E.18404
G1 X121.662 Y75.657 E.07711
G1 X123.665 Y75.392 E.12323
G1 X126.051 Y75.295 E.14566
G1 X128.141 Y75.441 E.12775
G1 X130.425 Y75.856 E.14161
G1 X132.459 Y76.422 E.12877
G1 X135.18 Y77.496 E.17835
G1 X137.116 Y78.508 E.13326
G1 X138.798 Y79.583 E.12176
G1 X141.036 Y81.366 E.17452
G1 X142.502 Y82.812 E.12556
G1 X143.895 Y84.458 E.13152
G1 X172.846 Y121.941 E2.88846
G1 X174.074 Y123.695 E.13061
G1 X174.771 Y124.843 E.08193
G1 X175.761 Y126.744 E.1307
G1 X176.301 Y127.972 E.08183
G1 X177.088 Y130.158 E.14167
G1 X177.873 Y133.367 E.20146
G1 X178.2 Y135.848 E.15265
G1 X178.293 Y138.169 E.14167
G1 X178.184 Y140.489 E.14167
G1 X177.682 Y143.754 E.20146
G1 X177.034 Y146.172 E.15265
G1 X176.232 Y148.352 E.14167
G1 X174.771 Y151.315 E.20146
G1 X173.53 Y153.278 E.14167
G1 X172.012 Y155.256 E.15203
G1 X170.431 Y156.971 E.14228
G1 X168.713 Y158.535 E.14167
G1 X166.05 Y160.487 E.20137
G1 X164.041 Y161.656 E.14177
G1 X161.773 Y162.714 E.15264
G1 X159.759 Y163.447 E.1307
G1 X158.471 Y163.822 E.08183
G1 X156.379 Y164.286 E.1307
G1 X154.078 Y164.597 E.14158
G1 X152.738 Y164.685 E.08193
G1 X150.595 Y164.685 E.1307
G1 X149.256 Y164.597 E.08183
G1 X146.954 Y164.286 E.14167
G1 X144.861 Y163.822 E.1307
G1 X143.573 Y163.447 E.08183
G1 X141.393 Y162.645 E.14167
G1 X139.451 Y161.739 E.1307
G1 X138.274 Y161.094 E.08184
G1 X136.467 Y159.943 E.13069
G1 X134.626 Y158.54 E.14115
G1 X133.61 Y157.65 E.08236
G1 X132.095 Y156.135 E.1307
G1 X131.21 Y155.126 E.08184
G1 X129.808 Y153.286 E.14106
G1 X128.651 Y151.471 E.13131
G1 X105.115 Y110.513 E2.881
G1 X104.254 Y108.893 E.11187
G1 X103.629 Y107.484 E.09401
G1 X102.669 Y104.579 E.1866
G1 X102.096 Y101.575 E.18647
G1 X101.917 Y98.617 E.18075
G1 X102.093 Y95.736 E.17603
G1 X102.605 Y92.924 E.17433
G1 X103.451 Y90.413 E.16161
G1 X104.431 Y88.284 E.14293
G1 X105.998 Y85.685 E.18511
G1 X106.662 Y84.849 E.06509
G1 X107.103 Y85.199 F9000
G1 F1200
G1 X108.398 Y83.571 E.12693
G1 X110.072 Y81.905 E.14401
G1 X112.404 Y80.059 E.18141
G1 X114.911 Y78.543 E.17867
G1 X117.714 Y77.301 E.18701
G1 X120.559 Y76.456 E.181
G1 X121.749 Y76.214 E.07403
G1 X123.726 Y75.953 E.12165
G1 X126.037 Y75.859 E.14101
M73 P1 R51
G1 X128.078 Y76.001 E.1248
G1 X130.288 Y76.403 E.13701
G1 X132.275 Y76.955 E.12576
G1 X134.95 Y78.011 E.17541
G1 X136.825 Y78.991 E.12898
G1 X138.466 Y80.039 E.1188
G1 X140.666 Y81.792 E.17152
G1 X142.096 Y83.203 E.12253
G1 X143.449 Y84.803 E.12779
G1 X172.391 Y122.274 E2.8876
G1 X173.605 Y124.009 E.12912
G1 X174.276 Y125.115 E.07891
G1 X175.255 Y126.994 E.1292
G1 X175.775 Y128.177 E.07883
G1 X176.547 Y130.316 E.13867
G1 X177.32 Y133.477 E.19846
G1 X177.637 Y135.885 E.14815
G1 X177.729 Y138.157 E.13867
G1 X177.623 Y140.428 E.13867
G1 X177.128 Y143.644 E.19846
G1 X176.5 Y145.991 E.14815
G1 X175.716 Y148.125 E.13867
G1 X174.276 Y151.043 E.19846
G1 X173.061 Y152.965 E.13867
G1 X171.588 Y154.884 E.14755
G1 X170.041 Y156.564 E.13927
G1 X168.36 Y158.095 E.13867
G1 X165.737 Y160.018 E.19838
G1 X163.77 Y161.162 E.13875
G1 X161.568 Y162.188 E.14814
G1 X159.578 Y162.913 E.1292
G1 X158.337 Y163.274 E.07883
G1 X156.268 Y163.733 E.1292
G1 X154.016 Y164.036 E.13859
G1 X152.725 Y164.121 E.07891
G1 X150.607 Y164.121 E.1292
G1 X149.317 Y164.036 E.07883
G1 X147.064 Y163.733 E.13867
G1 X144.995 Y163.274 E.1292
G1 X143.755 Y162.913 E.07883
G1 X141.62 Y162.129 E.13867
G1 X139.7 Y161.233 E.1292
G1 X138.567 Y160.612 E.07883
G1 X136.78 Y159.473 E.12919
G1 X134.979 Y158.1 E.13815
G1 X134.001 Y157.242 E.07935
G1 X132.503 Y155.744 E.12919
G1 X131.65 Y154.773 E.07883
G1 X130.277 Y152.973 E.13807
G1 X129.133 Y151.178 E.12979
G1 X105.604 Y110.232 E2.88018
G1 X104.758 Y108.639 E.10999
G1 X104.15 Y107.268 E.09147
G1 X103.217 Y104.444 E.1814
G1 X102.655 Y101.499 E.18284
G1 X102.481 Y98.628 E.17542
G1 X102.654 Y95.794 E.17314
G1 X103.155 Y93.054 E.16989
G1 X103.978 Y90.614 E.15707
G1 X104.926 Y88.554 E.13831
G1 X106.467 Y85.998 E.18198
G1 X107.065 Y85.246 E.05858
G1 E-.805 F3600
;WIPE_START
G1 F1200
G1 X107.688 Y84.464 E-.345
;WIPE_END
G1 X132.642 Y146.434 F9000
G1 E1.15 F2400
;TYPE:Inner wall
;WIDTH:0.976606
G1 F1200
G1 X132.593 Y146.381 E.0068
;WIDTH:0.927061
G1 X132.543 Y146.329 E.00643
;WIDTH:0.877516
G1 X132.494 Y146.277 E.00607
;WIDTH:0.82797
G1 X132.445 Y146.224 E.0057
;WIDTH:0.778425
G1 X132.396 Y146.172 E.00533
;WIDTH:0.728879
G1 X132.347 Y146.12 E.00497
;WIDTH:0.679334
G1 X132.297 Y146.067 E.0046
;WIDTH:0.629788
G1 X132.248 Y146.015 E.00424
;WIDTH:0.580243
G1 X132.199 Y145.962 E.00387
;WIDTH:0.546358
G1 X131.897 Y145.151 E.04359
;WIDTH:0.564412
G1 X131.623 Y144.304 E.04653
;WIDTH:0.582613
G1 X131.384 Y143.439 E.04856
;WIDTH:0.60577
G1 X131.128 Y142.28 E.067
;WIDTH:0.623457
G1 X131.024 Y141.712 E.03365
;WIDTH:0.635777
G1 X130.893 Y140.816 E.05397
;WIDTH:0.654353
G1 X130.801 Y139.898 E.05672
;WIDTH:0.670851
G1 X130.748 Y138.884 E.06411
;WIDTH:0.690323
G1 X130.747 Y137.776 E.07223
;WIDTH:0.707631
G1 X130.769 Y137.16 E.04126
;WIDTH:0.721157
G1 X130.836 Y136.249 E.06235
;WIDTH:0.738501
G1 X130.944 Y135.343 E.06397
;WIDTH:0.756128
G1 X131.092 Y134.443 E.06559
;WIDTH:0.774011
G1 X131.279 Y133.551 E.06723
;WIDTH:0.791768
G1 X131.504 Y132.668 E.06887
;WIDTH:0.802655
G1 X131.765 Y131.796 E.06985
G1 X132.057 Y130.933 E.06983
;WIDTH:0.801553
G1 X132.387 Y130.085 E.06973
;WIDTH:0.801347
G1 X132.754 Y129.251 E.06972
;WIDTH:0.801679
G1 X133.158 Y128.435 E.06974
G1 X133.786 Y127.321 E.09792
;WIDTH:0.805022
G1 X134.574 Y126.101 E.11177
;WIDTH:0.800249
G1 X135.113 Y125.367 E.06961
;WIDTH:0.800082
G1 X135.678 Y124.664 E.06897
;WIDTH:0.799847
G1 X136.284 Y123.972 E.07024
G1 X136.914 Y123.315 E.06955
;WIDTH:0.799729
G1 X137.572 Y122.686 E.06957
G1 X138.257 Y122.086 E.06956
G1 X139.143 Y121.386 E.08622
;WIDTH:0.799564
G1 X139.695 Y120.983 E.05226
;WIDTH:0.799879
G1 X140.459 Y120.472 E.07024
G1 X141.238 Y120 E.06955
;WIDTH:0.800058
G1 X142.036 Y119.562 E.0696
G1 X142.853 Y119.16 E.06959
;WIDTH:0.800215
G1 X143.687 Y118.794 E.06961
G1 X144.672 Y118.417 E.08069
;WIDTH:0.800025
G1 X145.398 Y118.172 E.05851
G1 X146.272 Y117.917 E.06959
G1 X147.157 Y117.701 E.06959
G1 X148.05 Y117.524 E.06959
;WIDTH:0.799922
G1 X148.95 Y117.385 E.06958
G1 X149.864 Y117.286 E.07027
;WIDTH:0.805535
G1 X151.268 Y117.216 E.1082
;WIDTH:0.798814
G1 X152.127 Y117.216 E.06559
;WIDTH:0.797109
G1 X153.049 Y117.257 E.0702
G1 X153.885 Y117.33 E.06388
;WIDTH:0.80152
G1 X154.398 Y117.388 E.03959
G1 X155.282 Y117.524 E.06849
G1 X155.779 Y117.621 E.03879
;WIDTH:0.797081
G1 X156.581 Y117.798 E.06251
;WIDTH:0.799003
G1 X157.076 Y117.921 E.03889
G1 X158.265 Y118.269 E.0946
;WIDTH:0.77246
G1 X159.27 Y118.621 E.07836
;WIDTH:0.751347
G1 X160.095 Y118.955 E.06354
;WIDTH:0.734264
G1 X160.888 Y119.316 E.06073
;WIDTH:0.717881
G1 X161.655 Y119.703 E.05841
;WIDTH:0.702163
G1 X162.407 Y120.123 E.05717
;WIDTH:0.686864
G1 X163.233 Y120.633 E.0629
;WIDTH:0.669246
G1 X163.681 Y120.931 E.03392
;WIDTH:0.665092
G1 X164.423 Y121.464 E.05716
;WIDTH:0.646395
G1 X164.904 Y121.84 E.037
;WIDTH:0.630795
G1 X165.394 Y122.243 E.03745
;WIDTH:0.617504
G1 X166.042 Y122.817 E.04994
;WIDTH:0.6007
G1 X166.664 Y123.415 E.04829
;WIDTH:0.583741
G1 X167.259 Y124.036 E.04665
;WIDTH:0.566783
G1 X167.831 Y124.683 E.0453
;WIDTH:0.549763
G1 X168.531 Y125.561 E.05697
;WIDTH:0.576542
G1 X168.551 Y125.63 E.00381
;WIDTH:0.626361
G1 X168.57 Y125.698 E.00417
;WIDTH:0.67618
G1 X168.589 Y125.767 E.00454
;WIDTH:0.725999
G1 X168.608 Y125.835 E.0049
;WIDTH:0.775818
G1 X168.627 Y125.904 E.00527
;WIDTH:0.825637
G1 X168.647 Y125.973 E.00563
;WIDTH:0.875456
G1 X168.666 Y126.041 E.00599
;WIDTH:0.925275
G1 X168.685 Y126.11 E.00636
;WIDTH:0.975094
G1 X168.704 Y126.178 E.00672
G1 X168.675 Y126.16 E.00322
;WIDTH:0.952829
G1 X168.618 Y126.125 E.00621
;WIDTH:0.905483
G1 X168.56 Y126.09 E.00588
;WIDTH:0.858138
G1 X168.502 Y126.055 E.00555
;WIDTH:0.810794
G1 X168.445 Y126.02 E.00522
;WIDTH:0.763448
G1 X168.387 Y125.986 E.0049
;WIDTH:0.716103
G1 X168.33 Y125.951 E.00457
;WIDTH:0.668759
G1 X168.272 Y125.916 E.00424
;WIDTH:0.621413
G1 X168.214 Y125.881 E.00391
;WIDTH:0.574068
G1 X168.157 Y125.846 E.00359
;WIDTH:0.535824
G1 X167.957 Y125.596 E.01578
;WIDTH:0.553875
G1 X167.376 Y124.915 E.04577
;WIDTH:0.572791
G1 X166.766 Y124.261 E.04748
;WIDTH:0.591492
G1 X166.129 Y123.635 E.04913
;WIDTH:0.609933
G1 X165.467 Y123.039 E.05073
;WIDTH:0.61896
G1 X164.988 Y122.636 E.03617
;WIDTH:0.631781
G1 X164.514 Y122.265 E.03563
;WIDTH:0.648655
G1 X163.831 Y121.765 E.0515
;WIDTH:0.665092
G1 X163.335 Y121.432 E.03741
;WIDTH:0.681121
G1 X162.587 Y120.96 E.05676
;WIDTH:0.696342
G1 X161.82 Y120.521 E.0582
;WIDTH:0.713112
G1 X161.032 Y120.117 E.05973
;WIDTH:0.730201
G1 X160.229 Y119.748 E.0612
;WIDTH:0.747635
G1 X159.411 Y119.417 E.06269
;WIDTH:0.766189
G1 X158.582 Y119.123 E.06416
;WIDTH:0.783808
G1 X157.745 Y118.866 E.06545
;WIDTH:0.799003
G1 X156.88 Y118.638 E.06829
;WIDTH:0.801458
G1 X156.022 Y118.431 E.06759
;WIDTH:0.801575
G1 X155.161 Y118.26 E.06724
G1 X154.293 Y118.127 E.06724
G1 X153.421 Y118.031 E.0672
G1 X152.536 Y117.973 E.06788
;WIDTH:0.802123
G1 X151.668 Y117.955 E.06657
;WIDTH:0.805535
G1 X150.792 Y117.979 E.06747
G1 X149.819 Y118.037 E.07502
;WIDTH:0.798566
G1 X148.942 Y118.137 E.06738
G1 X148.069 Y118.276 E.06736
G1 X147.205 Y118.453 E.06732
G1 X146.35 Y118.667 E.06726
G1 X145.511 Y118.916 E.06676
;WIDTH:0.800774
G1 X144.79 Y119.164 E.0583
G1 X143.857 Y119.529 E.07662
;WIDTH:0.798564
G1 X143.058 Y119.886 E.06676
G1 X142.276 Y120.277 E.06664
G1 X141.515 Y120.699 E.06646
G1 X140.771 Y121.156 E.06652
G1 X140.05 Y121.642 E.06633
;WIDTH:0.802061
G1 X139.42 Y122.11 E.06014
G1 X138.66 Y122.719 E.07464
;WIDTH:0.798512
G1 X138 Y123.302 E.06717
G1 X137.366 Y123.916 E.06733
G1 X136.757 Y124.558 E.06752
;WIDTH:0.798383
G1 X136.175 Y125.229 E.06771
G1 X135.622 Y125.927 E.06792
G1 X135.088 Y126.667 E.06958
;WIDTH:0.805022
G1 X134.244 Y128.013 E.12222
;WIDTH:0.80368
G1 X133.717 Y128.973 E.0841
;WIDTH:0.797889
G1 X133.324 Y129.794 E.06939
;WIDTH:0.797735
G1 X132.966 Y130.638 E.06985
;WIDTH:0.797559
G1 X132.642 Y131.511 E.07092
;WIDTH:0.802655
G1 X132.12 Y133.18 E.13415
;WIDTH:0.781512
G1 X131.899 Y134.034 E.06569
;WIDTH:0.763453
G1 X131.715 Y134.891 E.06369
;WIDTH:0.745791
G1 X131.571 Y135.749 E.06169
;WIDTH:0.72859
G1 X131.463 Y136.624 E.0609
;WIDTH:0.711674
G1 X131.419 Y137.207 E.03934
;WIDTH:0.707631
G1 X131.372 Y138.086 E.05897
;WIDTH:0.688751
G1 X131.364 Y138.969 E.05741
;WIDTH:0.670041
G1 X131.411 Y140.082 E.07026
;WIDTH:0.646343
G1 X131.488 Y140.93 E.05164
;WIDTH:0.63018
G1 X131.586 Y141.631 E.04176
;WIDTH:0.623457
G1 X131.73 Y142.507 E.0517
;WIDTH:0.603408
G1 X131.914 Y143.396 E.05108
;WIDTH:0.58119
G1 X132.134 Y144.243 E.04722
;WIDTH:0.563695
G1 X132.396 Y145.098 E.04661
;WIDTH:0.545653
G1 X132.645 Y145.799 E.03745
;WIDTH:0.580243
G1 X132.644 Y145.87 E.0038
;WIDTH:0.629788
G1 X132.644 Y145.94 E.00416
;WIDTH:0.679334
G1 X132.644 Y146.011 E.00451
;WIDTH:0.728879
G1 X132.643 Y146.081 E.00487
;WIDTH:0.778425
G1 X132.643 Y146.152 E.00523
;WIDTH:0.82797
G1 X132.643 Y146.222 E.00559
;WIDTH:0.877516
G1 X132.643 Y146.293 E.00595
;WIDTH:0.927061
G1 X132.642 Y146.363 E.00631
;WIDTH:0.976606
G1 X132.642 Y146.374 E.00099
G1 E-.805 F3600
;WIPE_START
G1 F1200
G1 X132.593 Y146.381 E-.01728
G1 X132.543 Y146.329 E-.0248
G1 X132.494 Y146.277 E-.0248
G1 X132.445 Y146.224 E-.0248
G1 X132.396 Y146.172 E-.0248
G1 X132.347 Y146.12 E-.0248
G1 X132.297 Y146.067 E-.0248
G1 X132.248 Y146.015 E-.0248
G1 X132.199 Y145.962 E-.0248
G1 X132.068 Y145.611 E-.12935
;WIPE_END
G1 X151.66 Y159.613 F9000
G1 E1.15 F2400
;WIDTH:0.622077
G1 F1200
G1 X150.721 Y159.583 E.05464
;WIDTH:0.640604
G1 X149.679 Y159.5 E.06278
;WIDTH:0.659254
G1 X148.744 Y159.383 E.0584
;WIDTH:0.682333
G1 X147.601 Y159.181 E.07468
;WIDTH:0.70031
G1 X147.009 Y159.053 E.04007
;WIDTH:0.714937
G1 X146.1 Y158.823 E.06345
;WIDTH:0.733323
G1 X145.203 Y158.552 E.0652
;WIDTH:0.752707
G1 X144.32 Y158.241 E.06704
;WIDTH:0.768916
G1 X143.45 Y157.894 E.06857
;WIDTH:0.785419
G1 X142.483 Y157.453 E.07959
;WIDTH:0.802078
G1 X141.685 Y157.046 E.06867
;WIDTH:0.822819
G1 X140.947 Y156.629 E.06682
;WIDTH:0.836157
G1 X140.151 Y156.138 E.07491
;WIDTH:0.848701
G1 X139.539 Y155.721 E.06034
G1 X139.425 Y155.667 E.01025
;WIDTH:0.802961
G1 X139.311 Y155.614 E.00966
;WIDTH:0.757221
G1 X139.197 Y155.561 E.00907
;WIDTH:0.71148
G1 X139.083 Y155.508 E.00847
;WIDTH:0.66574
G1 X138.969 Y155.454 E.00788
;WIDTH:0.62
G1 X138.562 Y155.156 E.0292
G1 X137.836 Y154.574 E.05393
G1 X137.123 Y153.949 E.05491
G1 X136.445 Y153.3 E.0544
G1 X135.796 Y152.621 E.05441
G1 X135.177 Y151.915 E.05441
G1 X134.589 Y151.183 E.05441
G1 X134.038 Y150.432 E.05393
G1 X133.512 Y149.645 E.0549
G1 X133.024 Y148.842 E.05441
G1 X132.573 Y148.018 E.05441
G1 X132.157 Y147.176 E.05441
G1 X131.779 Y146.316 E.05442
G1 X131.439 Y145.441 E.05441
G1 X131.137 Y144.552 E.05442
G1 X130.874 Y143.65 E.05441
G1 X130.651 Y142.738 E.05441
G1 X130.468 Y141.817 E.05441
G1 X130.326 Y140.897 E.05393
G1 X130.222 Y139.955 E.05491
G1 X130.161 Y139.018 E.0544
G1 X130.141 Y138.079 E.05441
G1 X130.161 Y137.14 E.05441
G1 X130.222 Y136.203 E.05441
G1 X130.325 Y135.269 E.05441
G1 X130.468 Y134.341 E.05442
G1 X130.651 Y133.42 E.05441
G1 X130.874 Y132.508 E.05441
G1 X131.137 Y131.606 E.05441
G1 X131.439 Y130.717 E.05441
G1 X131.779 Y129.842 E.05441
G1 X132.157 Y128.982 E.05441
G1 X132.573 Y128.14 E.05441
G1 X133.024 Y127.316 E.05441
G1 X133.512 Y126.513 E.05442
G1 X134.033 Y125.732 E.05441
G1 X134.589 Y124.975 E.05441
G1 X135.171 Y124.249 E.05393
G1 X135.796 Y123.536 E.05491
G1 X136.445 Y122.858 E.0544
G1 X137.124 Y122.209 E.05441
G1 X137.83 Y121.589 E.05441
G1 X138.562 Y121.002 E.05441
G1 X139.313 Y120.451 E.05393
G1 X140.101 Y119.924 E.0549
G1 X140.903 Y119.437 E.05441
G1 X141.727 Y118.986 E.05441
G1 X142.569 Y118.57 E.05441
G1 X143.429 Y118.192 E.05442
G1 X144.304 Y117.852 E.05441
G1 X145.193 Y117.55 E.05442
G1 X146.095 Y117.287 E.05441
G1 X147.007 Y117.064 E.05441
G1 X147.928 Y116.88 E.05441
G1 X148.856 Y116.738 E.05441
G1 X149.79 Y116.635 E.05442
G1 X150.727 Y116.574 E.05441
G1 X151.666 Y116.553 E.05441
G1 X152.597 Y116.574 E.05393
G1 X153.542 Y116.635 E.0549
G1 X154.476 Y116.738 E.0544
G1 X155.404 Y116.88 E.05441
G1 X156.325 Y117.064 E.05441
G1 X157.237 Y117.287 E.05441
