; generated by PrusaSlicer 2.6.1+win64 on 2023-10-22 at 19:41:05 UTC


;
;

;
;
; 

; external perimeters extrusion width = 0.60mm
; perimeters extrusion width = 0.60mm
; infill extrusion width = 0.65mm
; solid infill extrusion width = 0.60mm
; top infill extrusion width = 0.65mm
; support material extrusion width = 0.65mm
; first layer extrusion width = 0.60mm

M73 P0 R32
;TYPE:Custom
M104 S216 ; set extruder temp
M140 S60 ; set bed temp
M190 S60 ; wait for bed temp
M109 S216 ; wait for extruder temp

G28 ; home all
BED_MESH_PROFILE LOAD=default;

G1 Z2.0 F3000 ; Move Z Axis up little to prevent scratching of Heat Bed
G1 X0.1 Y5 Z0.28 F5000.0 ; Move to start position


G92 E0 ; Reset Extruder
G1 Z2.0 F3000 ; Move Z Axis up little to prevent scratching of Heat Bed
G1 X0.1 Y10 Z0.28 F5000.0 ; Move to start position

G1 X0.1 Y200 Z0.28 F1500.0 E15 ; Draw the first line
G1 X0.4 Y200 Z0.28 F5000.0 ; Move to side a little
G1 X0.4 Y10 Z0.28 F1500.0 E30 ; Draw the second line


G92 E0 ; Reset Extruder
G1 Z0.5 F3000 ; Move Z Axis up little to prevent scratching of Heat Bed
M117 Godmode is enabled
G21 ; set units to millimeters
G90 ; use absolute coordinates
M82 ; use absolute distances for extrusion
G92 E0
; Filament gcode
M107
;LAYER_CHANGE
;Z:0.3
;HEIGHT:0.3
G1 Z.3 F7800
G1 E-1.4 F2400
G92 E0
G1 Z.8 F7800
G1 X114.299 Y94.557
G1 Z.3
G1 E1.4 F2400
;TYPE:Skirt/Brim
;WIDTH:0.6
G1 F1800
G1 X115.639 Y93.052 E1.53462
G1 X116.314 Y92.341 E1.60011
G1 X117.658 Y91.008 E1.72657
G1 X119.196 Y89.608 E1.86551
G1 X120.991 Y88.126 E2.02102
G1 X122.39 Y87.064 E2.13836
G1 X123.998 Y85.944 E2.26927
G1 X125.684 Y84.872 E2.40274
G1 X127.401 Y83.881 E2.53518
G1 X129.17 Y82.963 E2.66832
G1 X131.023 Y82.131 E2.80402
G1 X132.868 Y81.398 E2.93665
M73 P1 R32
G1 X134.742 Y80.743 E3.06927
G1 X136.646 Y80.169 E3.20212
G1 X138.84 Y79.615 E3.35329
G1 X140.832 Y79.208 E3.48912
G1 X142.764 Y78.9 E3.61982
G1 X144.906 Y78.657 E3.76384
G1 X146.962 Y78.516 E3.90151
G1 X148.458 Y78.468 E4.0015
G1 X149.957 Y78.473 E4.10164
G1 X151.908 Y78.548 E4.23207
G1 X153.452 Y78.663 E4.3355
G1 X154.636 Y78.789 E4.41504
G1 X156.528 Y79.055 E4.54268
G1 X157.742 Y79.265 E4.62499
G1 X159.302 Y79.591 E4.73146
G1 X161.275 Y80.073 E4.86714
G1 X163.235 Y80.649 E5.00362
G1 X165.14 Y81.301 E5.13813
G1 X166.969 Y82.015 E5.2693
G1 X168.76 Y82.804 E5.40004
G1 X170.53 Y83.673 E5.53177
G1 X172.277 Y84.626 E5.66471
G1 X174.019 Y85.678 E5.80066
G1 X175.416 Y86.598 E5.91241
G1 X177.179 Y87.87 E6.05764
G1 X178.645 Y89.031 E6.18257
G1 X180.097 Y90.282 E6.31061
G1 X181.488 Y91.585 E6.43794
G1 X182.817 Y92.94 E6.56473
G1 X184.123 Y94.388 E6.695
G1 X185.291 Y95.798 E6.81732
G1 X185.931 Y96.619 E6.88686
G1 X186.586 Y97.502 E6.96031
G1 X187.202 Y98.378 E7.03185
G1 X188.22 Y99.923 E7.15546
G1 X188.655 Y100.632 E7.21103
G1 X189.585 Y102.247 E7.33553
G1 X190.137 Y103.272 E7.4133
G1 X190.691 Y104.384 E7.4963
G1 X191.194 Y105.461 E7.57571
G1 X191.913 Y107.141 E7.69779
G1 X192.59 Y108.922 E7.82508
G1 X193.237 Y110.875 E7.96252
G1 X193.795 Y112.858 E8.10014
G1 X194.255 Y114.82 E8.23477
G1 X194.65 Y116.949 E8.37943
G1 X194.914 Y118.823 E8.50586
G1 X195.098 Y120.672 E8.62999
G1 X195.216 Y122.535 E8.7547
G1 X195.262 Y124.43 E8.88133
G1 X195.23 Y126.318 E9.00748
G1 X195.12 Y128.222 E9.13489
G1 X194.929 Y130.137 E9.26346
G1 X194.654 Y132.059 E9.39317
G1 X194.295 Y133.982 E9.52386
G1 X193.851 Y135.902 E9.65551
G1 X193.315 Y137.834 E9.78945
G1 X192.691 Y139.751 E9.92413
G1 X191.989 Y141.623 E10.05769
G1 X191.198 Y143.48 E10.19253
G1 X190.329 Y145.293 E10.32684
G1 X189.381 Y147.069 E10.46133
G1 X188.354 Y148.801 E10.59585
G1 X187.253 Y150.485 E10.73026
G1 X186.089 Y152.106 E10.86358
G1 X184.843 Y153.689 E10.99816
G1 X183.564 Y155.175 E11.12914
G1 X182.221 Y156.607 E11.26029
G1 X180.766 Y158.028 E11.39616
G1 X179.33 Y159.313 E11.52489
G1 X177.824 Y160.55 E11.65509
G1 X176.27 Y161.718 E11.78496
G1 X174.673 Y162.816 E11.91443
G1 X173.096 Y163.805 E12.03879
G1 X171.478 Y164.731 E12.16333
G1 X169.789 Y165.607 E12.29044
G1 X168.015 Y166.433 E12.42117
G1 X166.202 Y167.186 E12.55232
G1 X164.387 Y167.85 E12.68143
G1 X162.543 Y168.438 E12.81073
G1 X160.63 Y168.96 E12.9432
G1 X158.686 Y169.401 E13.07637
G1 X156.716 Y169.76 E13.21014
G1 X154.679 Y170.04 E13.3475
G1 X153.345 Y170.174 E13.43707
G1 X151.388 Y170.314 E13.56814
G1 X149.41 Y170.369 E13.70033
G1 X147.468 Y170.339 E13.83008
G1 X145.492 Y170.223 E13.96231
G1 X143.402 Y170.006 E14.10268
G1 X141.286 Y169.682 E14.24569
G1 X139.754 Y169.388 E14.3499
G1 X138.523 Y169.106 E14.43427
G1 X137.37 Y168.813 E14.51374
G1 X135.487 Y168.268 E14.6447
G1 X133.782 Y167.692 E14.76493
G1 X132.051 Y167.029 E14.88876
G1 X130.335 Y166.289 E15.0136
G1 X129.125 Y165.713 E15.10313
G1 X127.086 Y164.648 E15.25681
G1 X125.883 Y163.954 E15.34959
G1 X124.027 Y162.784 E15.49616
G1 X123.288 Y162.282 E15.55584
G1 X121.991 Y161.354 E15.66238
G1 X120.187 Y159.949 E15.81514
G1 X118.663 Y158.639 E15.9494
G1 X117.169 Y157.236 E16.08632
G1 X115.738 Y155.767 E16.22332
G1 X114.382 Y154.245 E16.3595
G1 X113.066 Y152.629 E16.49873
G1 X111.818 Y150.946 E16.6387
G1 X110.708 Y149.305 E16.77105
G1 X109.975 Y148.115 E16.86442
G1 X109.629 Y147.546 E16.90891
G1 X108.697 Y145.868 E17.03714
G1 X107.814 Y144.11 E17.16857
G1 X106.846 Y141.93 E17.32792
G1 X106.139 Y140.116 E17.45798
G1 X105.514 Y138.288 E17.58704
G1 X104.962 Y136.418 E17.7173
G1 X104.502 Y134.581 E17.84381
G1 X104.129 Y132.789 E17.96609
G1 X103.925 Y131.611 E18.04596
G1 X103.81 Y130.865 E18.09639
G1 X103.585 Y129.047 E18.21877
G1 X103.4 Y126.731 E18.37398
G1 X103.334 Y124.464 E18.52549
G1 X103.366 Y122.493 E18.65718
G1 X103.482 Y120.504 E18.79028
G1 X103.682 Y118.525 E18.92316
G1 X103.97 Y116.526 E19.05808
G1 X104.347 Y114.525 E19.19411
G1 X104.814 Y112.528 E19.33112
G1 X105.373 Y110.533 E19.46953
G1 X106.042 Y108.595 E19.6065
G1 X106.794 Y106.706 E19.74233
G1 X107.628 Y104.85 E19.87826
G1 X108.549 Y103.018 E20.01524
G1 X109.556 Y101.215 E20.1532
G1 X110.63 Y99.478 E20.28963
G1 X111.791 Y97.771 E20.42754
G1 X113.01 Y96.136 E20.56378
G1 X114.242 Y94.627 E20.69392
G1 X114.657 Y94.965 F7800
G1 F1800
G1 X116.03 Y93.417 E20.83215
G1 X116.694 Y92.719 E20.89651
G1 X118.023 Y91.4 E21.0216
G1 X119.542 Y90.017 E21.15884
G1 X121.32 Y88.549 E21.31287
G1 X122.701 Y87.5 E21.42873
G1 X124.3 Y86.387 E21.55888
G1 X125.967 Y85.328 E21.69082
G1 X127.664 Y84.348 E21.82173
G1 X129.41 Y83.442 E21.95314
G1 X131.237 Y82.622 E22.08692
G1 X133.06 Y81.897 E22.21798
G1 X134.903 Y81.254 E22.34838
G1 X136.783 Y80.687 E22.47956
G1 X138.965 Y80.136 E22.62991
G1 X140.922 Y79.736 E22.76335
G1 X142.83 Y79.431 E22.89243
G1 X144.949 Y79.191 E23.0349
G1 X146.985 Y79.051 E23.17124
G1 X148.47 Y79.004 E23.2705
G1 X149.95 Y79.008 E23.36937
G1 X151.873 Y79.083 E23.49793
G1 X153.408 Y79.196 E23.60075
G1 X154.574 Y79.321 E23.67909
G1 X156.441 Y79.584 E23.80505
G1 X157.637 Y79.791 E23.88614
G1 X159.18 Y80.112 E23.99143
G1 X161.13 Y80.589 E24.12554
G1 X163.067 Y81.158 E24.26041
G1 X164.951 Y81.802 E24.39342
G1 X166.758 Y82.508 E24.52302
G1 X168.539 Y83.291 E24.65299
G1 X170.289 Y84.152 E24.78328
G1 X172.005 Y85.087 E24.91383
G1 X173.729 Y86.128 E25.04837
G1 X175.117 Y87.043 E25.15943
G1 X176.85 Y88.293 E25.30218
G1 X178.308 Y89.447 E25.4264
G1 X179.743 Y90.684 E25.55297
G1 X181.117 Y91.972 E25.67878
G1 X182.431 Y93.311 E25.80411
G1 X183.714 Y94.734 E25.93211
G1 X184.876 Y96.136 E26.05376
G1 X186.154 Y97.818 E26.19488
G1 X186.757 Y98.676 E26.26494
G1 X187.77 Y100.214 E26.38797
G1 X188.197 Y100.909 E26.44246
G1 X189.115 Y102.504 E26.5654
G1 X189.66 Y103.515 E26.64213
G1 X190.208 Y104.614 E26.72417
G1 X190.703 Y105.676 E26.80245
G1 X191.418 Y107.346 E26.92381
G1 X192.088 Y109.107 E27.04968
G1 X192.727 Y111.038 E27.18556
G1 X193.275 Y112.986 E27.32075
G1 X193.729 Y114.924 E27.45372
G1 X194.12 Y117.03 E27.59682
G1 X194.382 Y118.882 E27.72178
G1 X194.564 Y120.71 E27.8445
G1 X194.681 Y122.563 E27.96854
G1 X194.726 Y124.437 E28.09377
G1 X194.695 Y126.304 E28.21851
G1 X194.586 Y128.185 E28.34438
G1 X194.396 Y130.078 E28.47148
G1 X194.125 Y131.978 E28.59969
G1 X193.77 Y133.878 E28.72882
G1 X193.331 Y135.775 E28.8589
G1 X192.804 Y137.674 E28.99056
G1 X192.187 Y139.568 E29.12363
G1 X191.494 Y141.419 E29.25567
G1 X190.712 Y143.254 E29.38893
G1 X189.854 Y145.046 E29.52166
G1 X188.917 Y146.801 E29.65457
G1 X187.903 Y148.513 E29.7875
G1 X186.815 Y150.177 E29.92032
G1 X185.664 Y151.78 E30.05216
G1 X184.433 Y153.344 E30.18513
G1 X183.17 Y154.813 E30.31455
G1 X181.835 Y156.236 E30.4449
G1 X180.405 Y157.632 E30.57841
G1 X178.985 Y158.903 E30.70572
G1 X177.497 Y160.125 E30.83435
G1 X175.962 Y161.28 E30.96268
G1 X174.384 Y162.365 E31.09061
G1 X172.825 Y163.343 E31.21356
G1 X171.217 Y164.263 E31.33732
G1 X169.547 Y165.129 E31.46299
G1 X167.804 Y165.941 E31.59145
G1 X166.013 Y166.685 E31.72101
G1 X164.208 Y167.345 E31.8494
G1 X162.386 Y167.926 E31.97716
G1 X160.495 Y168.442 E32.10811
G1 X158.573 Y168.878 E32.23977
G1 X156.626 Y169.232 E32.37197
G1 X154.621 Y169.507 E32.50717
G1 X153.303 Y169.64 E32.59567
G1 X151.356 Y169.779 E32.72607
G1 X149.401 Y169.833 E32.85672
G1 X147.482 Y169.804 E32.98493
G1 X145.541 Y169.689 E33.11483
G1 X143.476 Y169.475 E33.25352
G1 X141.382 Y169.155 E33.39503
G1 X139.859 Y168.862 E33.49864
G1 X138.645 Y168.585 E33.58183
G1 X137.513 Y168.297 E33.65986
G1 X135.655 Y167.759 E33.78908
G1 X133.959 Y167.187 E33.90865
G1 X132.248 Y166.531 E34.03107
G1 X130.561 Y165.804 E34.15379
G1 X129.358 Y165.231 E34.24281
G1 X127.35 Y164.182 E34.39416
G1 X126.155 Y163.492 E34.48634
G1 X124.324 Y162.338 E34.63093
G1 X123.597 Y161.845 E34.68961
G1 X122.307 Y160.921 E34.79562
G1 X120.521 Y159.531 E34.94681
G1 X119.016 Y158.237 E35.07941
G1 X117.549 Y156.858 E35.21392
G1 X116.134 Y155.406 E35.34936
G1 X114.793 Y153.902 E35.48397
G1 X113.492 Y152.305 E35.62158
G1 X112.258 Y150.642 E35.75992
G1 X111.155 Y149.01 E35.89151
G1 X110.432 Y147.835 E35.98368
G1 X110.095 Y147.281 E36.027
G1 X109.167 Y145.613 E36.15452
G1 X108.296 Y143.876 E36.28433
G1 X107.338 Y141.719 E36.442
G1 X106.64 Y139.927 E36.57048
G1 X106.026 Y138.13 E36.69734
G1 X105.48 Y136.282 E36.82607
G1 X105.025 Y134.466 E36.95114
G1 X104.654 Y132.684 E37.07274
G1 X104.454 Y131.527 E37.15118
G1 X104.341 Y130.795 E37.20066
G1 X104.117 Y128.987 E37.32237
G1 X103.935 Y126.695 E37.47597
G1 X103.869 Y124.455 E37.62568
G1 X103.901 Y122.508 E37.75577
G1 X104.016 Y120.541 E37.8874
G1 X104.214 Y118.584 E38.01881
G1 X104.499 Y116.608 E38.15218
G1 X104.872 Y114.63 E38.28665
G1 X105.334 Y112.656 E38.42209
G1 X105.887 Y110.685 E38.55885
G1 X106.546 Y108.776 E38.69377
G1 X107.289 Y106.91 E38.82795
G1 X108.114 Y105.075 E38.96236
G1 X109.025 Y103.264 E39.09779
G1 X110.021 Y101.482 E39.23417
G1 X111.082 Y99.765 E39.36901
G1 X112.223 Y98.086 E39.50463
G1 X113.429 Y96.47 E39.63934
G1 X114.6 Y95.035 E39.76307
G1 X115.015 Y95.373 F7800
G1 F1800
G1 X116.422 Y93.783 E39.90491
G1 X117.074 Y93.096 E39.96818
G1 X118.388 Y91.792 E40.09185
G1 X119.888 Y90.426 E40.22738
G1 X121.648 Y88.972 E40.37989
G1 X123.011 Y87.937 E40.49422
G1 X124.601 Y86.829 E40.62369
G1 X126.249 Y85.783 E40.75409
G1 X127.926 Y84.815 E40.88345
G1 X129.649 Y83.921 E41.01313
G1 X131.451 Y83.113 E41.14506
G1 X133.253 Y82.397 E41.2746
G1 X135.074 Y81.762 E41.40344
G1 X136.921 Y81.205 E41.53232
G1 X139.09 Y80.656 E41.68179
G1 X141.012 Y80.264 E41.81283
G1 X142.897 Y79.963 E41.94035
M73 P2 R32
G1 X144.991 Y79.725 E42.08114
G1 X147.007 Y79.587 E42.21613
G1 X148.483 Y79.539 E42.31479
G1 X149.944 Y79.544 E42.41239
G1 X151.838 Y79.617 E42.53901
G1 X153.364 Y79.73 E42.64123
G1 X154.513 Y79.854 E42.71844
G1 X156.354 Y80.112 E42.84263
G1 X157.532 Y80.316 E42.9225
G1 X159.057 Y80.634 E43.02657
G1 X160.985 Y81.105 E43.15916
G1 X162.899 Y81.667 E43.29242
G1 X164.761 Y82.303 E43.42387
G1 X166.558 Y83.005 E43.55275
G1 X168.318 Y83.779 E43.6812
G1 X170.038 Y84.624 E43.80922
M73 P2 R31
G1 X171.734 Y85.549 E43.93828
G1 X173.439 Y86.579 E44.07135
G1 X174.818 Y87.487 E44.18165
G1 X176.521 Y88.716 E44.32195
G1 X177.971 Y89.864 E44.4455
G1 X179.389 Y91.086 E44.57055
G1 X180.747 Y92.359 E44.6949
G1 X182.045 Y93.682 E44.81872
G1 X183.305 Y95.08 E44.94445
G1 X184.461 Y96.475 E45.06548
G1 X185.722 Y98.135 E45.20475
G1 X186.312 Y98.974 E45.27327
G1 X187.321 Y100.505 E45.39576
G1 X187.738 Y101.186 E45.44911
G1 X188.645 Y102.762 E45.57059
G1 X189.182 Y103.758 E45.64618
G1 X189.724 Y104.844 E45.72726
G1 X190.213 Y105.891 E45.80446
G1 X190.924 Y107.552 E45.92516
G1 X191.585 Y109.292 E46.04951
G1 X192.213 Y111.189 E46.183
G1 X192.755 Y113.114 E46.3166
G1 X193.204 Y115.028 E46.44794
G1 X193.591 Y117.111 E46.58948
G1 X193.849 Y118.941 E46.71294
G1 X194.03 Y120.749 E46.83433
G1 X194.146 Y122.592 E46.9577
G1 X194.19 Y124.445 E47.08153
G1 X194.16 Y126.289 E47.20474
G1 X194.051 Y128.148 E47.32914
G1 X193.864 Y130.019 E47.45476
G1 X193.595 Y131.896 E47.58143
G1 X193.244 Y133.774 E47.70906
G1 X192.81 Y135.649 E47.83763
G1 X192.289 Y137.525 E47.9677
G1 X191.68 Y139.397 E48.09921
G1 X190.994 Y141.226 E48.22971
G1 X190.227 Y143.028 E48.36054
G1 X189.379 Y144.799 E48.49172
G1 X188.453 Y146.533 E48.62304
G1 X187.451 Y148.225 E48.75441
G1 X186.376 Y149.869 E48.88563
G1 X185.232 Y151.462 E49.01665
G1 X184.023 Y152.999 E49.14729
G1 X182.767 Y154.459 E49.27595
G1 X181.448 Y155.865 E49.40474
G1 X180.043 Y157.237 E49.53593
G1 X178.641 Y158.493 E49.66168
G1 X177.171 Y159.701 E49.78879
G1 X175.653 Y160.842 E49.91565
G1 X174.094 Y161.914 E50.04205
G1 X172.545 Y162.887 E50.16425
G1 X170.956 Y163.795 E50.28651
G1 X169.306 Y164.65 E50.41066
G1 X167.583 Y165.453 E50.53765
G1 X165.823 Y166.184 E50.66497
G1 X164.04 Y166.837 E50.79182
G1 X162.229 Y167.414 E50.9188
G1 X160.36 Y167.923 E51.04821
G1 X158.461 Y168.354 E51.1783
G1 X156.536 Y168.704 E51.30901
G1 X154.563 Y168.975 E51.44205
G1 X153.261 Y169.106 E51.52947
G1 X151.324 Y169.244 E51.6592
G1 X149.392 Y169.298 E51.78832
G1 X147.496 Y169.268 E51.915
G1 X145.59 Y169.156 E52.04255
G1 X143.551 Y168.945 E52.17949
G1 X141.478 Y168.628 E52.31959
G1 X139.965 Y168.337 E52.42252
G1 X138.768 Y168.063 E52.50455
G1 X137.655 Y167.78 E52.58127
G1 X135.822 Y167.25 E52.70874
G1 X134.135 Y166.681 E52.82768
G1 X132.455 Y166.037 E52.94788
G1 X130.786 Y165.318 E53.06928
G1 X129.592 Y164.749 E53.15764
G1 X127.613 Y163.716 E53.30678
G1 X126.427 Y163.031 E53.39828
G1 X124.621 Y161.893 E53.54089
G1 X123.906 Y161.407 E53.59865
G1 X122.623 Y160.489 E53.70404
G1 X120.855 Y159.112 E53.85375
G1 X119.37 Y157.835 E53.98459
G1 X117.92 Y156.472 E54.11754
G1 X116.53 Y155.045 E54.25062
G1 X115.205 Y153.559 E54.38363
G1 X113.919 Y151.981 E54.51962
G1 X112.699 Y150.337 E54.65639
G1 X111.602 Y148.715 E54.7872
G1 X110.888 Y147.554 E54.87825
G1 X110.56 Y147.016 E54.92034
G1 X109.638 Y145.358 E55.04708
G1 X108.778 Y143.641 E55.17537
G1 X107.83 Y141.507 E55.33137
G1 X107.141 Y139.738 E55.4582
G1 X106.535 Y137.963 E55.5835
G1 X105.998 Y136.146 E55.71008
G1 X105.548 Y134.352 E55.83364
G1 X105.18 Y132.58 E55.95455
G1 X104.983 Y131.443 E56.03164
G1 X104.872 Y130.725 E56.08018
G1 X104.649 Y128.927 E56.20122
G1 X104.469 Y126.66 E56.35314
G1 X104.405 Y124.445 E56.50118
G1 X104.437 Y122.522 E56.62966
G1 X104.551 Y120.578 E56.75975
G1 X104.746 Y118.644 E56.88961
G1 X105.029 Y116.691 E57.02144
G1 X105.397 Y114.735 E57.1544
G1 X105.854 Y112.783 E57.28833
G1 X106.4 Y110.837 E57.42335
G1 X107.05 Y108.956 E57.5563
G1 X107.785 Y107.113 E57.68885
G1 X108.6 Y105.3 E57.82164
G1 X109.495 Y103.52 E57.95474
G1 X110.48 Y101.758 E58.0896
G1 X111.528 Y100.061 E58.22284
G1 X112.656 Y98.402 E58.35686
G1 X113.848 Y96.804 E58.49004
G1 X114.958 Y95.443 E58.60737
G1 X115.373 Y95.781 F7800
G1 F1800
G1 X116.813 Y94.149 E58.75277
G1 X117.454 Y93.473 E58.81501
G1 X118.753 Y92.184 E58.93726
G1 X120.234 Y90.835 E59.07109
G1 X121.976 Y89.396 E59.22204
G1 X123.322 Y88.373 E59.33498
G1 X124.903 Y87.272 E59.46369
G1 X126.531 Y86.238 E59.59253
G1 X128.189 Y85.281 E59.72042
G1 X129.889 Y84.4 E59.84833
G1 X131.665 Y83.605 E59.97832
G1 X133.445 Y82.897 E60.10629
G1 X135.245 Y82.27 E60.23363
G1 X137.058 Y81.723 E60.36014
G1 X139.215 Y81.177 E60.50878
G1 X141.102 Y80.792 E60.63744
