; generated by PrusaSlicer 2.6.1+win64 on 2023-10-23 at 07:20:13 UTC


;
;

;
;
; 

; external perimeters extrusion width = 0.60mm
; perimeters extrusion width = 0.60mm
; infill extrusion width = 0.65mm
; solid infill extrusion width = 0.60mm
; top infill extrusion width = 0.65mm
; support material extrusion width = 0.65mm
; first layer extrusion width = 0.60mm

M73 P0 R27
;TYPE:Custom
M104 S216 ; set extruder temp
M140 S60 ; set bed temp
M190 S60 ; wait for bed temp
M109 S216 ; wait for extruder temp

G28 ; home all
BED_MESH_PROFILE LOAD=default;

G1 Z2.0 F3000 ; Move Z Axis up little to prevent scratching of Heat Bed
G1 X0.1 Y5 Z0.28 F5000.0 ; Move to start position


G92 E0 ; Reset Extruder
G1 Z2.0 F3000 ; Move Z Axis up little to prevent scratching of Heat Bed
G1 X0.1 Y10 Z0.28 F5000.0 ; Move to start position

G1 X0.1 Y200 Z0.28 F1500.0 E15 ; Draw the first line
G1 X0.4 Y200 Z0.28 F5000.0 ; Move to side a little
G1 X0.4 Y10 Z0.28 F1500.0 E30 ; Draw the second line


G92 E0 ; Reset Extruder
G1 Z0.5 F3000 ; Move Z Axis up little to prevent scratching of Heat Bed
M117 Godmode is enabled
G21 ; set units to millimeters
G90 ; use absolute coordinates
M82 ; use absolute distances for extrusion
G92 E0
; Filament gcode
M107
;LAYER_CHANGE
;Z:0.28
;HEIGHT:0.28
M73 P1 R27
G1 Z.28 F7800
G1 E-1.4 F2400
G92 E0
G1 Z.78 F7800
G1 X111.748 Y92.895
G1 Z.28
G1 E1.4 F2400
;TYPE:Skirt/Brim
;WIDTH:0.6
G1 F1800
G1 X113.193 Y91.248 E1.53771
G1 X114.709 Y89.666 E1.67542
G1 X116.283 Y88.161 E1.81229
G1 X117.895 Y86.748 E1.94702
G1 X119.575 Y85.399 E2.08244
G1 X121.331 Y84.109 E2.21939
G1 X123.142 Y82.898 E2.35632
G1 X125.015 Y81.76 E2.49407
G1 X126.945 Y80.701 E2.63243
G1 X128.9 Y79.737 E2.76943
G1 X130.917 Y78.851 E2.90789
G1 X132.948 Y78.062 E3.04484
G1 X134.977 Y77.374 E3.1795
G1 X137.046 Y76.77 E3.31497
G1 X139.162 Y76.251 E3.45191
G1 X141.299 Y75.824 E3.58888
G1 X143.476 Y75.489 E3.72732
G1 X145.677 Y75.248 E3.86648
G1 X147.851 Y75.107 E4.00341
G1 X149.97 Y75.061 E4.13662
G1 X150.459 Y75.07 E4.16736
G1 X152.208 Y75.109 E4.27731
G1 X154.323 Y75.248 E4.41053
G1 X156.489 Y75.484 E4.54747
G1 X158.642 Y75.814 E4.68437
G1 X160.78 Y76.238 E4.82136
G1 X162.908 Y76.758 E4.95904
G1 X165.011 Y77.37 E5.0967
G1 X167.086 Y78.074 E5.23442
G1 X169.139 Y78.873 E5.37288
G1 X171.132 Y79.752 E5.50978
G1 X173.086 Y80.717 E5.64675
G1 X174.965 Y81.748 E5.78146
G1 X176.807 Y82.866 E5.91689
G1 X178.62 Y84.075 E6.05385
G1 X180.377 Y85.362 E6.19074
G1 X182.105 Y86.748 E6.32997
G1 X183.752 Y88.193 E6.46768
G1 X185.334 Y89.709 E6.60539
G1 X186.839 Y91.283 E6.74226
G1 X188.252 Y92.895 E6.87699
G1 X189.601 Y94.575 E7.01241
G1 X190.891 Y96.331 E7.14936
G1 X192.102 Y98.142 E7.28629
G1 X193.24 Y100.015 E7.42404
G1 X194.294 Y101.935 E7.5617
G1 X195.263 Y103.9 E7.6994
G1 X196.149 Y105.917 E7.83786
G1 X196.938 Y107.948 E7.97481
G1 X197.626 Y109.977 E8.10947
G1 X198.23 Y112.046 E8.24494
G1 X198.749 Y114.162 E8.38188
G1 X199.176 Y116.299 E8.51885
G1 X199.51 Y118.464 E8.65653
G1 X199.749 Y120.641 E8.79418
G1 X199.893 Y122.84 E8.93269
G1 X199.939 Y125.03 E9.07036
G1 X199.891 Y127.208 E9.20728
G1 X199.75 Y129.347 E9.34201
G1 X199.516 Y131.489 E9.47744
G1 X199.186 Y133.642 E9.61434
G1 X198.762 Y135.78 E9.75133
G1 X198.242 Y137.908 E9.88901
G1 X197.626 Y140.023 E10.02746
G1 X196.922 Y142.097 E10.16512
G1 X196.127 Y144.139 E10.30285
G1 X195.253 Y146.122 E10.43905
G1 X194.283 Y148.086 E10.57672
G1 X193.252 Y149.965 E10.71143
G1 X192.134 Y151.807 E10.84686
G1 X190.925 Y153.62 E10.98382
G1 X189.631 Y155.387 E11.12147
G1 X188.252 Y157.105 E11.25993
G1 X186.807 Y158.752 E11.39764
G1 X185.291 Y160.334 E11.53535
G1 X183.717 Y161.839 E11.67222
G1 X182.105 Y163.252 E11.80695
G1 X180.425 Y164.601 E11.94237
G1 X178.669 Y165.891 E12.07932
G1 X176.858 Y167.102 E12.21625
G1 X174.985 Y168.24 E12.354
G1 X173.065 Y169.294 E12.49166
G1 X171.1 Y170.263 E12.62936
G1 X169.083 Y171.149 E12.76782
G1 X167.052 Y171.938 E12.90477
G1 X165.023 Y172.626 E13.03943
G1 X162.954 Y173.23 E13.1749
G1 X160.838 Y173.749 E13.31184
G1 X158.701 Y174.176 E13.44881
G1 X156.536 Y174.51 E13.58649
G1 X154.358 Y174.749 E13.7242
G1 X152.172 Y174.892 E13.86189
G1 X149.97 Y174.939 E14.00032
G1 X147.792 Y174.891 E14.13724
G1 X145.653 Y174.75 E14.27197
G1 X143.511 Y174.516 E14.4074
G1 X141.358 Y174.186 E14.5443
G1 X139.22 Y173.762 E14.68129
G1 X137.092 Y173.242 E14.81897
G1 X134.989 Y172.63 E14.95663
G1 X132.914 Y171.926 E15.09435
G1 X130.861 Y171.127 E15.23281
G1 X128.878 Y170.253 E15.36901
G1 X126.914 Y169.283 E15.50668
G1 X125.036 Y168.252 E15.64133
G1 X123.193 Y167.135 E15.77678
G1 X121.38 Y165.925 E15.91378
G1 X119.613 Y164.631 E16.05143
G1 X117.895 Y163.252 E16.18989
G1 X116.257 Y161.815 E16.32684
G1 X114.666 Y160.291 E16.46531
G1 X113.161 Y158.717 E16.60218
G1 X111.748 Y157.105 E16.73691
G1 X110.399 Y155.425 E16.87233
G1 X109.109 Y153.669 E17.00928
G1 X107.898 Y151.858 E17.14621
G1 X106.76 Y149.985 E17.28396
G1 X105.701 Y148.054 E17.42238
G1 X104.737 Y146.1 E17.55932
G1 X103.851 Y144.083 E17.69778
G1 X103.062 Y142.052 E17.83473
G1 X102.374 Y140.023 E17.96939
G1 X101.77 Y137.954 E18.10486
G1 X101.251 Y135.838 E18.2418
G1 X100.824 Y133.701 E18.37877
G1 X100.49 Y131.536 E18.51645
G1 X100.251 Y129.359 E18.6541
G1 X100.108 Y127.172 E18.79185
G1 X100.061 Y124.97 E18.93028
G1 X100.109 Y122.792 E19.0672
G1 X100.25 Y120.653 E19.20193
G1 X100.484 Y118.511 E19.33736
G1 X100.814 Y116.358 E19.47426
G1 X101.238 Y114.22 E19.61125
G1 X101.758 Y112.092 E19.74893
G1 X102.374 Y109.977 E19.88738
G1 X103.074 Y107.914 E20.0243
G1 X103.873 Y105.861 E20.16276
G1 X104.752 Y103.868 E20.29966
G1 X105.717 Y101.914 E20.43663
G1 X106.754 Y100.025 E20.57207
G1 X107.866 Y98.193 E20.70677
G1 X109.075 Y96.38 E20.84373
G1 X110.369 Y94.613 E20.98138
G1 X111.692 Y92.965 E21.11421
G1 X112.113 Y93.303 F7800
G1 F1800
G1 X113.587 Y91.617 E21.25496
G1 X115.086 Y90.052 E21.39116
G1 X116.644 Y88.563 E21.52661
G1 X118.247 Y87.158 E21.66058
G1 X119.909 Y85.823 E21.79457
G1 X121.646 Y84.548 E21.93
G1 X123.438 Y83.35 E22.06548
G1 X125.29 Y82.225 E22.20167
G1 X127.19 Y81.182 E22.3379
G1 X129.123 Y80.229 E22.47335
G1 X131.118 Y79.352 E22.61032
G1 X133.127 Y78.572 E22.74577
G1 X135.145 Y77.887 E22.87971
G1 X137.191 Y77.29 E23.01367
G1 X139.285 Y76.777 E23.14917
G1 X141.398 Y76.355 E23.2846
G1 X143.552 Y76.023 E23.42158
G1 X145.718 Y75.786 E23.55853
G1 X147.869 Y75.646 E23.69401
G1 X149.976 Y75.601 E23.82647
G1 X150.448 Y75.61 E23.85614
G1 X152.178 Y75.649 E23.9649
G1 X154.282 Y75.786 E24.09742
G1 X156.424 Y76.02 E24.23285
G1 X158.555 Y76.347 E24.36835
G1 X160.669 Y76.766 E24.5038
G1 X162.774 Y77.281 E24.64
G1 X164.855 Y77.887 E24.77623
G1 X166.907 Y78.584 E24.91244
G1 X168.926 Y79.37 E25.04861
G1 X170.899 Y80.239 E25.18411
G1 X172.831 Y81.193 E25.31954
G1 X174.7 Y82.219 E25.45355
G1 X176.522 Y83.324 E25.58748
G1 X178.315 Y84.521 E25.72298
G1 X180.054 Y85.794 E25.85843
G1 X181.753 Y87.158 E25.99537
G1 X183.383 Y88.587 E26.13161
G1 X184.948 Y90.086 E26.26781
G1 X186.437 Y91.644 E26.40326
G1 X187.842 Y93.247 E26.53723
G1 X189.177 Y94.909 E26.67122
G1 X190.452 Y96.646 E26.80665
G1 X191.65 Y98.438 E26.94213
G1 X192.775 Y100.29 E27.07832
G1 X193.818 Y102.19 E27.21455
G1 X194.776 Y104.134 E27.35076
G1 X195.648 Y106.118 E27.48697
G1 X196.428 Y108.127 E27.62242
G1 X197.113 Y110.145 E27.75636
G1 X197.71 Y112.192 E27.89038
G1 X198.223 Y114.285 E28.02582
G1 X198.645 Y116.398 E28.16125
G1 X198.974 Y118.528 E28.29671
G1 X199.212 Y120.694 E28.43367
G1 X199.353 Y122.857 E28.56991
G1 X199.4 Y125.024 E28.70614
M73 P2 R27
G1 X199.351 Y127.178 E28.84156
G1 X199.212 Y129.305 E28.97553
G1 X198.98 Y131.424 E29.10951
G1 X198.653 Y133.555 E29.24501
G1 X198.234 Y135.669 E29.38046
G1 X197.722 Y137.763 E29.51595
G1 X197.113 Y139.855 E29.65289
G1 X196.416 Y141.907 E29.7891
G1 X195.63 Y143.926 E29.92527
G1 X194.766 Y145.888 E30.06001
G1 X193.807 Y147.831 E30.19619
G1 X192.781 Y149.7 E30.3302
G1 X191.676 Y151.522 E30.46413
G1 X190.479 Y153.315 E30.59963
G1 X189.199 Y155.063 E30.7358
G1 X187.842 Y156.753 E30.87202
G1 X186.413 Y158.383 E31.00826
G1 X184.914 Y159.948 E31.14446
G1 X183.356 Y161.437 E31.27991
G1 X181.762 Y162.835 E31.41317
G1 X180.091 Y164.177 E31.54787
G1 X178.354 Y165.452 E31.6833
G1 X176.562 Y166.65 E31.81878
G1 X174.71 Y167.775 E31.95497
G1 X172.81 Y168.818 E32.0912
G1 X170.877 Y169.771 E32.22665
G1 X168.882 Y170.648 E32.36362
G1 X166.873 Y171.428 E32.49907
G1 X164.855 Y172.113 E32.63301
G1 X162.808 Y172.71 E32.76703
G1 X160.715 Y173.223 E32.90247
G1 X158.602 Y173.645 E33.0379
G1 X156.46 Y173.975 E33.17412
G1 X154.305 Y174.212 E33.31038
G1 X152.143 Y174.353 E33.44655
G1 X149.976 Y174.4 E33.58278
G1 X147.822 Y174.351 E33.7182
G1 X145.695 Y174.212 E33.85217
G1 X143.576 Y173.98 E33.98615
G1 X141.445 Y173.653 E34.12165
G1 X139.331 Y173.234 E34.2571
G1 X137.226 Y172.719 E34.3933
G1 X135.145 Y172.113 E34.52953
G1 X133.093 Y171.416 E34.66574
G1 X131.074 Y170.63 E34.80191
G1 X129.112 Y169.766 E34.93665
G1 X127.169 Y168.807 E35.07283
G1 X125.31 Y167.787 E35.2061
G1 X123.478 Y166.676 E35.34076
G1 X121.685 Y165.479 E35.47626
G1 X119.937 Y164.199 E35.61243
G1 X118.247 Y162.842 E35.74865
G1 X116.626 Y161.421 E35.88414
G1 X115.052 Y159.914 E36.0211
G1 X113.563 Y158.356 E36.15655
G1 X112.165 Y156.762 E36.28981
G1 X110.823 Y155.091 E36.42451
G1 X109.548 Y153.354 E36.55994
G1 X108.35 Y151.562 E36.69542
G1 X107.231 Y149.72 E36.83088
G1 X106.182 Y147.81 E36.96784
G1 X105.229 Y145.877 E37.10329
G1 X104.352 Y143.882 E37.24026
G1 X103.572 Y141.873 E37.37571
G1 X102.887 Y139.855 E37.50965
G1 X102.29 Y137.809 E37.64361
G1 X101.777 Y135.715 E37.77911
G1 X101.355 Y133.602 E37.91454
G1 X101.026 Y131.472 E38.05
G1 X100.788 Y129.306 E38.18696
G1 X100.647 Y127.143 E38.3232
G1 X100.6 Y124.976 E38.45943
G1 X100.649 Y122.822 E38.59485
G1 X100.788 Y120.695 E38.72882
G1 X101.02 Y118.576 E38.8628
G1 X101.347 Y116.445 E38.9983
G1 X101.766 Y114.331 E39.13375
G1 X102.278 Y112.238 E39.26918
G1 X102.887 Y110.145 E39.40618
G1 X103.584 Y108.093 E39.54239
G1 X104.37 Y106.074 E39.67856
G1 X105.239 Y104.101 E39.81406
G1 X106.193 Y102.169 E39.94949
G1 X107.219 Y100.3 E40.0835
G1 X108.324 Y98.478 E40.21743
G1 X109.521 Y96.685 E40.35293
G1 X110.802 Y94.937 E40.48914
G1 X112.056 Y93.373 E40.61513
G1 X112.477 Y93.711 F7800
G1 F1800
G1 X113.981 Y91.987 E40.75892
G1 X115.464 Y90.438 E40.8937
G1 X117.004 Y88.965 E41.02764
G1 X118.589 Y87.575 E41.16014
G1 X120.242 Y86.248 E41.29337
G1 X121.961 Y84.987 E41.42736
G1 X123.733 Y83.802 E41.56134
G1 X125.555 Y82.695 E41.69533
G1 X127.434 Y81.664 E41.83004
G1 X129.346 Y80.721 E41.96403
G1 X131.319 Y79.853 E42.09951
G1 X133.306 Y79.081 E42.23349
G1 X135.302 Y78.404 E42.36596
G1 X137.337 Y77.81 E42.4992
G1 X139.408 Y77.302 E42.63322
G1 X141.498 Y76.886 E42.76716
G1 X143.617 Y76.559 E42.90192
G1 X145.759 Y76.325 E43.03735
G1 X147.886 Y76.186 E43.17132
G1 X149.982 Y76.14 E43.30309
G1 X150.436 Y76.15 E43.33163
G1 X152.149 Y76.188 E43.43932
G1 X154.241 Y76.325 E43.57109
G1 X156.36 Y76.556 E43.70506
G1 X158.467 Y76.88 E43.83904
G1 X160.558 Y77.295 E43.97303
G1 X162.629 Y77.801 E44.10702
G1 X164.687 Y78.4 E44.24174
G1 X166.717 Y79.089 E44.37648
G1 X168.714 Y79.866 E44.51116
G1 X170.665 Y80.726 E44.64517
G1 X172.577 Y81.669 E44.77916
G1 X174.425 Y82.683 E44.91165
G1 X176.237 Y83.783 E45.04488
G1 X178.01 Y84.966 E45.17884
G1 X179.73 Y86.226 E45.31285
G1 X181.402 Y87.568 E45.4476
G1 X183.013 Y88.981 E45.58228
G1 X184.562 Y90.464 E45.71706
G1 X186.035 Y92.004 E45.851
G1 X187.425 Y93.589 E45.9835
G1 X188.752 Y95.242 E46.11673
G1 X190.013 Y96.961 E46.25072
G1 X191.198 Y98.733 E46.3847
G1 X192.305 Y100.555 E46.51869
G1 X193.336 Y102.434 E46.6534
G1 X194.284 Y104.356 E46.7881
G1 X195.147 Y106.319 E46.92287
G1 X195.919 Y108.306 E47.05685
G1 X196.596 Y110.302 E47.18932
G1 X197.19 Y112.337 E47.32256
G1 X197.698 Y114.408 E47.45658
G1 X198.114 Y116.498 E47.59052
G1 X198.439 Y118.605 E47.72451
G1 X198.673 Y120.736 E47.85925
G1 X198.813 Y122.875 E47.99398
G1 X198.86 Y125.018 E48.1287
G1 X198.812 Y127.149 E48.26267
G1 X198.674 Y129.252 E48.39513
G1 X198.444 Y131.36 E48.52841
G1 X198.12 Y133.467 E48.66239
G1 X197.705 Y135.558 E48.79638
G1 X197.199 Y137.629 E48.93037
G1 X196.6 Y139.687 E49.06509
G1 X195.911 Y141.717 E49.19983
G1 X195.134 Y143.714 E49.33451
G1 X194.274 Y145.665 E49.46852
G1 X193.331 Y147.577 E49.60251
G1 X192.317 Y149.425 E49.735
G1 X191.217 Y151.237 E49.86823
G1 X190.034 Y153.01 E50.00219
G1 X188.774 Y154.73 E50.1362
G1 X187.432 Y156.402 E50.27095
G1 X186.019 Y158.013 E50.40563
G1 X184.536 Y159.562 E50.54041
G1 X182.996 Y161.035 E50.67435
G1 X181.411 Y162.425 E50.80685
G1 X179.758 Y163.752 E50.94008
G1 X178.039 Y165.013 E51.07407
G1 X176.267 Y166.198 E51.20805
G1 X174.445 Y167.305 E51.34204
G1 X172.566 Y168.336 E51.47675
G1 X170.654 Y169.279 E51.61074
G1 X168.681 Y170.147 E51.74622
G1 X166.694 Y170.919 E51.8802
G1 X164.698 Y171.596 E52.01267
M73 P2 R26
G1 X162.663 Y172.19 E52.14591
G1 X160.592 Y172.698 E52.27993
G1 X158.502 Y173.114 E52.41387
G1 X156.383 Y173.441 E52.54863
G1 X154.253 Y173.674 E52.6833
G1 X152.113 Y173.814 E52.81809
G1 X149.982 Y173.86 E52.95206
G1 X147.851 Y173.812 E53.08603
G1 X145.747 Y173.674 E53.21855
G1 X143.64 Y173.444 E53.35176
G1 X141.533 Y173.12 E53.48574
G1 X139.442 Y172.705 E53.61973
G1 X137.36 Y172.196 E53.75444
G1 X135.302 Y171.596 E53.88917
G1 X133.283 Y170.911 E54.02317
G1 X131.286 Y170.134 E54.15785
G1 X129.346 Y169.279 E54.2911
G1 X127.423 Y168.331 E54.42585
G1 X125.575 Y167.317 E54.55834
G1 X123.763 Y166.217 E54.69157
G1 X121.99 Y165.034 E54.82553
G1 X120.27 Y163.774 E54.95954
G1 X118.598 Y162.432 E55.09429
G1 X116.995 Y161.027 E55.22826
G1 X115.438 Y159.536 E55.36375
G1 X113.965 Y157.996 E55.49769
G1 X112.575 Y156.411 E55.63019
G1 X111.248 Y154.758 E55.76342
G1 X109.987 Y153.039 E55.89741
G1 X108.802 Y151.267 E56.03139
G1 X107.695 Y149.445 E56.16538
G1 X106.658 Y147.556 E56.30082
G1 X105.716 Y145.644 E56.43478
G1 X104.853 Y143.681 E56.56955
G1 X104.081 Y141.694 E56.70353
G1 X103.404 Y139.698 E56.836
G1 X102.81 Y137.663 E56.96924
G1 X102.302 Y135.592 E57.10326
G1 X101.886 Y133.502 E57.2372
G1 X101.561 Y131.395 E57.37119
G1 X101.326 Y129.253 E57.50663
G1 X101.187 Y127.125 E57.64066
G1 X101.14 Y124.982 E57.77538
G1 X101.188 Y122.851 E57.90935
G1 X101.326 Y120.748 E58.04181
G1 X101.556 Y118.64 E58.17509
G1 X101.88 Y116.533 E58.30907
G1 X102.295 Y114.442 E58.44306
G1 X102.801 Y112.371 E58.57705
G1 X103.4 Y110.313 E58.71177
G1 X104.089 Y108.284 E58.84645
G1 X104.866 Y106.286 E58.98119
G1 X105.726 Y104.335 E59.1152
G1 X106.669 Y102.423 E59.24919
G1 X107.683 Y100.575 E59.38168
G1 X108.783 Y98.763 E59.51491
G1 X109.966 Y96.99 E59.64887
G1 X111.233 Y95.261 E59.78359
G1 X112.421 Y93.781 E59.90287
M73 P3 R26
G1 X112.842 Y94.119 F7800
G1 F1800
G1 X114.383 Y92.347 E60.05047
G1 X115.841 Y90.824 E60.18298
G1 X117.364 Y89.367 E60.31545
G1 X118.941 Y87.985 E60.44724
G1 X120.575 Y86.673 E60.57895
G1 X122.275 Y85.426 E60.71146
G1 X124.028 Y84.254 E60.84399
G1 X125.83 Y83.16 E60.97649
G1 X127.678 Y82.145 E61.10901
G1 X129.569 Y81.213 E61.24151
G1 X131.52 Y80.354 E61.37549
G1 X133.485 Y79.59 E61.508
G1 X135.459 Y78.92 E61.63902
G1 X137.483 Y78.33 E61.77153
G1 X139.53 Y77.828 E61.904
G1 X141.598 Y77.416 E62.03653
G1 X143.693 Y77.094 E62.16975
G1 X145.8 Y76.863 E62.30297
G1 X147.904 Y76.726 E62.43549
G1 X149.988 Y76.68 E62.5665
G1 X150.425 Y76.689 E62.59397
G1 X152.119 Y76.727 E62.70047
G1 X154.2 Y76.863 E62.83154
G1 X156.295 Y77.092 E62.964
G1 X158.379 Y77.412 E63.09652
G1 X160.447 Y77.823 E63.22904
G1 X162.495 Y78.324 E63.36156
G1 X164.53 Y78.917 E63.49478
G1 X166.526 Y79.594 E63.62725
G1 X168.502 Y80.363 E63.76052
G1 X170.431 Y81.212 E63.89298
G1 X172.322 Y82.145 E64.02551
G1 X174.16 Y83.154 E64.15729
G1 X175.952 Y84.241 E64.28902
G1 X177.705 Y85.412 E64.42152
G1 X179.406 Y86.658 E64.55404
G1 X181.059 Y87.985 E64.68727
G1 X182.644 Y89.375 E64.81977
G1 X184.176 Y90.841 E64.95304
G1 X185.633 Y92.364 E65.08551
G1 X187.015 Y93.941 E65.2173
G1 X188.327 Y95.575 E65.34901
G1 X189.574 Y97.275 E65.48152
G1 X190.746 Y99.028 E65.61405
G1 X191.84 Y100.83 E65.74655
