; generated by PrusaSlicer 2.6.1+win64 on 2023-09-23 at 11:02:11 UTC

; 

; external perimeters extrusion width = 0.60mm
; perimeters extrusion width = 0.60mm
; infill extrusion width = 0.65mm
; solid infill extrusion width = 0.60mm
; top infill extrusion width = 0.65mm
; support material extrusion width = 0.65mm
; first layer extrusion width = 0.60mm

M73 P0 R27
;TYPE:Custom
M104 S215 ; set extruder temp
M140 S60 ; set bed temp
M190 S60 ; wait for bed temp
M109 S215 ; wait for extruder temp

G28 ; home all
BED_MESH_PROFILE LOAD=default;

G1 Z2.0 F3000 ; Move Z Axis up little to prevent scratching of Heat Bed
G1 X0.1 Y5 Z0.28 F5000.0 ; Move to start position


G92 E0 ; Reset Extruder
G1 Z2.0 F3000 ; Move Z Axis up little to prevent scratching of Heat Bed
G1 X0.1 Y10 Z0.28 F5000.0 ; Move to start position

G1 X0.1 Y200 Z0.28 F1500.0 E15 ; Draw the first line
G1 X0.4 Y200 Z0.28 F5000.0 ; Move to side a little
G1 X0.4 Y10 Z0.28 F1500.0 E30 ; Draw the second line


G92 E0 ; Reset Extruder
G1 Z0.5 F3000 ; Move Z Axis up little to prevent scratching of Heat Bed
M117 Godmode is enabled
G21 ; set units to millimeters
G90 ; use absolute coordinates
M82 ; use absolute distances for extrusion
G92 E0
; Filament gcode
M107
;LAYER_CHANGE
;Z:0.3
;HEIGHT:0.3
M73 P1 R27
G1 Z.3 F7800
G1 E-1.4 F2100
G92 E0
G1 Z.8 F7800
G1 X137.934 Y78.475
G1 Z.3
G1 E1.4 F2100
;TYPE:Skirt/Brim
;WIDTH:0.6
G1 F1800
G1 X138.33 Y77.847 E1.4496
G1 X138.78 Y77.436 E1.49031
G1 X139.015 Y77.3 E1.50845
G1 X140.166 Y76.956 E1.5887
G1 X157.071 Y76.935 E2.71805
G1 X157.785 Y76.962 E2.76578
G1 X158.642 Y77.079 E2.82356
G1 X158.929 Y77.177 E2.84382
G1 X159.431 Y77.486 E2.8832
G1 X159.938 Y78.021 E2.93244
G1 X160.263 Y78.652 E2.97986
G1 X160.312 Y78.875 E2.99511
G1 X160.42 Y80.298 E3.09045
G1 X160.42 Y154.116 E8.02189
G1 X160.078 Y155.375 E8.10905
G1 X159.933 Y155.648 E8.1297
G1 X159.717 Y155.922 E8.15301
G1 X159.461 Y156.148 E8.17582
G1 X158.829 Y156.526 E8.22502
G1 X158.517 Y156.643 E8.24728
G1 X158.092 Y156.714 E8.27607
G1 X157.86 Y156.707 E8.29158
G1 X157.453 Y156.638 E8.31916
G1 X156.99 Y156.712 E8.35048
G1 X156.748 Y156.709 E8.36665
G1 X156.38 Y156.643 E8.39163
G1 X156.071 Y156.526 E8.4137
G1 X155.439 Y156.148 E8.4629
G1 X155.183 Y155.922 E8.48571
G1 X154.967 Y155.648 E8.50902
G1 X154.845 Y155.431 E8.52565
G1 X154.48 Y154.116 E8.61682
G1 X154.48 Y82.732 E13.38566
G1 X140.257 Y82.722 E14.33583
M73 P1 R26
G1 X139.08 Y82.394 E14.41746
G1 X138.816 Y82.256 E14.43736
G1 X138.515 Y82.021 E14.46287
G1 X138.326 Y81.809 E14.48184
G1 X137.902 Y81.126 E14.53555
G1 X137.816 Y80.888 E14.55246
G1 X137.732 Y80.304 E14.59188
G1 X137.786 Y79.833 E14.62355
G1 X137.734 Y79.382 E14.65388
G1 X137.758 Y79.033 E14.67725
G1 X137.907 Y78.561 E14.71032
G1 X138.407 Y78.728 F7800
G1 F1800
G1 X138.762 Y78.167 E14.75467
G1 X139.109 Y77.859 E14.78567
G1 X139.246 Y77.783 E14.79614
G1 X140.279 Y77.48 E14.86806
G1 X157.056 Y77.47 E15.98885
G1 X157.728 Y77.495 E16.03377
G1 X158.505 Y77.597 E16.08612
G1 X158.686 Y77.655 E16.09882
G1 X159.069 Y77.883 E16.1286
G1 X159.523 Y78.361 E16.17264
G1 X159.749 Y78.806 E16.20598
G1 X159.78 Y78.938 E16.21504
G1 X159.885 Y80.308 E16.30683
G1 X159.885 Y154.08 E21.2352
G1 X159.589 Y155.156 E21.30975
G1 X159.495 Y155.338 E21.32343
G1 X159.312 Y155.572 E21.34328
G1 X159.165 Y155.701 E21.35635
G1 X158.575 Y156.054 E21.40228
G1 X158.398 Y156.121 E21.41492
G1 X158.072 Y156.178 E21.43703
G1 X157.928 Y156.176 E21.44665
G1 X157.456 Y156.095 E21.47864
G1 X156.932 Y156.179 E21.51409
G1 X156.788 Y156.174 E21.52372
G1 X156.503 Y156.121 E21.54309
G1 X156.325 Y156.054 E21.5558
G1 X155.735 Y155.701 E21.60173
G1 X155.588 Y155.572 E21.6148
G1 X155.402 Y155.335 E21.63493
G1 X155.33 Y155.202 E21.64503
G1 X155.015 Y154.079 E21.72295
G1 X155.015 Y82.196 E26.52512
G1 X140.364 Y82.196 E27.50389
G1 X139.295 Y81.903 E27.57794
G1 X139.119 Y81.814 E27.59112
G1 X138.892 Y81.64 E27.61023
G1 X138.765 Y81.502 E27.62276
G1 X138.392 Y80.907 E27.66967
G1 X138.34 Y80.771 E27.6794
G1 X138.268 Y80.327 E27.70945
G1 X138.326 Y79.833 E27.74268
G1 X138.269 Y79.343 E27.77564
G1 X138.281 Y79.154 E27.78829
G1 X138.382 Y78.814 E27.81198
G1 X138.883 Y78.977 F7800
G1 F1800
G1 X139.191 Y78.49 E27.85047
G1 X139.425 Y78.292 E27.87095
G1 X140.39 Y78.006 E27.93819
G1 X157.052 Y78.006 E29.0513
G1 X157.671 Y78.028 E29.09268
M73 P2 R26
G1 X158.452 Y78.137 E29.14536
G1 X158.71 Y78.283 E29.16516
G1 X159.106 Y78.7 E29.20358
G1 X159.248 Y79.005 E29.22606
G1 X159.349 Y80.318 E29.31403
G1 X159.349 Y154.042 E34.23919
G1 X159.059 Y155.027 E34.30779
G1 X158.869 Y155.254 E34.32757
G1 X158.275 Y155.599 E34.37346
G1 X157.992 Y155.643 E34.39259
G1 X157.523 Y155.563 E34.42437
G1 X157.377 Y155.563 E34.43412
G1 X156.86 Y155.643 E34.46907
G1 X156.58 Y155.582 E34.48821
G1 X156.031 Y155.254 E34.53093
G1 X155.841 Y155.027 E34.55071
G1 X155.551 Y154.041 E34.61937
G1 X155.551 Y81.661 E39.45475
G1 X140.402 Y81.661 E40.46679
G1 X139.425 Y81.374 E40.53482
G1 X139.204 Y81.194 E40.55386
G1 X138.875 Y80.676 E40.59486
G1 X138.805 Y80.346 E40.6174
G1 X138.865 Y79.833 E40.6519
G1 X138.803 Y79.303 E40.68755
G1 X138.86 Y79.064 E40.70396
G1 X139.364 Y79.22 F7800
G1 F1800
G1 X139.615 Y78.821 E40.73545
G1 X139.689 Y78.764 E40.74169
G1 X140.431 Y78.541 E40.79345
G1 X157.047 Y78.541 E41.90349
G1 X157.614 Y78.56 E41.94139
G1 X158.275 Y78.648 E41.98594
G1 X158.357 Y78.689 E41.99206
G1 X158.682 Y79.031 E42.02358
G1 X158.719 Y79.115 E42.02971
G1 X158.813 Y80.329 E42.11105
G1 X158.813 Y154.002 E47.03281
G1 X158.59 Y154.756 E47.08534
G1 X158.53 Y154.832 E47.09181
G1 X158.106 Y155.086 E47.12483
G1 X158.012 Y155.103 E47.13121
G1 X157.568 Y155.027 E47.1613
G1 X157.332 Y155.027 E47.17707
G1 X156.888 Y155.103 E47.20716
G1 X156.793 Y155.086 E47.21361
G1 X156.37 Y154.832 E47.24657
G1 X156.31 Y154.756 E47.25304
G1 X156.087 Y154.001 E47.30563
G1 X156.087 Y81.125 E52.17414
G1 X140.442 Y81.125 E53.21931
G1 X139.692 Y80.903 E53.27156
G1 X139.618 Y80.847 E53.27776
G1 X139.364 Y80.447 E53.30941
G1 X139.343 Y80.357 E53.31558
G1 X139.404 Y79.833 E53.35082
G1 X139.344 Y79.307 E53.38619
G1 X139.891 Y79.387 F7800
G1 F1800
G1 X139.991 Y79.23 E53.39863
G1 X140.474 Y79.077 E53.43248
G1 X157.043 Y79.077 E54.53938
G1 X157.558 Y79.093 E54.5738
G1 X158.066 Y79.16 E54.60803
G1 X158.196 Y79.298 E54.6207
G1 X158.278 Y80.339 E54.69046
G1 X158.278 Y153.959 E59.60867
G1 X158.125 Y154.45 E59.64303
G1 X157.958 Y154.551 E59.65607
G1 X157.614 Y154.492 E59.67939
G1 X157.286 Y154.492 E59.7013
G1 X156.942 Y154.551 E59.72462
G1 X156.775 Y154.45 E59.73766
G1 X156.622 Y153.959 E59.77202
G1 X156.622 Y80.589 E64.67353
G1 X140.484 Y80.589 E65.75164
M73 P3 R26
G1 X139.992 Y80.436 E65.78606
G1 X139.892 Y80.278 E65.79855
G1 X139.943 Y79.833 E65.82847
G1 X139.902 Y79.476 E65.85248
G1 E64.45248 F2100
G92 E0
G1 Z.8 F7800
G1 X153.59 Y153.741
G1 Z.3
G1 E1.4 F2100
;TYPE:Support material
G1 F1800
G1 X153.59 Y154.494 E1.4503
G1 X154.041 Y156.141 E1.56438
G1 X155.251 Y157.33 E1.67771
G1 X156.851 Y157.754 E1.78829
G1 X158.05 Y157.754 E1.86839
G1 X159.697 Y157.303 E1.98247
G1 X160.382 Y156.606 E2.04776
G1 X161.161 Y157.376 E2.12093
G1 X161.8 Y158.291 E2.19549
G1 X161.984 Y158.685 E2.22454
G1 X162.277 Y159.331 E2.27193
G1 X162.553 Y160.42 E2.34698
G1 X162.63 Y161.548 E2.42251
G1 X162.502 Y162.673 E2.49815
G1 X162.178 Y163.744 E2.5729
G1 X161.651 Y164.771 E2.65001
G1 X160.959 Y165.666 E2.72559
G1 X160.104 Y166.432 E2.80228
G1 X159.111 Y167.025 E2.87955
G1 X158.564 Y167.224 E2.91844
G1 X158.482 Y168.03 E2.97256
G1 X158.167 Y169.107 E3.04752
G1 X157.649 Y170.136 E3.12448
G1 X156.967 Y171.033 E3.19976
G1 X156.128 Y171.797 E3.27557
G1 X155.194 Y172.377 E3.34902
G1 X154.804 Y172.541 E3.37728
G1 X154.096 Y172.81 E3.42788
G1 X152.994 Y173.022 E3.50285
G1 X151.863 Y173.029 E3.57841
G1 X150.751 Y172.831 E3.65387
G1 X149.696 Y172.435 E3.72915
G1 X148.733 Y171.858 E3.80415
G1 X147.949 Y171.167 E3.87397
G1 X147.684 Y170.867 E3.90071
G1 X147.239 Y170.285 E3.94965
G1 X147.031 Y169.943 E3.97639
G1 X146.708 Y169.306 E4.0241
G1 X146.556 Y168.912 E4.05231
G1 X146.361 Y168.25 E4.09841
G1 X146.277 Y167.809 E4.1284
G1 X146.208 Y167.15 E4.17267
G1 X146.203 Y166.672 E4.2046
G1 X146.254 Y166.041 E4.24689
G1 X146.34 Y165.539 E4.28091
G1 X146.497 Y164.958 E4.32112
G1 X146.681 Y164.449 E4.35728
G1 X146.928 Y163.935 E4.39538
G1 X147.244 Y163.393 E4.43729
G1 X147.929 Y162.535 E4.51064
G1 X148.217 Y162.286 E4.53607
G1 X148.077 Y162.06 E4.55383
G1 X147.695 Y161.182 E4.6178
G1 X147.465 Y160.167 E4.68733
G1 X147.46 Y159.034 E4.76302
G1 X147.608 Y158.213 E4.81875
G1 X147.733 Y157.797 E4.84777
G1 X147.978 Y157.175 E4.89243
G1 X148.495 Y156.321 E4.95912
G1 X149.188 Y155.59 E5.02641
G1 X149.792 Y155.165 E5.07575
G1 X150.137 Y154.263 E5.14027
G1 X152.549 Y153.735 E5.30522
G1 X153.51 Y153.741 E5.36942
G1 E3.96942 F2100
G92 E0
G1 Z.8 F7800
G1 X161.903 Y163.755
G1 Z.3
G1 E1.4 F2100
G1 F1800
G1 X161.903 Y159.816 E1.66315
G1 X161.82 Y159.491 E1.68556
G1 X161.381 Y158.533 E1.75596
G1 X161.308 Y158.428 E1.7645
G1 X161.308 Y164.386 E2.16253
G1 X161.243 Y164.51 E2.17188
G1 X160.712 Y165.197 E2.22989
G1 X160.712 Y157.61 E2.73674
G1 X160.387 Y157.288 E2.7673
G1 X160.117 Y157.563 E2.79305
G1 X160.117 Y165.773 E3.34152
G1 X159.817 Y166.042 E3.36844
G1 X159.522 Y166.218 E3.39139
G1 X159.522 Y157.85 E3.95042
G1 X158.927 Y158.014 E3.99165
G1 X158.927 Y166.573 E4.56344
G1 X158.332 Y166.795 E4.60587
G1 X158.332 Y158.177 E5.1816
G1 X158.115 Y158.236 E5.19662
G1 X157.737 Y158.236 E5.22187
G1 X157.737 Y168.86 E5.93161
G1 X157.716 Y168.931 E5.93656
G1 X157.239 Y169.878 E6.0074
G1 X157.142 Y170.007 E6.01818
G1 X157.142 Y158.236 E6.80455
G1 X156.788 Y158.236 E6.8282
G1 X156.546 Y158.172 E6.84492
G1 X156.546 Y170.764 E7.68613
G1 X155.951 Y171.306 E7.7399
G1 X155.951 Y158.014 E8.62788
G1 X155.356 Y157.857 E8.66899
G1 X155.356 Y171.709 E9.59438
G1 X154.972 Y171.947 E9.62456
G1 X154.761 Y172.036 E9.63986
G1 X154.761 Y157.524 E10.60934
G1 X154.166 Y156.939 E10.66508
G1 X154.166 Y172.268 E11.68914
G1 X153.963 Y172.345 E11.70364
G1 X153.571 Y172.42 E11.7303
G1 X153.571 Y156.248 E12.81068
G1 X153.108 Y154.559 E12.92768
G1 X153.108 Y154.22 E12.95033
G1 X152.976 Y154.22 E12.95915
G1 X152.976 Y172.534 E14.18262
G1 X152.381 Y172.544 E14.22237
G1 X152.381 Y154.265 E15.44351
G1 X151.785 Y154.396 E15.48428
G1 X151.785 Y172.526 E16.69546
G1 X151.19 Y172.42 E16.73584
G1 X151.19 Y154.526 E17.93126
G1 X150.595 Y154.656 E17.97195
G1 X150.595 Y172.258 E19.14786
G1 X150 Y172.035 E19.19031
G1 X150 Y155.608 E20.28772
G1 X149.504 Y155.957 E20.32824
M73 P4 R26
G1 X149.405 Y156.062 E20.33788
G1 X149.405 Y171.698 E21.38245
G1 X149.019 Y171.467 E21.4125
G1 X148.81 Y171.283 E21.4311
G1 X148.81 Y156.731 E22.40325
G1 X148.412 Y157.389 E22.45462
G1 X148.215 Y157.89 E22.49058
G1 X148.215 Y161.772 E22.74992
G1 X148.215 Y171.08 F7800
G1 F1800
G1 X148.215 Y162.949 E23.29311
G1 X147.619 Y163.706 E23.35747
G1 X147.619 Y169.983 E23.77681
G1 X147.453 Y169.708 E23.79827
G1 X147.149 Y169.11 E23.84309
G1 X147.024 Y168.786 E23.86629
G1 X147.024 Y164.292 E24.16651
G1 E22.76651 F2100
G92 E0
G1 Z.8 F7800
G1 X157.186 Y80.362
G1 Z.3
G1 E1.4 F2100
;TYPE:External perimeter
;WIDTH:0.627198
G1 F1800
G1 X157.153 Y80.128 E1.41659
G1 X157.076 Y80.106 E1.42221
;WIDTH:0.591684
G1 X156.999 Y80.084 E1.42748
;WIDTH:0.55617
G1 X156.922 Y80.061 E1.43241
;WIDTH:0.520657
G1 X140.702 Y80.061 E2.35548
G1 X140.452 Y80.035 E2.36978
G1 X140.451 Y79.628 E2.39294
G1 X140.52 Y79.605 E2.39708
G1 X156.922 Y79.605 E3.33051
;WIDTH:0.527084
G1 X157.053 Y79.61 E3.33808
;WIDTH:0.560455
G1 X157.25 Y79.642 E3.35043
;WIDTH:0.593826
G1 X157.448 Y79.673 E3.36366
;WIDTH:0.627198
G1 X157.645 Y79.704 E3.37766
G1 X157.714 Y80.362 E3.4241
;WIDTH:0.59219
G1 X157.705 Y153.935 E8.2675
G1 X157.186 Y153.908 E8.30171
G1 X157.186 Y80.452 E13.13741
G1 X157.378 Y80.225 F7800
;LAYER_CHANGE
;Z:0.54
;HEIGHT:0.24
G1 Z.54 F7800
G1 E11.73741 F2100
G92 E0
G1 Z1.04 F7800
G1 X152.823 Y160.637
G1 Z.54
G1 E1.4 F2100
;TYPE:Support material
;WIDTH:0.65
G1 F4200
G1 X152.611 Y160.594 E1.41292
G1 X152.367 Y160.469 E1.42929
G1 X152.124 Y160.277 E1.44778
G1 X151.967 Y160.082 E1.46273
G1 X151.866 Y159.869 E1.47681
G1 X151.804 Y159.568 E1.49516
G1 X151.809 Y159.343 E1.5086
G1 X151.869 Y159.137 E1.52141
G1 X151.928 Y159.036 E1.5284
G1 X152.042 Y158.905 E1.53877
G1 X152.24 Y158.761 E1.55339
G1 X152.451 Y158.691 E1.56667
G1 X152.621 Y158.676 E1.57686
G1 X152.681 Y158.029 E1.61566
G1 X154.643 Y158.21 E1.73332
G1 X154.97 Y158.769 E1.77199
G1 X156.13 Y158.945 E1.84206
G1 X156.732 Y158.964 E1.87803
G1 X157.175 Y159.063 E1.90514
G1 X157.591 Y159.24 E1.93214
G1 X157.968 Y159.492 E1.95922
G1 X158.294 Y159.809 E1.98637
G1 X158.558 Y160.183 E2.01371
G1 X158.69 Y160.464 E2.03225
G1 X158.748 Y160.593 E2.0407
G1 X158.863 Y161.042 E2.06838
G1 X158.895 Y161.501 E2.09586
G1 X158.844 Y161.944 E2.12249
G1 X158.702 Y162.361 E2.1488
G1 X158.471 Y162.761 E2.17638
G1 X158.173 Y163.118 E2.20415
G1 X157.822 Y163.412 E2.23149
G1 X157.43 Y163.635 E2.25842
G1 X157.009 Y163.781 E2.28503
G1 X156.572 Y163.848 E2.31143
G1 X156.114 Y163.833 E2.3388
G1 X155.592 Y163.74 E2.37046
G1 X154.989 Y164.273 E2.41852
G1 X154.79 Y164.718 E2.44763
G1 X154.618 Y165.691 E2.50664
G1 X154.818 Y166.427 E2.55219
G1 X154.855 Y166.88 E2.57933
G1 X154.809 Y167.325 E2.60605
G1 X154.648 Y167.835 E2.63799
G1 X154.472 Y168.179 E2.66107
G1 X154.193 Y168.542 E2.68841
G1 X153.852 Y168.848 E2.71577
G1 X153.465 Y169.087 E2.74293
G1 X153.043 Y169.249 E2.76992
G1 X152.595 Y169.332 E2.79713
G1 X152.141 Y169.336 E2.82424
G1 X151.71 Y169.257 E2.85041
G1 X151.3 Y169.1 E2.87663
G1 X150.906 Y168.852 E2.90443
G1 X150.569 Y168.547 E2.93157
G1 X150.296 Y168.187 E2.95855
G1 X150.092 Y167.783 E2.98558
G1 X149.966 Y167.346 E3.01274
G1 X149.92 Y166.903 E3.03934
G1 X149.953 Y166.467 E3.06545
G1 X150.09 Y165.964 E3.09658
G1 X150.296 Y165.552 E3.12409
G1 X150.577 Y165.183 E3.15179
G1 X150.921 Y164.873 E3.17944
G1 X151.315 Y164.634 E3.20696
G1 X151.745 Y164.472 E3.2344
G1 X152.196 Y164.393 E3.26174
G1 X152.661 Y164.399 E3.28951
G1 X153.245 Y164.507 E3.32498
G1 X153.805 Y163.977 E3.37102
G1 X153.93 Y163.714 E3.38841
G1 X154.283 Y162.723 E3.45123
G1 X153.91 Y161.711 E3.51564
G1 X152.813 Y161.298 E3.58564
G1 X152.394 Y161.213 E3.61117
G1 X152.022 Y161.023 E3.63612
G1 X151.797 Y160.855 E3.65289
G1 X151.562 Y160.626 E3.67249
G1 X151.407 Y160.419 E3.68793
G1 X151.245 Y160.076 E3.71058
G1 X151.155 Y159.639 E3.73722
G1 X151.163 Y159.262 E3.75974
G1 X151.272 Y158.872 E3.78392
G1 X151.398 Y158.655 E3.7989
G1 X151.59 Y158.435 E3.81634
G1 X151.813 Y158.255 E3.83345
G1 X151.978 Y158.164 E3.8447
G1 X152.31 Y158.053 E3.86561
G1 X152.591 Y158.021 E3.8825
G1 X153.305 Y156.814 F7800
G1 F4200
G1 X153.874 Y156.927 E3.91714
G1 X154.386 Y157.15 E3.95049
G1 X154.833 Y157.47 E3.98332
G1 X155.198 Y157.87 E4.01566
G1 X155.374 Y158.173 E4.03659
G1 X156.189 Y158.297 E4.08582
G1 X156.814 Y158.317 E4.12316
G1 X157.374 Y158.441 E4.15741
G1 X157.902 Y158.666 E4.19168
G1 X158.379 Y158.985 E4.22595
G1 X158.79 Y159.385 E4.2602
G1 X159.123 Y159.855 E4.2946
G1 X159.28 Y160.193 E4.31686
G1 X159.364 Y160.377 E4.32894
G1 X159.508 Y160.938 E4.36353
G1 X159.547 Y161.516 E4.39813
G1 X159.482 Y162.087 E4.43245
G1 X159.297 Y162.631 E4.46676
G1 X159.006 Y163.135 E4.50151
G1 X158.635 Y163.579 E4.53606
G1 X158.195 Y163.948 E4.57035
G1 X157.7 Y164.23 E4.60437
G1 X157.166 Y164.415 E4.63812
G1 X156.611 Y164.5 E4.67165
G1 X156.046 Y164.481 E4.70541
G1 X155.787 Y164.435 E4.72112
G1 X155.525 Y164.667 E4.74202
G1 X155.416 Y164.91 E4.75792
G1 X155.284 Y165.661 E4.80346
G1 X155.461 Y166.315 E4.84392
G1 X155.508 Y166.888 E4.87825
G1 X155.449 Y167.458 E4.91247
G1 X155.251 Y168.082 E4.95157
G1 X155.024 Y168.527 E4.9814
G1 X154.672 Y168.985 E5.0159
G1 X154.243 Y169.371 E5.05036
G1 X153.755 Y169.672 E5.0846
G1 X153.221 Y169.877 E5.11876
G1 X152.658 Y169.982 E5.15296
G1 X152.085 Y169.987 E5.18718
G1 X151.534 Y169.886 E5.22063
G1 X151.009 Y169.685 E5.2542
G1 X150.511 Y169.372 E5.28933
G1 X150.087 Y168.988 E5.32349
G1 X149.742 Y168.533 E5.35759
G1 X149.485 Y168.021 E5.3918
G1 X149.325 Y167.471 E5.42601
