; HEADER_BLOCK_START
; generated by OrcaSlicer 1.7.0 on 2023-10-24 at 23:14:48
; total layer number: 57
; HEADER_BLOCK_END

; THUMBNAIL_BLOCK_START
; THUMBNAIL_BLOCK_END

; external perimeters extrusion width = 0.60mm
; perimeters extrusion width = 0.60mm
; infill extrusion width = 0.60mm
; solid infill extrusion width = 0.60mm
; top infill extrusion width = 0.60mm
; first layer extrusion width = 0.62mm

; EXECUTABLE_BLOCK_START
M73 P0 R6
;TYPE:Custom
M104 S216 ; set extruder temp
M140 S60 ; set bed temp
M190 S60 ; wait for bed temp
M109 S216 ; wait for extruder temp

G28 ; home all
BED_MESH_PROFILE LOAD=default;

G1 Z2.0 F3000 ; Move Z Axis up little to prevent scratching of Heat Bed
G1 X0.1 Y5 Z0.28 F5000.0 ; Move to start position


G92 E0 ; Reset Extruder
G1 Z2.0 F3000 ; Move Z Axis up little to prevent scratching of Heat Bed
G1 X0.1 Y10 Z0.28 F5000.0 ; Move to start position

G1 X0.1 Y200 Z0.28 F1500.0 E15 ; Draw the first line
G1 X0.4 Y200 Z0.28 F5000.0 ; Move to side a little
M73 P2 R6
G1 X0.4 Y10 Z0.28 F1500.0 E30 ; Draw the second line


G92 E0 ; Reset Extruder
G1 Z0.5 F3000 ; Move Z Axis up little to prevent scratching of Heat Bed
M117 Godmode is enabled
G90
G21
M83 ; use relative distances for extrusion
; filament start gcode
M106 S0
;LAYER_CHANGE
;Z:0.26
;HEIGHT:0.26
;BEFORE_LAYER_CHANGE
;0.26
G92 E0

M73 P3 R6
G1 E-1.15 F3600
;_SET_FAN_SPEED_CHANGING_LAYER
; Calib_Retraction_tower: Z_HEIGHT: 0.26, length:1
G1 X117.603 Y110.865 F9000
G1 Z.26
M73 P4 R6
G1 E1.15 F2400
;TYPE:Skirt
;WIDTH:0.62
G1 F1200
G1 X118.365 Y110.103 E.06573
G1 X118.987 Y109.627 E.04776
G1 X119.92 Y109.088 E.06573
G1 X120.644 Y108.788 E.04776
G1 X121.685 Y108.509 E.06573
G1 X123 Y108.372 E.08066
G1 X157.539 Y108.407 E2.10645
G1 X158.315 Y108.509 E.04776
G1 X159.356 Y108.788 E.06573
G1 X160.08 Y109.088 E.04776
G1 X161.013 Y109.627 E.06573
G1 X161.635 Y110.103 E.04776
G1 X162.397 Y110.865 E.06573
G1 X162.873 Y111.487 E.04776
G1 X163.412 Y112.42 E.06573
G1 X163.712 Y113.144 E.04776
G1 X163.991 Y114.185 E.06573
G1 X164.093 Y114.961 E.04776
G1 X164.128 Y124.5 E.58176
G1 X163.991 Y125.815 E.08066
M73 P5 R6
G1 X163.712 Y126.856 E.06573
G1 X163.412 Y127.58 E.04776
G1 X162.873 Y128.513 E.06573
G1 X162.397 Y129.135 E.04776
G1 X161.635 Y129.897 E.06573
G1 X161.013 Y130.373 E.04776
G1 X160.08 Y130.912 E.06573
G1 X159.356 Y131.212 E.04776
G1 X158.315 Y131.491 E.06573
G1 X157 Y131.628 E.08066
G1 X122.461 Y131.593 E2.10645
G1 X121.685 Y131.491 E.04776
G1 X120.644 Y131.212 E.06573
G1 X119.92 Y130.912 E.04776
G1 X118.987 Y130.373 E.06573
G1 X118.365 Y129.897 E.04776
G1 X117.603 Y129.135 E.06573
G1 X117.127 Y128.513 E.04776
G1 X116.588 Y127.58 E.06573
G1 X116.288 Y126.856 E.04776
G1 X116.009 Y125.815 E.06573
G1 X115.872 Y124.5 E.08066
G1 X115.872 Y115.5 E.54889
G1 X116.009 Y114.185 E.08066
G1 X116.288 Y113.144 E.06573
G1 X116.588 Y112.42 E.04776
G1 X117.127 Y111.487 E.06573
G1 X117.567 Y110.913 E.0441
G1 X118.014 Y111.257 F9000
G1 F1200
G1 X118.051 Y111.209 E.00366
G1 X118.709 Y110.551 E.05675
G1 X119.33 Y110.074 E.04776
G1 X120.136 Y109.609 E.05675
G1 X120.86 Y109.309 E.04776
G1 X121.758 Y109.069 E.05675
G1 X123 Y108.936 E.07616
G1 X157.465 Y108.966 E2.10196
G1 X158.242 Y109.069 E.04776
M73 P6 R6
G1 X159.14 Y109.309 E.05675
G1 X159.864 Y109.609 E.04776
G1 X160.67 Y110.074 E.05675
G1 X161.291 Y110.551 E.04776
G1 X161.949 Y111.209 E.05675
G1 X162.426 Y111.83 E.04776
G1 X162.891 Y112.636 E.05675
G1 X163.191 Y113.36 E.04776
G1 X163.431 Y114.258 E.05675
G1 X163.534 Y115.035 E.04776
G1 X163.564 Y124.5 E.57727
G1 X163.431 Y125.742 E.07616
G1 X163.191 Y126.64 E.05675
G1 X162.891 Y127.364 E.04776
G1 X162.426 Y128.17 E.05675
G1 X161.949 Y128.791 E.04776
G1 X161.291 Y129.449 E.05675
G1 X160.67 Y129.926 E.04776
G1 X159.864 Y130.391 E.05675
G1 X159.14 Y130.691 E.04776
G1 X158.242 Y130.931 E.05675
G1 X157 Y131.064 E.07616
G1 X122.535 Y131.034 E2.10196
G1 X121.758 Y130.931 E.04776
M73 P7 R6
G1 X120.86 Y130.691 E.05675
G1 X120.136 Y130.391 E.04776
G1 X119.33 Y129.926 E.05675
G1 X118.709 Y129.449 E.04776
G1 X118.051 Y128.791 E.05675
G1 X117.574 Y128.17 E.04776
G1 X117.109 Y127.364 E.05674
G1 X116.809 Y126.64 E.04776
G1 X116.569 Y125.742 E.05675
G1 X116.436 Y124.5 E.07616
G1 X116.436 Y115.5 E.54889
G1 X116.569 Y114.258 E.07616
G1 X116.809 Y113.36 E.05675
G1 X117.109 Y112.636 E.04776
G1 X117.574 Y111.83 E.05675
G1 X117.978 Y111.304 E.04044
G1 E-.7 F3600
;WIPE_START
G1 F1200
G1 X118.051 Y111.209 E-.036
G1 X118.673 Y110.587 E-.264
;WIPE_END
G1 X123.064 Y126.526 F9000
G1 E1 F2400
;TYPE:Inner wall
;WIDTH:0.62
G1 F1200
G1 X122.478 Y126.449 E.03424
G1 X121.991 Y126.247 E.03051
G1 X121.573 Y125.927 E.03051
G1 X121.253 Y125.509 E.03051
G1 X121.051 Y125.022 E.03051
G1 X120.974 Y124.436 E.03424
G1 X120.974 Y115.564 E.51405
G1 X121.051 Y114.978 E.03424
G1 X121.253 Y114.491 E.03051
G1 X121.573 Y114.073 E.03051
G1 X121.991 Y113.753 E.03051
G1 X122.478 Y113.551 E.03051
G1 X123.064 Y113.474 E.03424
G1 X156.936 Y113.474 E1.96251
G1 X157.522 Y113.551 E.03424
M73 P8 R6
G1 X158.009 Y113.753 E.03051
G1 X158.427 Y114.073 E.03051
G1 X158.747 Y114.491 E.03051
G1 X158.949 Y114.978 E.03051
G1 X159.026 Y115.71 E.04268
G1 X159.026 Y124.436 E.50555
G1 X158.949 Y125.022 E.03424
G1 X158.747 Y125.509 E.03051
G1 X158.427 Y125.927 E.03051
G1 X158.009 Y126.247 E.03051
G1 X157.522 Y126.449 E.03051
G1 X156.936 Y126.526 E.03424
G1 X123.124 Y126.526 E1.95903
G1 X123.027 Y127.09 F9000
;TYPE:Outer wall
G1 F1200
G1 X122.331 Y126.998 E.04069
G1 X121.707 Y126.74 E.03912
G1 X121.171 Y126.329 E.03912
G1 X120.76 Y125.793 E.03912
G1 X120.502 Y125.169 E.03912
G1 X120.41 Y124.473 E.04069
G1 X120.41 Y115.527 E.51833
G1 X120.502 Y114.831 E.04069
G1 X120.76 Y114.207 E.03912
G1 X121.171 Y113.671 E.03912
G1 X121.707 Y113.26 E.03912
G1 X122.331 Y113.002 E.03912
G1 X123.027 Y112.91 E.04069
G1 X156.973 Y112.91 E1.96679
G1 X157.669 Y113.002 E.04069
M73 P9 R6
G1 X158.293 Y113.26 E.03912
G1 X158.829 Y113.671 E.03912
G1 X159.24 Y114.207 E.03912
G1 X159.498 Y114.831 E.03912
G1 X159.59 Y115.71 E.05125
G1 X159.59 Y124.473 E.5077
G1 X159.498 Y125.169 E.04069
G1 X159.24 Y125.793 E.03912
G1 X158.829 Y126.329 E.03912
G1 X158.293 Y126.74 E.03912
G1 X157.669 Y126.998 E.03912
G1 X156.973 Y127.09 E.04069
G1 X123.087 Y127.09 E1.96331
G1 E-.7 F3600
;WIPE_START
M73 P10 R6
G1 F1200
G1 X122.331 Y126.998 E-.22855
G1 X122.111 Y126.907 E-.07145
;WIPE_END
G1 X156.584 Y113.655 F9000
G1 E1 F2400
;TYPE:Bottom surface
;WIDTH:0.624681
G1 F2100
M106 S0
G1 X158.591 Y115.662 E.16256
G1 X158.591 Y116.467 E.04606
G1 X156.033 Y113.909 E.20714
G1 X155.228 Y113.909 E.04606
G1 X158.591 Y117.272 E.27228
G1 X158.591 Y118.076 E.04606
G1 X154.424 Y113.909 E.33741
G1 X153.619 Y113.909 E.04606
G1 X158.591 Y118.881 E.40255
G1 X158.591 Y119.685 E.04606
G1 X152.815 Y113.909 E.46769
G1 X152.01 Y113.909 E.04606
G1 X158.591 Y120.49 E.53283
G1 X158.591 Y121.294 E.04606
G1 X151.206 Y113.909 E.59797
G1 X150.401 Y113.909 E.04606
G1 X158.591 Y122.099 E.6631
G1 X158.591 Y122.903 E.04606
G1 X149.597 Y113.909 E.72824
G1 X148.792 Y113.909 E.04606
G1 X158.591 Y123.708 E.79338
G1 X158.579 Y124.5 E.04537
M73 P11 R6
G1 X147.988 Y113.909 E.85753
G1 X147.183 Y113.909 E.04606
G1 X158.425 Y125.151 E.9102
G1 X158.368 Y125.29 E.00861
G1 X158.1 Y125.63 E.02478
G1 X146.379 Y113.909 E.94899
G1 X145.574 Y113.909 E.04606
G1 X157.608 Y125.943 E.97434
G1 X157.409 Y126.025 E.01237
G1 X156.947 Y126.086 E.02665
G1 X144.77 Y113.909 E.98595
G1 X143.965 Y113.909 E.04606
G1 X156.148 Y126.091 E.98637
G1 X155.343 Y126.091 E.04606
G1 X143.161 Y113.909 E.98637
G1 X142.356 Y113.909 E.04606
G1 X154.539 Y126.091 E.98637
G1 X153.734 Y126.091 E.04606
M73 P12 R6
G1 X141.552 Y113.909 E.98637
G1 X140.747 Y113.909 E.04606
G1 X152.93 Y126.091 E.98637
G1 X152.125 Y126.091 E.04606
G1 X139.943 Y113.909 E.98637
G1 X139.138 Y113.909 E.04606
G1 X151.321 Y126.091 E.98637
G1 X150.516 Y126.091 E.04606
G1 X138.333 Y113.909 E.98637
G1 X137.529 Y113.909 E.04606
G1 X149.712 Y126.091 E.98637
G1 X148.907 Y126.091 E.04606
G1 X136.724 Y113.909 E.98637
G1 X135.92 Y113.909 E.04606
M73 P13 R5
G1 X148.103 Y126.091 E.98637
G1 X147.298 Y126.091 E.04606
G1 X135.115 Y113.909 E.98637
G1 X134.311 Y113.909 E.04606
G1 X146.494 Y126.091 E.98637
G1 X145.689 Y126.091 E.04606
G1 X133.506 Y113.909 E.98637
G1 X132.702 Y113.909 E.04606
G1 X144.885 Y126.091 E.98637
G1 X144.08 Y126.091 E.04606
G1 X131.897 Y113.909 E.98637
G1 X131.093 Y113.909 E.04606
G1 X143.276 Y126.091 E.98637
G1 X142.471 Y126.091 E.04606
M73 P14 R5
G1 X130.288 Y113.909 E.98637
G1 X129.484 Y113.909 E.04606
G1 X141.666 Y126.091 E.98637
G1 X140.862 Y126.091 E.04606
G1 X128.679 Y113.909 E.98637
G1 X127.875 Y113.909 E.04606
G1 X140.057 Y126.091 E.98637
G1 X139.253 Y126.091 E.04606
G1 X127.07 Y113.909 E.98637
G1 X126.266 Y113.909 E.04606
G1 X138.448 Y126.091 E.98637
G1 X137.644 Y126.091 E.04606
G1 X125.461 Y113.909 E.98637
G1 X124.657 Y113.909 E.04606
M73 P15 R5
G1 X136.839 Y126.091 E.98637
G1 X136.035 Y126.091 E.04606
G1 X123.852 Y113.909 E.98637
G1 X123.053 Y113.914 E.04576
G1 X135.23 Y126.091 E.98595
G1 X134.426 Y126.091 E.04606
G1 X122.392 Y114.057 E.97434
G1 X122.21 Y114.132 E.01123
G1 X121.9 Y114.37 E.02238
G1 X133.621 Y126.091 E.94899
G1 X132.817 Y126.091 E.04606
G1 X121.575 Y114.849 E.9102
G1 X121.475 Y115.091 E.01499
G1 X121.421 Y115.5 E.0236
G1 X132.012 Y126.091 E.85753
G1 X131.208 Y126.091 E.04606
M73 P16 R5
G1 X121.409 Y116.292 E.79338
G1 X121.409 Y117.097 E.04606
G1 X130.403 Y126.091 E.72824
G1 X129.599 Y126.091 E.04606
G1 X121.409 Y117.901 E.6631
G1 X121.409 Y118.706 E.04606
G1 X128.794 Y126.091 E.59796
G1 X127.99 Y126.091 E.04606
G1 X121.409 Y119.51 E.53282
G1 X121.409 Y120.315 E.04606
G1 X127.185 Y126.091 E.46769
G1 X126.381 Y126.091 E.04606
G1 X121.409 Y121.119 E.40255
G1 X121.409 Y121.924 E.04606
G1 X125.576 Y126.091 E.33741
G1 X124.771 Y126.091 E.04606
G1 X121.409 Y122.729 E.27227
G1 X121.409 Y123.533 E.04606
G1 X123.967 Y126.091 E.20713
G1 X123.162 Y126.091 E.04606
G1 X121.155 Y124.084 E.16255
M106 S255
;LAYER_CHANGE
;Z:0.46
;HEIGHT:0.2
;BEFORE_LAYER_CHANGE
;0.46
G92 E0

G1 E-.7 F3600
;WIPE_START
G1 F2100
G1 X121.862 Y124.791 E-.3
;WIPE_END
;_SET_FAN_SPEED_CHANGING_LAYER
; Calib_Retraction_tower: Z_HEIGHT: 0.46, length:1
M140 S60 ; set bed temperature
G1 X116.145 Y126.323 Z.46 F9000
G1 E1 F2400
;TYPE:Skirt
;WIDTH:0.62
G1 X116.009 Y125.815 E.02394
G1 X115.872 Y124.5 E.06029
G1 X115.872 Y115.5 E.41027
G1 X116.009 Y114.185 E.06029
M73 P17 R5
G1 X116.288 Y113.144 E.04913
G1 X116.588 Y112.42 E.0357
G1 X117.127 Y111.487 E.04913
G1 X117.603 Y110.865 E.0357
G1 X118.365 Y110.103 E.04913
G1 X118.987 Y109.627 E.0357
G1 X119.92 Y109.088 E.04913
G1 X120.644 Y108.788 E.0357
G1 X121.685 Y108.509 E.04913
G1 X123 Y108.372 E.06029
G1 X157.539 Y108.407 E1.57446
G1 X158.315 Y108.509 E.0357
G1 X159.356 Y108.788 E.04913
G1 X160.08 Y109.088 E.0357
G1 X161.013 Y109.627 E.04913
G1 X161.635 Y110.103 E.0357
G1 X162.397 Y110.865 E.04913
G1 X162.873 Y111.487 E.0357
G1 X163.412 Y112.42 E.04913
G1 X163.712 Y113.144 E.0357
G1 X163.991 Y114.185 E.04913
G1 X164.093 Y114.961 E.0357
G1 X164.128 Y124.5 E.43483
G1 X163.991 Y125.815 E.06029
G1 X163.712 Y126.856 E.04913
G1 X163.412 Y127.58 E.0357
G1 X162.873 Y128.513 E.04913
G1 X162.397 Y129.135 E.0357
G1 X161.635 Y129.897 E.04913
G1 X161.013 Y130.373 E.0357
G1 X160.08 Y130.912 E.04913
G1 X159.356 Y131.212 E.0357
G1 X158.315 Y131.491 E.04913
G1 X157 Y131.628 E.06029
G1 X122.461 Y131.593 E1.57446
G1 X121.685 Y131.491 E.0357
G1 X120.644 Y131.212 E.04913
G1 X119.92 Y130.912 E.0357
G1 X118.987 Y130.373 E.04913
G1 X118.365 Y129.897 E.0357
G1 X117.603 Y129.135 E.04913
G1 X117.127 Y128.513 E.0357
G1 X116.588 Y127.58 E.04913
G1 X116.288 Y126.856 E.0357
G1 X116.161 Y126.381 E.02245
G1 X116.701 Y126.236 F9000
G1 F2400
G1 X116.569 Y125.742 E.02332
G1 X116.436 Y124.5 E.05692
G1 X116.436 Y115.5 E.41027
G1 X116.569 Y114.258 E.05692
G1 X116.809 Y113.36 E.04241
G1 X117.109 Y112.636 E.0357
G1 X117.574 Y111.83 E.04241
G1 X118.051 Y111.209 E.0357
G1 X118.709 Y110.551 E.04241
G1 X119.33 Y110.074 E.0357
G1 X120.136 Y109.609 E.04241
G1 X120.86 Y109.309 E.0357
G1 X121.758 Y109.069 E.04241
G1 X123 Y108.936 E.05692
G1 X157.465 Y108.966 E1.5711
G1 X158.242 Y109.069 E.0357
M73 P18 R5
G1 X159.14 Y109.309 E.04241
G1 X159.864 Y109.609 E.0357
G1 X160.67 Y110.074 E.04241
G1 X161.291 Y110.551 E.0357
G1 X161.949 Y111.209 E.04241
G1 X162.426 Y111.83 E.0357
G1 X162.891 Y112.636 E.04241
G1 X163.191 Y113.36 E.0357
G1 X163.431 Y114.258 E.04241
G1 X163.534 Y115.035 E.0357
G1 X163.564 Y124.5 E.43148
G1 X163.431 Y125.742 E.05692
G1 X163.191 Y126.64 E.04242
G1 X162.891 Y127.364 E.0357
G1 X162.426 Y128.17 E.04241
G1 X161.949 Y128.791 E.0357
G1 X161.291 Y129.449 E.04241
G1 X160.67 Y129.926 E.0357
G1 X159.864 Y130.391 E.04241
G1 X159.14 Y130.691 E.0357
G1 X158.242 Y130.931 E.04241
G1 X157 Y131.064 E.05692
G1 X122.535 Y131.034 E1.5711
G1 X121.758 Y130.931 E.0357
G1 X120.86 Y130.691 E.04241
G1 X120.136 Y130.391 E.0357
G1 X119.33 Y129.926 E.04241
G1 X118.709 Y129.449 E.0357
G1 X118.051 Y128.791 E.04241
G1 X117.574 Y128.17 E.0357
G1 X117.109 Y127.364 E.04241
G1 X116.809 Y126.64 E.0357
G1 X116.716 Y126.294 E.01636
G1 E-.7 F3600
;WIPE_START
G1 F2400
G1 X116.569 Y125.742 E-.17146
G1 X116.523 Y125.316 E-.12854
;WIPE_END
G1 X156.944 Y126.643 F9000
G1 E1 F2400
;TYPE:Inner wall
;WIDTH:0.599999
G1 X123.056 Y126.643 E1.49123
G1 X122.447 Y126.563 E.02703
G1 X121.932 Y126.349 E.02453
G1 X121.49 Y126.01 E.02453
G1 X121.151 Y125.568 E.02453
G1 X120.937 Y125.053 E.02453
G1 X120.857 Y124.444 E.02703
G1 X120.857 Y115.556 E.3911
G1 X120.937 Y114.947 E.02703
M73 P19 R5
G1 X121.044 Y114.69 E.01227
G1 X121.151 Y114.432 E.01227
G1 X121.49 Y113.99 E.02453
G1 X121.932 Y113.651 E.02453
G1 X122.447 Y113.437 E.02453
G1 X123.056 Y113.357 E.02703
G1 X156.944 Y113.357 E1.49123
G1 X157.553 Y113.437 E.02703
G1 X158.068 Y113.651 E.02453
G1 X158.51 Y113.99 E.02453
G1 X158.849 Y114.432 E.02453
G1 X159.063 Y114.947 E.02453
G1 X159.143 Y115.556 E.02703
G1 X159.143 Y124.444 E.3911
G1 X159.063 Y125.053 E.02703
G1 X158.849 Y125.568 E.02453
G1 X158.51 Y126.01 E.02453
G1 X158.068 Y126.349 E.02453
G1 X157.553 Y126.563 E.02453
G1 X157.003 Y126.635 E.02439
G1 X156.98 Y127.2 F9000
;TYPE:Outer wall
G1 F1500
G1 X123.02 Y127.2 E1.49445
G1 X122.302 Y127.106 E.03186
G1 X121.651 Y126.836 E.03099
G1 X121.093 Y126.407 E.03099
G1 X120.664 Y125.849 E.03099
G1 X120.394 Y125.198 E.03099
G1 X120.3 Y124.48 E.03186
G1 X120.3 Y115.52 E.39432
G1 X120.394 Y114.802 E.03186
G1 X120.529 Y114.477 E.01549
G1 X120.664 Y114.151 E.01549
G1 X121.093 Y113.593 E.03099
G1 X121.651 Y113.164 E.03099
G1 X122.302 Y112.895 E.03099
G1 X123.02 Y112.8 E.03186
G1 X156.98 Y112.8 E1.49445
G1 X157.698 Y112.895 E.03186
M73 P20 R5
G1 X158.349 Y113.164 E.03099
G1 X158.907 Y113.593 E.03099
G1 X159.336 Y114.151 E.03099
G1 X159.606 Y114.802 E.03099
G1 X159.7 Y115.52 E.03186
G1 X159.7 Y124.48 E.39432
G1 X159.606 Y125.198 E.03186
G1 X159.336 Y125.849 E.03099
G1 X158.907 Y126.407 E.03099
G1 X158.349 Y126.836 E.03099
G1 X157.698 Y127.106 E.03099
G1 X157.04 Y127.192 E.02922
G1 E-.7 F3600
;WIPE_START
G1 F1500
G1 X156.04 Y127.192 E-.3
;WIPE_END
G1 X158.881 Y125.026 F9000
G1 E1 F2400
;TYPE:Internal solid infill
;WIDTH:0.606415
M106 S255
G1 X158.199 Y125.708 E.04292
G1 X157.851 Y125.975 E.0195
G1 X157.441 Y126.145 E.01979
G1 X156.896 Y126.214 E.02444
G1 X158.714 Y124.396 E.11443
G1 X158.714 Y123.599 E.03547
G1 X156.099 Y126.214 E.1646
G1 X155.302 Y126.214 E.03547
G1 X158.714 Y122.802 E.21476
G1 X158.714 Y122.005 E.03547
G1 X154.505 Y126.214 E.26493
G1 X153.709 Y126.214 E.03547
G1 X158.714 Y121.209 E.31509
G1 X158.714 Y120.412 E.03547
G1 X152.912 Y126.214 E.36525
G1 X152.115 Y126.214 E.03547
G1 X158.714 Y119.615 E.41542
G1 X158.714 Y118.818 E.03547
G1 X151.318 Y126.214 E.46558
G1 X150.521 Y126.214 E.03547
G1 X158.714 Y118.021 E.51575
G1 X158.714 Y117.224 E.03547
M73 P21 R5
G1 X149.724 Y126.214 E.56591
G1 X148.927 Y126.214 E.03547
G1 X158.714 Y116.427 E.61608
G1 X158.714 Y115.63 E.03547
G1 X148.13 Y126.214 E.66624
G1 X147.333 Y126.214 E.03547
G1 X158.599 Y114.948 E.70916
