; HEADER_BLOCK_START
; generated by OrcaSlicer 1.7.0 on 2023-10-24 at 23:25:48
; total layer number: 57
; HEADER_BLOCK_END

; THUMBNAIL_BLOCK_START
; THUMBNAIL_BLOCK_END

; external perimeters extrusion width = 0.60mm
; perimeters extrusion width = 0.60mm
; infill extrusion width = 0.60mm
; solid infill extrusion width = 0.60mm
; top infill extrusion width = 0.60mm
; first layer extrusion width = 0.62mm

; EXECUTABLE_BLOCK_START
M73 P0 R6
;TYPE:Custom
M104 S216 ; set extruder temp
M140 S60 ; set bed temp
M190 S60 ; wait for bed temp
M109 S216 ; wait for extruder temp

G28 ; home all
BED_MESH_PROFILE LOAD=default;

G1 Z2.0 F3000 ; Move Z Axis up little to prevent scratching of Heat Bed
G1 X0.1 Y5 Z0.28 F5000.0 ; Move to start position


G92 E0 ; Reset Extruder
G1 Z2.0 F3000 ; Move Z Axis up little to prevent scratching of Heat Bed
G1 X0.1 Y10 Z0.28 F5000.0 ; Move to start position

G1 X0.1 Y200 Z0.28 F1500.0 E15 ; Draw the first line
G1 X0.4 Y200 Z0.28 F5000.0 ; Move to side a little
M73 P2 R6
G1 X0.4 Y10 Z0.28 F1500.0 E30 ; Draw the second line


G92 E0 ; Reset Extruder
G1 Z0.5 F3000 ; Move Z Axis up little to prevent scratching of Heat Bed
M117 Godmode is enabled
G90
G21
M83 ; use relative distances for extrusion
; filament start gcode
M106 S0
;LAYER_CHANGE
;Z:0.26
;HEIGHT:0.26
;BEFORE_LAYER_CHANGE
;0.26
G92 E0

M73 P4 R6
G1 E-1.15 F3600
;_SET_FAN_SPEED_CHANGING_LAYER
; Calib_Retraction_tower: Z_HEIGHT: 0.26, length:1
G1 X117.606 Y110.863 F9000
G1 Z.26
G1 E1.15 F2400
;TYPE:Skirt
;WIDTH:0.62
G1 F1200
G1 X118.363 Y110.106 E.06536
G1 X118.985 Y109.628 E.04784
G1 X119.926 Y109.085 E.06622
G1 X120.648 Y108.787 E.04764
G1 X121.685 Y108.51 E.06547
G1 X122.999 Y108.373 E.08057
G1 X157.536 Y108.408 E2.10632
G1 X158.314 Y108.51 E.04786
G1 X159.348 Y108.785 E.0653
G1 X160.072 Y109.083 E.04775
G1 X161.022 Y109.631 E.06686
G1 X161.642 Y110.109 E.04775
G1 X162.394 Y110.863 E.06498
G1 X162.872 Y111.485 E.04784
G1 X163.415 Y112.426 E.06622
G1 X163.713 Y113.148 E.04764
G1 X163.99 Y114.185 E.06547
G1 X164.092 Y114.961 E.04773
G1 X164.127 Y124.499 E.58171
G1 X163.99 Y125.814 E.08061
M73 P5 R6
G1 X163.715 Y126.848 E.06531
G1 X163.417 Y127.572 E.04775
G1 X162.869 Y128.522 E.06686
G1 X162.391 Y129.142 E.04775
G1 X161.642 Y129.891 E.06459
G1 X161.022 Y130.369 E.04775
G1 X160.072 Y130.917 E.06686
G1 X159.348 Y131.215 E.04775
G1 X158.314 Y131.49 E.06531
G1 X156.999 Y131.627 E.08061
G1 X122.461 Y131.592 E2.1064
G1 X121.685 Y131.49 E.04773
G1 X120.648 Y131.213 E.06547
G1 X119.926 Y130.915 E.04764
G1 X118.985 Y130.372 E.06622
G1 X118.363 Y129.894 E.04784
G1 X117.609 Y129.142 E.06497
G1 X117.131 Y128.522 E.04775
G1 X116.583 Y127.572 E.06686
G1 X116.285 Y126.848 E.04775
G1 X116.01 Y125.814 E.06531
G1 X115.873 Y124.499 E.08061
G1 X115.873 Y115.499 E.54889
G1 X116.01 Y114.185 E.08057
G1 X116.287 Y113.148 E.06547
G1 X116.585 Y112.426 E.04764
G1 X117.128 Y111.485 E.06623
G1 X117.569 Y110.911 E.04418
G1 X118.016 Y111.255 F9000
G1 F1200
G1 X118.053 Y111.207 E.00366
G1 X118.707 Y110.553 E.05643
G1 X119.329 Y110.075 E.04784
G1 X120.141 Y109.606 E.05717
M73 P6 R6
G1 X120.863 Y109.308 E.04764
G1 X121.759 Y109.069 E.05652
G1 X122.999 Y108.937 E.07608
G1 X157.462 Y108.967 E2.10184
G1 X158.24 Y109.069 E.04786
G1 X159.134 Y109.307 E.05638
G1 X159.858 Y109.605 E.04775
G1 X160.677 Y110.078 E.05772
G1 X161.297 Y110.556 E.04775
G1 X161.947 Y111.207 E.0561
G1 X162.425 Y111.829 E.04784
G1 X162.894 Y112.641 E.05717
G1 X163.192 Y113.363 E.04764
G1 X163.431 Y114.259 E.05652
G1 X163.533 Y115.035 E.04773
G1 X163.563 Y124.499 E.57722
G1 X163.431 Y125.74 E.07613
G1 X163.193 Y126.634 E.05638
G1 X162.895 Y127.358 E.04775
G1 X162.422 Y128.177 E.05772
G1 X161.944 Y128.797 E.04775
G1 X161.297 Y129.444 E.05576
G1 X160.677 Y129.922 E.04775
G1 X159.858 Y130.395 E.05772
G1 X159.134 Y130.693 E.04775
G1 X158.24 Y130.931 E.05638
G1 X156.999 Y131.063 E.07613
G1 X122.535 Y131.033 E2.10192
G1 X121.759 Y130.931 E.04773
M73 P7 R6
G1 X120.863 Y130.692 E.05652
G1 X120.141 Y130.394 E.04764
G1 X119.329 Y129.925 E.05717
G1 X118.707 Y129.447 E.04784
G1 X118.056 Y128.797 E.05609
G1 X117.578 Y128.177 E.04775
G1 X117.105 Y127.358 E.05772
G1 X116.807 Y126.634 E.04775
G1 X116.569 Y125.74 E.05638
G1 X116.437 Y124.499 E.07613
G1 X116.437 Y115.499 E.54889
G1 X116.569 Y114.259 E.07608
G1 X116.808 Y113.363 E.05652
G1 X117.106 Y112.641 E.04764
G1 X117.575 Y111.829 E.05717
G1 X117.98 Y111.302 E.04052
G1 E-.7 F3600
;WIPE_START
G1 F1200
G1 X118.053 Y111.207 E-.036
G1 X118.675 Y110.585 E-.264
;WIPE_END
G1 X123.063 Y126.525 F9000
G1 E1 F2400
;TYPE:Inner wall
;WIDTH:0.62
G1 F1200
G1 X122.477 Y126.448 E.03425
G1 X121.992 Y126.248 E.03037
G1 X121.573 Y125.926 E.03062
G1 X121.252 Y125.51 E.03045
G1 X121.052 Y125.024 E.03042
G1 X120.975 Y124.435 E.0344
G1 X120.975 Y115.563 E.51407
G1 X121.052 Y114.977 E.03425
G1 X121.252 Y114.492 E.03037
G1 X121.574 Y114.074 E.03057
G1 X121.992 Y113.752 E.03057
G1 X122.477 Y113.552 E.03037
G1 X123.063 Y113.475 E.03425
G1 X156.935 Y113.475 E1.96253
G1 X157.524 Y113.552 E.0344
M73 P8 R6
G1 X158.01 Y113.752 E.03042
G1 X158.426 Y114.073 E.03045
G1 X158.748 Y114.492 E.03062
G1 X158.948 Y114.977 E.03037
G1 X159.025 Y115.709 E.04266
G1 X159.025 Y124.435 E.5056
G1 X158.948 Y125.024 E.0344
G1 X158.748 Y125.51 E.03042
G1 X158.426 Y125.926 E.0305
G1 X158.01 Y126.248 E.0305
G1 X157.524 Y126.448 E.03042
G1 X156.935 Y126.525 E.0344
G1 X123.123 Y126.525 E1.95905
G1 X123.026 Y127.089 F9000
;TYPE:Outer wall
G1 F1200
G1 X122.33 Y126.998 E.04068
G1 X121.708 Y126.741 E.03899
G1 X121.171 Y126.328 E.03921
G1 X120.759 Y125.794 E.03909
G1 X120.503 Y125.171 E.03907
G1 X120.411 Y124.472 E.0408
G1 X120.411 Y115.526 E.51834
G1 X120.502 Y114.83 E.04068
M73 P9 R6
G1 X120.759 Y114.208 E.03899
G1 X121.171 Y113.671 E.03919
G1 X121.708 Y113.259 E.03919
G1 X122.33 Y113.002 E.03899
G1 X123.026 Y112.911 E.04068
G1 X156.972 Y112.911 E1.9668
G1 X157.671 Y113.003 E.0408
G1 X158.294 Y113.259 E.03907
G1 X158.828 Y113.671 E.03909
G1 X159.241 Y114.208 E.03921
G1 X159.498 Y114.83 E.03899
G1 X159.589 Y115.709 E.05121
G1 X159.589 Y124.472 E.50773
G1 X159.497 Y125.171 E.0408
G1 X159.241 Y125.794 E.03907
G1 X158.829 Y126.329 E.0391
G1 X158.294 Y126.741 E.0391
G1 X157.671 Y126.997 E.03907
G1 X156.972 Y127.089 E.0408
G1 X123.086 Y127.089 E1.96332
G1 E-.7 F3600
;WIPE_START
M73 P10 R6
G1 F1200
G1 X122.33 Y126.998 E-.22848
G1 X122.109 Y126.907 E-.07152
;WIPE_END
G1 X158.774 Y115.041 F9000
G1 E1 F2400
;TYPE:Bottom surface
;WIDTH:0.624673
G1 F2100
M106 S0
G1 X158.116 Y114.383 E.05331
G1 X157.79 Y114.132 E.02352
G1 X157.411 Y113.976 E.02347
G1 X156.838 Y113.91 E.03302
G1 X158.59 Y115.662 E.14186
G1 X158.59 Y116.466 E.04606
G1 X156.034 Y113.91 E.207
G1 X155.229 Y113.91 E.04606
G1 X158.59 Y117.271 E.27213
G1 X158.59 Y118.075 E.04606
G1 X154.425 Y113.91 E.33727
G1 X153.62 Y113.91 E.04606
G1 X158.59 Y118.88 E.40241
G1 X158.59 Y119.684 E.04606
G1 X152.816 Y113.91 E.46754
G1 X152.011 Y113.91 E.04606
G1 X158.59 Y120.489 E.53268
G1 X158.59 Y121.293 E.04606
G1 X151.207 Y113.91 E.59782
G1 X150.402 Y113.91 E.04606
G1 X158.59 Y122.098 E.66295
G1 X158.59 Y122.902 E.04606
G1 X149.598 Y113.91 E.72809
G1 X148.793 Y113.91 E.04606
M73 P11 R6
G1 X158.59 Y123.707 E.79323
G1 X158.578 Y124.499 E.04537
G1 X147.989 Y113.91 E.85738
G1 X147.184 Y113.91 E.04606
G1 X158.426 Y125.151 E.91015
G1 X158.368 Y125.29 E.00862
G1 X158.1 Y125.63 E.02478
G1 X146.38 Y113.91 E.94891
G1 X145.575 Y113.91 E.04606
G1 X157.608 Y125.943 E.97427
G1 X157.411 Y126.024 E.01221
G1 X156.946 Y126.085 E.02685
G1 X144.771 Y113.91 E.98578
G1 X143.966 Y113.91 E.04606
G1 X156.147 Y126.09 E.9862
G1 X155.342 Y126.09 E.04606
G1 X143.161 Y113.91 E.9862
M73 P12 R6
G1 X142.357 Y113.91 E.04606
G1 X154.538 Y126.09 E.9862
M73 P12 R5
G1 X153.733 Y126.09 E.04606
G1 X141.552 Y113.91 E.9862
G1 X140.748 Y113.91 E.04606
G1 X152.929 Y126.09 E.9862
G1 X152.124 Y126.09 E.04606
G1 X139.943 Y113.91 E.9862
G1 X139.139 Y113.91 E.04606
G1 X151.32 Y126.09 E.9862
G1 X150.515 Y126.09 E.04606
G1 X138.334 Y113.91 E.9862
G1 X137.53 Y113.91 E.04606
G1 X149.711 Y126.09 E.9862
G1 X148.906 Y126.09 E.04606
M73 P13 R5
G1 X136.725 Y113.91 E.9862
G1 X135.921 Y113.91 E.04606
G1 X148.102 Y126.09 E.9862
G1 X147.297 Y126.09 E.04606
G1 X135.116 Y113.91 E.9862
G1 X134.312 Y113.91 E.04606
G1 X146.493 Y126.09 E.9862
G1 X145.688 Y126.09 E.04606
G1 X133.507 Y113.91 E.9862
G1 X132.703 Y113.91 E.04606
G1 X144.884 Y126.09 E.9862
G1 X144.079 Y126.09 E.04606
G1 X131.898 Y113.91 E.9862
G1 X131.094 Y113.91 E.04606
M73 P14 R5
G1 X143.275 Y126.09 E.9862
G1 X142.47 Y126.09 E.04606
G1 X130.289 Y113.91 E.9862
G1 X129.485 Y113.91 E.04606
G1 X141.665 Y126.09 E.9862
G1 X140.861 Y126.09 E.04606
G1 X128.68 Y113.91 E.9862
G1 X127.876 Y113.91 E.04606
G1 X140.056 Y126.09 E.9862
G1 X139.252 Y126.09 E.04606
G1 X127.071 Y113.91 E.9862
G1 X126.267 Y113.91 E.04606
G1 X138.447 Y126.09 E.9862
G1 X137.643 Y126.09 E.04606
M73 P15 R5
G1 X125.462 Y113.91 E.9862
G1 X124.658 Y113.91 E.04606
G1 X136.838 Y126.09 E.9862
G1 X136.034 Y126.09 E.04606
G1 X123.853 Y113.91 E.9862
G1 X123.054 Y113.915 E.04578
G1 X135.229 Y126.09 E.9858
G1 X134.425 Y126.09 E.04606
G1 X122.392 Y114.057 E.97425
G1 X122.211 Y114.132 E.01118
G1 X121.901 Y114.371 E.02243
G1 X133.62 Y126.09 E.94888
G1 X132.816 Y126.09 E.04606
G1 X121.575 Y114.849 E.91012
G1 X121.476 Y115.09 E.01489
M73 P16 R5
G1 X121.422 Y115.501 E.02373
G1 X132.011 Y126.09 E.85739
G1 X131.207 Y126.09 E.04606
G1 X121.41 Y116.293 E.79322
G1 X121.41 Y117.098 E.04606
G1 X130.402 Y126.09 E.72808
G1 X129.598 Y126.09 E.04606
G1 X121.41 Y117.902 E.66294
G1 X121.41 Y118.707 E.04606
G1 X128.793 Y126.09 E.59781
G1 X127.989 Y126.09 E.04606
G1 X121.41 Y119.511 E.53267
G1 X121.41 Y120.316 E.04606
G1 X127.184 Y126.09 E.46753
G1 X126.38 Y126.09 E.04606
G1 X121.41 Y121.12 E.4024
G1 X121.41 Y121.925 E.04606
G1 X125.575 Y126.09 E.33726
G1 X124.771 Y126.09 E.04606
G1 X121.41 Y122.729 E.27213
G1 X121.41 Y123.534 E.04606
G1 X123.966 Y126.09 E.20699
G1 X123.162 Y126.09 E.04606
M73 P17 R5
G1 X121.156 Y124.084 E.16241
M106 S255
;LAYER_CHANGE
;Z:0.46
;HEIGHT:0.2
;BEFORE_LAYER_CHANGE
;0.46
G92 E0

G1 E-.7 F3600
;WIPE_START
G1 F2100
G1 X121.863 Y124.792 E-.3
;WIPE_END
;_SET_FAN_SPEED_CHANGING_LAYER
; Calib_Retraction_tower: Z_HEIGHT: 0.46, length:1
M140 S60 ; set bed temperature
G1 X116.143 Y126.316 Z.46 F9000
G1 E1 F2400
;TYPE:Skirt
;WIDTH:0.62
G1 X116.01 Y125.814 E.02368
G1 X115.873 Y124.499 E.06025
G1 X115.873 Y115.499 E.41027
G1 X116.01 Y114.185 E.06023
G1 X116.287 Y113.148 E.04893
G1 X116.585 Y112.426 E.03561
G1 X117.128 Y111.485 E.0495
G1 X117.606 Y110.863 E.03576
G1 X118.363 Y110.106 E.04885
G1 X118.985 Y109.628 E.03576
G1 X119.926 Y109.085 E.0495
G1 X120.648 Y108.787 E.03561
G1 X121.685 Y108.51 E.04893
G1 X122.999 Y108.373 E.06023
G1 X157.536 Y108.408 E1.57436
G1 X158.314 Y108.51 E.03577
G1 X159.348 Y108.785 E.04881
G1 X160.072 Y109.083 E.03569
G1 X161.022 Y109.631 E.04997
G1 X161.642 Y110.109 E.03569
G1 X162.394 Y110.863 E.04857
G1 X162.872 Y111.485 E.03576
G1 X163.415 Y112.426 E.0495
G1 X163.713 Y113.148 E.03561
G1 X163.99 Y114.185 E.04893
G1 X164.092 Y114.961 E.03568
G1 X164.127 Y124.499 E.4348
G1 X163.99 Y125.814 E.06025
G1 X163.715 Y126.848 E.04881
G1 X163.417 Y127.572 E.03569
G1 X162.869 Y128.522 E.04997
G1 X162.391 Y129.142 E.03569
G1 X161.642 Y129.891 E.04828
G1 X161.022 Y130.369 E.03569
G1 X160.072 Y130.917 E.04997
G1 X159.348 Y131.215 E.03569
G1 X158.314 Y131.49 E.04881
G1 X156.999 Y131.627 E.06025
G1 X122.461 Y131.592 E1.57442
G1 X121.685 Y131.49 E.03568
G1 X120.648 Y131.213 E.04893
G1 X119.926 Y130.915 E.03561
G1 X118.985 Y130.372 E.0495
G1 X118.363 Y129.894 E.03576
G1 X117.609 Y129.142 E.04856
G1 X117.131 Y128.522 E.03569
G1 X116.583 Y127.572 E.04997
G1 X116.285 Y126.848 E.03569
G1 X116.159 Y126.374 E.0224
G1 X116.699 Y126.23 F9000
G1 F2400
G1 X116.569 Y125.74 E.02308
G1 X116.437 Y124.499 E.05691
G1 X116.437 Y115.499 E.41027
M73 P18 R5
G1 X116.569 Y114.259 E.05687
G1 X116.808 Y113.363 E.04225
G1 X117.106 Y112.641 E.03561
G1 X117.575 Y111.829 E.04273
G1 X118.053 Y111.207 E.03576
G1 X118.707 Y110.553 E.04218
G1 X119.329 Y110.075 E.03576
G1 X120.141 Y109.606 E.04273
G1 X120.863 Y109.308 E.03561
G1 X121.759 Y109.069 E.04225
G1 X122.999 Y108.937 E.05687
G1 X157.462 Y108.967 E1.57102
G1 X158.24 Y109.069 E.03577
G1 X159.134 Y109.307 E.04214
G1 X159.858 Y109.605 E.03569
G1 X160.677 Y110.078 E.04314
G1 X161.297 Y110.556 E.03569
G1 X161.947 Y111.207 E.04193
G1 X162.425 Y111.829 E.03576
G1 X162.894 Y112.641 E.04273
G1 X163.192 Y113.363 E.03561
G1 X163.431 Y114.259 E.04225
G1 X163.533 Y115.035 E.03568
G1 X163.563 Y124.499 E.43144
G1 X163.431 Y125.74 E.05691
G1 X163.193 Y126.634 E.04214
G1 X162.895 Y127.358 E.03569
G1 X162.422 Y128.177 E.04314
G1 X161.944 Y128.797 E.03569
G1 X161.297 Y129.444 E.04168
G1 X160.677 Y129.922 E.03569
G1 X159.858 Y130.395 E.04314
G1 X159.134 Y130.693 E.03569
G1 X158.24 Y130.931 E.04214
G1 X156.999 Y131.063 E.05691
G1 X122.535 Y131.033 E1.57107
G1 X121.759 Y130.931 E.03568
G1 X120.863 Y130.692 E.04225
G1 X120.141 Y130.394 E.03561
G1 X119.329 Y129.925 E.04273
G1 X118.707 Y129.447 E.03576
G1 X118.056 Y128.797 E.04193
G1 X117.578 Y128.177 E.03569
G1 X117.105 Y127.358 E.04314
G1 X116.807 Y126.634 E.03569
G1 X116.715 Y126.287 E.01633
G1 E-.7 F3600
;WIPE_START
G1 F2400
G1 X116.569 Y125.74 E-.16988
G1 X116.523 Y125.309 E-.13012
;WIPE_END
G1 X123.055 Y126.642 F9000
G1 E1 F2400
;TYPE:Inner wall
;WIDTH:0.599999
G1 X122.446 Y126.562 E.02703
G1 X121.933 Y126.35 E.02442
G1 X121.49 Y126.009 E.02461
G1 X121.15 Y125.569 E.02449
G1 X120.938 Y125.054 E.02447
G1 X120.858 Y124.443 E.02713
G1 X120.858 Y115.555 E.39112
G1 X120.938 Y114.946 E.02703
G1 X121.15 Y114.433 E.02442
G1 X121.49 Y113.99 E.02458
G1 X121.933 Y113.65 E.02458
G1 X122.446 Y113.438 E.02442
G1 X123.055 Y113.358 E.02703
G1 X156.943 Y113.358 E1.49125
G1 X157.554 Y113.438 E.02713
M73 P19 R5
G1 X158.069 Y113.65 E.02447
G1 X158.509 Y113.99 E.02449
G1 X158.85 Y114.433 E.02461
G1 X159.062 Y114.946 E.02442
G1 X159.142 Y115.709 E.03375
G1 X159.142 Y124.443 E.38435
G1 X159.062 Y125.054 E.02713
G1 X158.85 Y125.569 E.02447
G1 X158.51 Y126.01 E.02452
G1 X158.069 Y126.35 E.02452
G1 X157.554 Y126.562 E.02447
G1 X156.943 Y126.642 E.02713
G1 X123.115 Y126.642 E1.48861
G1 X123.019 Y127.199 F9000
;TYPE:Outer wall
G1 F1500
G1 X122.301 Y127.105 E.03185
G1 X121.652 Y126.837 E.03089
G1 X121.093 Y126.407 E.03105
G1 X120.663 Y125.85 E.03096
G1 X120.395 Y125.199 E.03096
G1 X120.301 Y124.479 E.03194
G1 X120.301 Y115.519 E.39432
G1 X120.395 Y114.801 E.03185
G1 X120.663 Y114.152 E.03089
G1 X121.093 Y113.593 E.03104
G1 X121.652 Y113.163 E.03104
G1 X122.301 Y112.895 E.03089
G1 X123.019 Y112.801 E.03185
G1 X156.979 Y112.801 E1.49445
G1 X157.699 Y112.895 E.03194
M73 P20 R5
G1 X158.35 Y113.163 E.03096
G1 X158.907 Y113.593 E.03096
G1 X159.337 Y114.152 E.03105
G1 X159.605 Y114.801 E.03089
G1 X159.699 Y115.709 E.04016
G1 X159.699 Y124.479 E.38595
G1 X159.605 Y125.199 E.03194
G1 X159.337 Y125.85 E.03096
G1 X158.907 Y126.407 E.03097
G1 X158.35 Y126.837 E.03098
G1 X157.699 Y127.105 E.03096
G1 X156.979 Y127.199 E.03194
G1 X123.079 Y127.199 E1.49181
G1 E-.7 F3600
;WIPE_START
G1 F1500
G1 X122.301 Y127.105 E-.23497
G1 X122.101 Y127.022 E-.06503
;WIPE_END
G1 X158.881 Y125.026 F9000
G1 E1 F2400
;TYPE:Internal solid infill
;WIDTH:0.606407
M106 S255
G1 X158.198 Y125.709 E.04295
G1 X157.852 Y125.975 E.01945
G1 X157.443 Y126.144 E.01969
G1 X156.897 Y126.213 E.0245
G1 X158.713 Y124.397 E.11432
G1 X158.713 Y123.6 E.03547
G1 X156.1 Y126.213 E.16448
G1 X155.303 Y126.213 E.03547
G1 X158.713 Y122.803 E.21464
G1 X158.713 Y122.006 E.03547
G1 X154.506 Y126.213 E.26481
G1 X153.709 Y126.213 E.03547
G1 X158.713 Y121.209 E.31497
G1 X158.713 Y120.412 E.03547
G1 X152.912 Y126.213 E.36513
G1 X152.116 Y126.213 E.03547
M73 P21 R5
G1 X158.713 Y119.616 E.4153
G1 X158.713 Y118.819 E.03547
G1 X151.319 Y126.213 E.46546
G1 X150.522 Y126.213 E.03547
G1 X158.713 Y118.022 E.51562
G1 X158.713 Y117.225 E.03547
G1 X149.725 Y126.213 E.56579
G1 X148.928 Y126.213 E.03547
G1 X158.713 Y116.428 E.61595
G1 X158.713 Y115.631 E.03547
