; generated by PrusaSlicer 2.6.1+win64 on 2023-10-23 at 14:10:08 UTC


;
;

;
;
; 

; external perimeters extrusion width = 0.60mm
; perimeters extrusion width = 0.60mm
; infill extrusion width = 0.65mm
; solid infill extrusion width = 0.60mm
; top infill extrusion width = 0.65mm
; support material extrusion width = 0.65mm
; first layer extrusion width = 0.60mm

M73 P0 R12
;TYPE:Custom
M104 S216 ; set extruder temp
M140 S60 ; set bed temp
M190 S60 ; wait for bed temp
M109 S216 ; wait for extruder temp

G28 ; home all
BED_MESH_PROFILE LOAD=default;

G1 Z2.0 F3000 ; Move Z Axis up little to prevent scratching of Heat Bed
G1 X0.1 Y5 Z0.28 F5000.0 ; Move to start position


G92 E0 ; Reset Extruder
G1 Z2.0 F3000 ; Move Z Axis up little to prevent scratching of Heat Bed
G1 X0.1 Y10 Z0.28 F5000.0 ; Move to start position

G1 X0.1 Y200 Z0.28 F1500.0 E15 ; Draw the first line
G1 X0.4 Y200 Z0.28 F5000.0 ; Move to side a little
M73 P1 R12
G1 X0.4 Y10 Z0.28 F1500.0 E30 ; Draw the second line


G92 E0 ; Reset Extruder
G1 Z0.5 F3000 ; Move Z Axis up little to prevent scratching of Heat Bed
M117 Godmode is enabled
G21 ; set units to millimeters
G90 ; use absolute coordinates
M82 ; use absolute distances for extrusion
G92 E0
; Filament gcode
M107
;LAYER_CHANGE
;Z:0.2
;HEIGHT:0.2
M73 P2 R12
G1 Z.2 F7800
G1 E-1.4 F2400
G92 E0
G1 Z.7 F7800
G1 X108.751 Y105.113
G1 Z.2
G1 E1.4 F2400
;TYPE:Skirt/Brim
;WIDTH:0.6
G1 F1800
G1 X109.157 Y104.769 E1.42465
G1 X109.602 Y104.484 E1.44913
G1 X110.039 Y104.276 E1.47155
G1 X110.534 Y104.113 E1.49569
G1 X111.009 Y104.02 E1.51811
G1 X111.521 Y103.983 E1.54189
G1 X180.585 Y103.984 E4.74103
G1 X181.176 Y104.035 E4.76851
G1 X181.57 Y104.118 E4.78716
G1 X181.981 Y104.251 E4.80717
G1 X182.491 Y104.49 E4.83326
G1 X182.98 Y104.81 E4.86033
G1 X183.406 Y105.186 E4.88665
G1 X183.716 Y105.541 E4.90848
G1 X184 Y105.96 E4.93193
G1 X184.242 Y106.44 E4.95683
G1 X184.438 Y107.028 E4.98554
G1 X184.522 Y107.473 E5.00652
G1 X184.557 Y107.943 E5.02835
G1 X184.559 Y113.983 E5.30813
G1 X188.52 Y113.985 E5.49161
G1 X188.966 Y114.017 E5.51232
G1 X189.479 Y114.117 E5.53653
G1 X190.027 Y114.304 E5.56335
G1 X190.533 Y114.562 E5.58966
G1 X190.894 Y114.807 E5.60987
G1 X191.246 Y115.11 E5.63138
G1 X191.621 Y115.526 E5.65732
G1 X191.924 Y115.972 E5.6823
G1 X192.162 Y116.449 E5.70699
G1 X192.322 Y116.905 E5.72938
G1 X192.429 Y117.405 E5.75307
G1 X192.474 Y117.934 E5.77766
G1 X192.475 Y132.024 E6.43033
G1 X192.425 Y132.629 E6.45845
G1 X192.341 Y133.023 E6.47711
G1 X192.21 Y133.433 E6.49705
G1 X191.996 Y133.901 E6.52089
G1 X191.718 Y134.345 E6.54516
G1 X191.36 Y134.776 E6.57111
G1 X190.966 Y135.136 E6.59583
G1 X190.458 Y135.482 E6.6243
G1 X189.982 Y135.715 E6.64885
G1 X189.484 Y135.882 E6.67318
G1 X189.005 Y135.978 E6.69581
G1 X188.5 Y136.016 E6.71927
G1 X184.559 Y136.017 E6.90182
G1 X184.559 Y142.022 E7.17998
G1 X184.518 Y142.556 E7.20479
M73 P3 R12
G1 X184.398 Y143.119 E7.23145
G1 X184.202 Y143.651 E7.25771
G1 X183.974 Y144.084 E7.28038
G1 X183.673 Y144.514 E7.30469
G1 X183.292 Y144.926 E7.33068
G1 X182.916 Y145.239 E7.35334
G1 X182.477 Y145.518 E7.37743
G1 X182.044 Y145.724 E7.39964
G1 X181.549 Y145.887 E7.42378
G1 X181.075 Y145.98 E7.44615
G1 X180.562 Y146.017 E7.46997
G1 X111.519 Y146.017 E10.66814
G1 X110.952 Y145.972 E10.69449
G1 X110.438 Y145.861 E10.71885
G1 X109.943 Y145.684 E10.7432
G1 X109.476 Y145.443 E10.76754
G1 X109.044 Y145.144 E10.79188
G1 X108.655 Y144.791 E10.81621
G1 X108.311 Y144.384 E10.84089
G1 X108.026 Y143.94 E10.86533
G1 X107.818 Y143.502 E10.88779
G1 X107.655 Y143.007 E10.91193
G1 X107.562 Y142.533 E10.9343
G1 X107.525 Y142.02 E10.95812
G1 X107.526 Y107.936 E12.53694
G1 X107.57 Y107.41 E12.56139
G1 X107.681 Y106.896 E12.58575
G1 X107.858 Y106.401 E12.6101
G1 X108.098 Y105.934 E12.63442
G1 X108.397 Y105.503 E12.65872
G1 X108.69 Y105.18 E12.67892
G1 X109.103 Y105.551 F7800
G1 F1800
G1 X109.475 Y105.228 E12.70174
G1 X109.887 Y104.963 E12.72443
G1 X110.259 Y104.788 E12.74347
G1 X110.689 Y104.648 E12.76442
G1 X111.096 Y104.57 E12.78362
G1 X111.531 Y104.54 E12.80382
G1 X180.574 Y104.541 E16.00199
G1 X181.077 Y104.583 E16.02537
G1 X181.439 Y104.66 E16.04251
G1 X181.79 Y104.775 E16.05962
G1 X182.234 Y104.984 E16.08235
G1 X182.655 Y105.263 E16.10574
G1 X183.021 Y105.589 E16.12844
G1 X183.284 Y105.893 E16.14706
G1 X183.511 Y106.227 E16.16577
G1 X183.735 Y106.672 E16.18885
G1 X183.894 Y107.15 E16.21218
G1 X183.972 Y107.561 E16.23156
G1 X184.001 Y107.972 E16.25065
G1 X184.001 Y114.54 E16.55489
G1 X188.509 Y114.542 E16.76371
G1 X188.909 Y114.571 E16.78229
G1 X189.318 Y114.65 E16.80159
G1 X189.827 Y114.824 E16.82651
G1 X190.261 Y115.048 E16.84913
G1 X190.566 Y115.258 E16.86628
G1 X190.846 Y115.498 E16.88336
G1 X191.173 Y115.858 E16.90589
G1 X191.434 Y116.238 E16.92724
G1 X191.655 Y116.681 E16.95017
G1 X191.789 Y117.069 E16.96918
G1 X191.881 Y117.501 E16.98964
G1 X191.917 Y117.966 E17.01124
G1 X191.918 Y132.013 E17.66192
G1 X191.876 Y132.532 E17.68604
M73 P4 R12
G1 X191.8 Y132.893 E17.70313
G1 X191.685 Y133.245 E17.72028
G1 X191.498 Y133.65 E17.74094
G1 X191.257 Y134.032 E17.76186
G1 X190.967 Y134.38 E17.78284
G1 X190.635 Y134.687 E17.80379
G1 X190.161 Y135.01 E17.83036
G1 X189.786 Y135.194 E17.84971
G1 X189.357 Y135.34 E17.8707
G1 X188.913 Y135.428 E17.89167
G1 X188.471 Y135.46 E17.9122
G1 X184.001 Y135.46 E18.11926
G1 X184.001 Y142.011 E18.42271
G1 X183.964 Y142.493 E18.4451
G1 X183.858 Y142.981 E18.46823
G1 X183.701 Y143.407 E18.48926
G1 X183.49 Y143.808 E18.51025
G1 X183.229 Y144.177 E18.53119
G1 X182.922 Y144.509 E18.55214
G1 X182.574 Y144.798 E18.57309
G1 X182.195 Y145.037 E18.59384
G1 X181.824 Y145.212 E18.61284
G1 X181.394 Y145.352 E18.63379
G1 X180.987 Y145.43 E18.65299
G1 X180.553 Y145.46 E18.67314
G1 X111.529 Y145.46 E21.87043
G1 X111.048 Y145.423 E21.89278
G1 X110.605 Y145.329 E21.91376
G1 X110.178 Y145.178 E21.93474
G1 X109.775 Y144.973 E21.95568
G1 X109.402 Y144.717 E21.97664
G1 X109.066 Y144.415 E21.99757
G1 X108.769 Y144.067 E22.01876
G1 X108.505 Y143.655 E22.04143
G1 X108.33 Y143.283 E22.06047
G1 X108.19 Y142.853 E22.08142
G1 X108.112 Y142.446 E22.10062
G1 X108.082 Y142.011 E22.12082
G1 X108.083 Y107.968 E23.69774
G1 X108.119 Y107.507 E23.71916
G1 X108.213 Y107.063 E23.74018
G1 X108.363 Y106.637 E23.7611
G1 X108.568 Y106.234 E23.78204
G1 X108.824 Y105.861 E23.803
G1 X109.043 Y105.618 E23.81815
G1 X109.457 Y105.987 F7800
G1 F1800
G1 X109.795 Y105.684 E23.83918
G1 X110.144 Y105.458 E23.85844
G1 X110.452 Y105.311 E23.87425
G1 X110.812 Y105.192 E23.89181
G1 X111.183 Y105.121 E23.90931
G1 X111.54 Y105.097 E23.92588
G1 X180.563 Y105.098 E27.12312
G1 X180.981 Y105.132 E27.14255
G1 X181.282 Y105.195 E27.15679
G1 X181.6 Y105.298 E27.17227
G1 X181.975 Y105.478 E27.19154
G1 X182.327 Y105.714 E27.21117
G1 X182.633 Y105.989 E27.23023
G1 X182.85 Y106.243 E27.2457
G1 X183.023 Y106.496 E27.2599
G1 X183.214 Y106.871 E27.27939
G1 X183.351 Y107.274 E27.29911
G1 X183.421 Y107.647 E27.31669
G1 X183.444 Y107.999 E27.33303
G1 X183.444 Y115.097 E27.66182
G1 X188.478 Y115.098 E27.895
G1 X188.85 Y115.125 E27.91228
G1 X189.191 Y115.193 E27.92839
G1 X189.591 Y115.329 E27.94796
G1 X189.963 Y115.519 E27.96731
G1 X190.216 Y115.691 E27.98148
M73 P5 R12
G1 X190.47 Y115.909 E27.99698
G1 X190.745 Y116.215 E28.01604
G1 X190.962 Y116.534 E28.03391
G1 X191.147 Y116.91 E28.05332
G1 X191.256 Y117.23 E28.06898
G1 X191.331 Y117.595 E28.08624
G1 X191.361 Y117.997 E28.10491
G1 X191.361 Y132.003 E28.75369
G1 X191.327 Y132.434 E28.77372
G1 X191.258 Y132.762 E28.78925
G1 X191.162 Y133.053 E28.80344
G1 X191.002 Y133.396 E28.82097
G1 X190.797 Y133.716 E28.83857
G1 X190.553 Y134.007 E28.85616
G1 X190.274 Y134.263 E28.8737
G1 X189.899 Y134.518 E28.89471
G1 X189.558 Y134.685 E28.9123
G1 X189.198 Y134.805 E28.92988
G1 X188.825 Y134.878 E28.94749
G1 X188.462 Y134.903 E28.96434
G1 X183.444 Y134.903 E29.19678
G1 X183.444 Y142.001 E29.52557
G1 X183.415 Y142.397 E29.54396
G1 X183.328 Y142.81 E29.56351
G1 X183.198 Y143.168 E29.58115
G1 X183.022 Y143.504 E29.59872
G1 X182.805 Y143.815 E29.61629
G1 X182.549 Y144.095 E29.63386
G1 X182.258 Y144.339 E29.65145
G1 X181.94 Y144.542 E29.66893
G1 X181.632 Y144.689 E29.68474
G1 X181.271 Y144.808 E29.70235
G1 X180.9 Y144.879 E29.71985
G1 X180.544 Y144.903 E29.73638
G1 X111.539 Y144.903 E32.93279
G1 X111.142 Y144.874 E32.95123
G1 X110.769 Y144.797 E32.96887
G1 X110.411 Y144.672 E32.98643
G1 X110.072 Y144.501 E33.00402
G1 X109.758 Y144.288 E33.0216
G1 X109.475 Y144.036 E33.03915
G1 X109.226 Y143.747 E33.05682
G1 X108.999 Y143.398 E33.0761
G1 X108.853 Y143.09 E33.09189
G1 X108.734 Y142.73 E33.10945
G1 X108.663 Y142.358 E33.12699
G1 X108.639 Y142.002 E33.14352
G1 X108.639 Y107.998 E34.71863
G1 X108.668 Y107.6 E34.73711
G1 X108.745 Y107.228 E34.75471
G1 X108.87 Y106.869 E34.77232
G1 X109.04 Y106.53 E34.78989
G1 X109.253 Y106.216 E34.80747
G1 X109.398 Y106.055 E34.81751
G1 X109.815 Y106.422 F7800
G1 F1800
G1 X110.117 Y106.138 E34.83671
G1 X110.403 Y105.951 E34.85254
G1 X110.648 Y105.833 E34.86514
G1 X110.939 Y105.735 E34.87936
G1 X111.24 Y105.675 E34.89358
G1 X111.549 Y105.654 E34.90793
G1 X180.552 Y105.655 E38.10424
G1 X180.886 Y105.681 E38.11976
G1 X181.152 Y105.737 E38.13235
G1 X181.406 Y105.821 E38.14474
G1 X181.713 Y105.97 E38.16055
G1 X181.998 Y106.163 E38.17649
G1 X182.224 Y106.367 E38.19059
G1 X182.399 Y106.57 E38.203
G1 X182.552 Y106.794 E38.21557
G1 X182.707 Y107.102 E38.23154
G1 X182.815 Y107.429 E38.24749
G1 X182.87 Y107.73 E38.26166
G1 X182.887 Y108.007 E38.27452
G1 X182.887 Y115.654 E38.62874
G1 X188.451 Y115.654 E38.88647
M73 P6 R12
G1 X188.76 Y115.675 E38.90082
G1 X189.063 Y115.735 E38.91513
G1 X189.389 Y115.849 E38.93113
G1 X189.663 Y115.989 E38.94538
G1 X189.888 Y116.142 E38.95798
G1 X190.091 Y116.317 E38.97039
G1 X190.316 Y116.57 E38.98607
G1 X190.487 Y116.826 E39.00033
G1 X190.637 Y117.135 E39.01624
G1 X190.722 Y117.39 E39.02869
G1 X190.777 Y117.656 E39.04127
G1 X190.804 Y118.008 E39.05762
G1 X190.804 Y131.993 E39.70542
G1 X190.778 Y132.341 E39.72158
G1 X190.724 Y132.603 E39.73397
G1 X190.638 Y132.862 E39.74661
G1 X190.507 Y133.14 E39.76085
G1 X190.34 Y133.397 E39.77505
G1 X190.142 Y133.631 E39.78925
G1 X189.915 Y133.836 E39.80342
G1 X189.633 Y134.028 E39.81922
G1 X189.359 Y134.164 E39.83339
G1 X189.069 Y134.263 E39.84758
G1 X188.767 Y134.324 E39.86185
G1 X188.452 Y134.346 E39.87648
G1 X182.887 Y134.346 E40.13426
G1 X182.887 Y141.992 E40.48843
G1 X182.866 Y142.304 E40.50291
G1 X182.796 Y142.642 E40.5189
G1 X182.693 Y142.931 E40.53311
G1 X182.553 Y143.204 E40.54732
G1 X182.379 Y143.456 E40.56151
G1 X182.173 Y143.683 E40.57571
G1 X181.939 Y143.882 E40.58994
G1 X181.681 Y144.049 E40.60418
G1 X181.436 Y144.167 E40.61678
G1 X181.144 Y144.265 E40.63105
G1 X180.844 Y144.325 E40.64522
G1 X180.534 Y144.346 E40.65961
G1 X111.548 Y144.346 E43.85514
G1 X111.233 Y144.324 E43.86977
M73 P6 R11
G1 X110.931 Y144.263 E43.88404
G1 X110.641 Y144.164 E43.89823
G1 X110.366 Y144.028 E43.91244
G1 X110.111 Y143.857 E43.92666
G1 X109.881 Y143.654 E43.94087
G1 X109.68 Y143.424 E43.95502
G1 X109.492 Y143.138 E43.97087
G1 X109.375 Y142.894 E43.9834
G1 X109.276 Y142.602 E43.99768
G1 X109.217 Y142.302 E44.01184
G1 X109.196 Y141.992 E44.02623
G1 X109.196 Y108.007 E45.60046
G1 X109.218 Y107.691 E45.61513
G1 X109.279 Y107.389 E45.6294
G1 X109.378 Y107.099 E45.64359
G1 X109.514 Y106.824 E45.6578
G1 X109.755 Y106.489 E45.67692
G1 X110.17 Y106.859 F7800
G1 F1800
G1 X110.289 Y106.725 E45.68522
G1 X110.466 Y106.573 E45.69603
G1 X110.662 Y106.445 E45.70687
G1 X110.872 Y106.343 E45.71768
G1 X111.094 Y106.27 E45.72851
G1 X111.325 Y106.226 E45.7394
G1 X111.557 Y106.211 E45.75017
G1 X180.543 Y106.212 E48.9457
G1 X180.791 Y106.23 E48.95722
G1 X181.021 Y106.278 E48.9681
G1 X181.21 Y106.343 E48.97736
G1 X181.42 Y106.444 E48.98815
G1 X181.643 Y106.593 E49.00057
G1 X181.817 Y106.748 E49.01136
G1 X181.949 Y106.899 E49.02065
G1 X182.081 Y107.093 E49.03152
G1 X182.186 Y107.3 E49.04227
G1 X182.272 Y107.554 E49.05469
G1 X182.316 Y107.783 E49.06549
M73 P7 R11
G1 X182.33 Y108.016 E49.0763
G1 X182.33 Y116.211 E49.4559
G1 X188.443 Y116.211 E49.73906
G1 X188.675 Y116.226 E49.74983
G1 X188.904 Y116.27 E49.76063
G1 X189.158 Y116.356 E49.77305
G1 X189.365 Y116.46 E49.78378
G1 X189.56 Y116.593 E49.79471
G1 X189.71 Y116.724 E49.80393
G1 X189.866 Y116.9 E49.81482
G1 X189.997 Y117.092 E49.82559
G1 X190.116 Y117.333 E49.83804
G1 X190.18 Y117.521 E49.84724
G1 X190.228 Y117.751 E49.85812
G1 X190.247 Y118.017 E49.87047
G1 X190.247 Y131.983 E50.51739
G1 X190.228 Y132.25 E50.52979
G1 X190.189 Y132.446 E50.53905
G1 X190.115 Y132.669 E50.54993
G1 X190.014 Y132.88 E50.56077
G1 X189.886 Y133.075 E50.57157
G1 X189.733 Y133.252 E50.58241
G1 X189.559 Y133.408 E50.59323
G1 X189.365 Y133.54 E50.6041
G1 X189.157 Y133.645 E50.61489
G1 X188.936 Y133.722 E50.62573
G1 X188.708 Y133.769 E50.63651
G1 X188.441 Y133.789 E50.64891
G1 X182.33 Y133.789 E50.93198
G1 X182.33 Y141.984 E51.31158
G1 X182.316 Y142.215 E51.3223
G1 X182.263 Y142.479 E51.33477
G1 X182.187 Y142.698 E51.34551
G1 X182.081 Y142.907 E51.35637
G1 X181.95 Y143.1 E51.36717
G1 X181.794 Y143.275 E51.37803
G1 X181.617 Y143.427 E51.38884
G1 X181.421 Y143.555 E51.39968
G1 X181.211 Y143.657 E51.41049
G1 X180.989 Y143.73 E51.42132
G1 X180.758 Y143.774 E51.43221
G1 X180.526 Y143.789 E51.44298
G1 X111.559 Y143.789 E54.63763
G1 X111.292 Y143.769 E54.65003
G1 X111.064 Y143.722 E54.66081
G1 X110.843 Y143.645 E54.67165
G1 X110.635 Y143.54 E54.68244
G1 X110.441 Y143.408 E54.69331
G1 X110.267 Y143.252 E54.70413
G1 X110.114 Y143.075 E54.71497
G1 X109.986 Y142.88 E54.72577
G1 X109.885 Y142.669 E54.73661
G1 X109.812 Y142.447 E54.74744
G1 X109.768 Y142.217 E54.75829
G1 X109.753 Y141.984 E54.76911
G1 X109.753 Y108.017 E56.34251
G1 X109.772 Y107.751 E56.35486
G1 X109.82 Y107.522 E56.3657
G1 X109.897 Y107.302 E56.3765
G1 X110.002 Y107.093 E56.38733
G1 X110.113 Y106.929 E56.3965
; printing object s id:0 copy 0
G1 E54.9965 F2400
G92 E0
G1 Z.7 F7800
G1 X180.894 Y118.059
G1 Z.2
G1 E1.4 F2400
;TYPE:Perimeter
;WIDTH:0.672693
G1 F1800
G1 X180.482 Y118.059 E1.42157
G1 X180.482 Y117.745 E1.43801
;WIDTH:0.719876
G1 X180.506 Y117.42 E1.45635
;WIDTH:0.767058
G1 X180.529 Y117.095 E1.47597
;WIDTH:0.81424
G1 X180.553 Y116.771 E1.49681
G1 X180.623 Y116.93 E1.50795
;WIDTH:0.771625
G1 X180.693 Y117.09 E1.51853
;WIDTH:0.72901
G1 X180.856 Y117.306 E1.53397
;WIDTH:0.700852
G1 X181.02 Y117.522 E1.54881
;WIDTH:0.672693
G1 X181.463 Y117.823 E1.57686
;WIDTH:0.712356
G1 X181.652 Y117.882 E1.58788
;WIDTH:0.752019
G1 X181.841 Y117.941 E1.59955
;WIDTH:0.791682
G1 X182.03 Y118 E1.61188
G1 X181.825 Y118.02 E1.6247
;WIDTH:0.752019
G1 X181.619 Y118.04 E1.6369
;WIDTH:0.712356
G1 X181.414 Y118.059 E1.64836
;WIDTH:0.672693
G1 X180.984 Y118.059 E1.67088
G1 E.27088 F2400
G92 E0
G1 Z.7 F7800
G1 X188.458 Y119.489
G1 Z.2
G1 E1.4 F2400
;WIDTH:0.791682
G1 F1800
G1 X188.399 Y119.299 E1.41239
;WIDTH:0.75202
G1 X188.34 Y119.11 E1.42406
;WIDTH:0.712358
G1 X188.281 Y118.921 E1.43508
;WIDTH:0.672695
G1 X187.98 Y118.478 E1.46313
G1 X187.537 Y118.177 E1.49118
;WIDTH:0.712358
G1 X187.348 Y118.118 E1.5022
;WIDTH:0.752021
G1 X187.159 Y118.059 E1.51387
;WIDTH:0.791684
G1 X186.97 Y118 E1.5262
G1 X187.175 Y117.98 E1.53902
;WIDTH:0.752021
G1 X187.381 Y117.96 E1.55122
;WIDTH:0.712358
G1 X187.586 Y117.941 E1.56268
;WIDTH:0.672695
G1 X188.472 Y117.956 E1.60908
G1 X188.518 Y118.12 E1.618
G1 X188.518 Y118.872 E1.65738
;WIDTH:0.712358
G1 X188.498 Y119.077 E1.66885
;WIDTH:0.75202
M73 P8 R11
G1 X188.478 Y119.283 E1.68105
;WIDTH:0.791682
G1 X188.467 Y119.399 E1.6883
G1 E.2883 F2400
G92 E0
G1 Z.7 F7800
G1 X189.383 Y119.399
G1 X181.466 Y117.076
G1 X180.506 Y107.076
G1 X179.053 Y107.076
G1 X179.053 Y108
G1 Z.2
G1 E1.4 F2400
;WIDTH:0.791684
G1 F1800
G1 X179.259 Y107.98 E1.41289
;WIDTH:0.752021
G1 X179.464 Y107.96 E1.42503
;WIDTH:0.712358
G1 X179.67 Y107.941 E1.43655
;WIDTH:0.672694
G1 X180.555 Y107.956 E1.4829
G1 X180.601 Y108.108 E1.49122
G1 X180.601 Y108.872 E1.53123
;WIDTH:0.712356
G1 X180.581 Y109.077 E1.5427
;WIDTH:0.752018
G1 X180.561 Y109.283 E1.5549
;WIDTH:0.79168
G1 X180.542 Y109.489 E1.56778
