; HEADER_BLOCK_START
; generated by OrcaSlicer 1.7.0 on 2023-10-23 at 17:43:06
; total layer number: 18
; HEADER_BLOCK_END

; THUMBNAIL_BLOCK_START
; THUMBNAIL_BLOCK_END

; external perimeters extrusion width = 0.60mm
; perimeters extrusion width = 0.60mm
; infill extrusion width = 0.60mm
; solid infill extrusion width = 0.60mm
; top infill extrusion width = 0.60mm
; first layer extrusion width = 0.62mm

; EXECUTABLE_BLOCK_START
M73 P0 R15
;TYPE:Custom
M104 S216 ; set extruder temp
M140 S60 ; set bed temp
M190 S60 ; wait for bed temp
M109 S216 ; wait for extruder temp

G28 ; home all
BED_MESH_PROFILE LOAD=default;

G1 Z2.0 F3000 ; Move Z Axis up little to prevent scratching of Heat Bed
G1 X0.1 Y5 Z0.28 F5000.0 ; Move to start position


G92 E0 ; Reset Extruder
G1 Z2.0 F3000 ; Move Z Axis up little to prevent scratching of Heat Bed
G1 X0.1 Y10 Z0.28 F5000.0 ; Move to start position

G1 X0.1 Y200 Z0.28 F1500.0 E15 ; Draw the first line
G1 X0.4 Y200 Z0.28 F5000.0 ; Move to side a little
G1 X0.4 Y10 Z0.28 F1500.0 E30 ; Draw the second line


G92 E0 ; Reset Extruder
G1 Z0.5 F3000 ; Move Z Axis up little to prevent scratching of Heat Bed
M117 Godmode is enabled
G90
G21
M83 ; use relative distances for extrusion
; filament start gcode
M106 S0
;LAYER_CHANGE
;Z:0.26
;HEIGHT:0.26
;BEFORE_LAYER_CHANGE
;0.26
G92 E0

M73 P1 R15
G1 E-1.15 F3600
;_SET_FAN_SPEED_CHANGING_LAYER
G1 X97.024 Y98.864 F9000
G1 Z.26
G1 E1.15 F2400
;TYPE:Skirt
;WIDTH:0.62
G1 F1200
G1 X97.602 Y98.309 E.04887
G1 X98.248 Y97.835 E.04886
G1 X98.95 Y97.45 E.04887
G1 X99.697 Y97.159 E.04887
G1 X100.475 Y96.968 E.04887
G1 X101.542 Y96.872 E.06531
G1 X170.548 Y96.872 E4.20857
G1 X171.865 Y97.019 E.08077
M73 P2 R15
G1 X173.133 Y97.45 E.08168
G1 X174.053 Y97.981 E.06478
G1 X175.06 Y98.864 E.08169
G1 X183.478 Y109.489 E.82672
G1 X183.893 Y110.174 E.04887
G1 X184.215 Y110.908 E.04887
G1 X184.439 Y111.677 E.04886
G1 X184.561 Y112.469 E.04887
G1 X184.587 Y127 E.88622
G1 X184.49 Y128.066 E.06529
G1 X184.215 Y129.092 E.06479
G1 X183.893 Y129.826 E.04887
G1 X183.282 Y130.78 E.0691
G1 X175.365 Y140.78 E.77786
G1 X174.678 Y141.518 E.06151
G1 X173.835 Y142.165 E.06478
G1 X173.133 Y142.55 E.04887
G1 X172.386 Y142.841 E.04887
G1 X171.608 Y143.032 E.04887
G1 X170.542 Y143.128 E.06531
G1 X101.542 Y143.128 E4.20816
G1 X100.219 Y142.981 E.08119
G1 X99.449 Y142.757 E.04887
G1 X98.716 Y142.435 E.04887
G1 X98.031 Y142.019 E.04887
G1 X97.405 Y141.518 E.04886
G1 X96.851 Y140.94 E.04887
G1 X96.377 Y140.294 E.04887
G1 X95.991 Y139.591 E.04886
G1 X95.7 Y138.845 E.04887
G1 X95.51 Y138.066 E.04886
G1 X95.413 Y137 E.06531
G1 X95.422 Y102.73 E2.09006
G1 X95.51 Y101.934 E.04887
M73 P3 R15
G1 X95.701 Y101.155 E.04887
G1 X95.991 Y100.409 E.04887
G1 X96.377 Y99.706 E.04886
G1 X96.987 Y98.911 E.06112
G1 X97.45 Y99.298 F9000
G1 F1200
G1 X97.777 Y98.906 E.03117
G1 X98.965 Y98.071 E.08854
G1 X100.329 Y97.572 E.08855
G1 X101.542 Y97.436 E.07444
G1 X170.548 Y97.436 E4.20857
G1 X171.755 Y97.572 E.07403
G1 X172.883 Y97.956 E.0727
G1 X173.739 Y98.45 E.06027
G1 X174.636 Y99.236 E.0727
G1 X183.009 Y109.802 E.82222
G1 X183.681 Y111.089 E.08855
G1 X183.937 Y112.044 E.06027
G1 X184.015 Y112.767 E.04437
G1 X184.023 Y127 E.86805
G1 X183.937 Y127.956 E.05855
G1 X183.681 Y128.911 E.06029
G1 X183.387 Y129.576 E.04437
G1 X182.84 Y130.43 E.06184
G1 X174.923 Y140.43 E.77786
G1 X174.109 Y141.266 E.07117
G1 X173.118 Y141.929 E.0727
G1 X171.755 Y142.428 E.08855
G1 X170.542 Y142.564 E.07444
G1 X101.542 Y142.564 E4.20816
G1 X100.585 Y142.479 E.05856
M73 P4 R15
G1 X99.878 Y142.307 E.04437
G1 X98.561 Y141.696 E.08854
G1 X97.448 Y140.764 E.08854
G1 X96.613 Y139.576 E.08854
G1 X96.114 Y138.213 E.08854
G1 X95.977 Y137 E.07445
G1 X95.985 Y102.767 E2.0878
G1 X96.235 Y101.337 E.08854
G1 X96.846 Y100.02 E.08854
G1 X97.411 Y99.344 E.05372
G1 E-.805 F3600
;WIPE_START
G1 F1200
G1 X97.777 Y98.906 E-.19704
G1 X98.128 Y98.659 E-.14796
;WIPE_END
G1 X170.361 Y137.462 F9000
G1 E1.15 F2400
;TYPE:Inner wall
;WIDTH:0.641194
G1 F1200
G1 X169.635 Y137.451 E.04363
;WIDTH:0.679492
G1 X168.91 Y137.432 E.0465
G1 X103.174 Y137.432 E4.21023
G1 X102.811 Y137.447 E.02326
;WIDTH:0.649746
G1 X102.448 Y137.462 E.02215
;WIDTH:0.62
G1 X101.483 Y137.441 E.0559
G1 X101.271 Y137.353 E.01333
G1 X101.13 Y137.171 E.01336
G1 X101.08 Y136.819 E.02056
;WIDTH:0.641194
G1 X101.091 Y136.094 E.04363
;WIDTH:0.679492
G1 X101.11 Y135.368 E.0465
G1 X101.11 Y104.632 E1.96856
G1 X101.095 Y104.271 E.02318
;WIDTH:0.649746
M73 P5 R14
G1 X101.08 Y103.909 E.02207
;WIDTH:0.62
G1 X101.08 Y103.096 E.04709
G1 X101.153 Y102.775 E.01906
G1 X101.317 Y102.611 E.01347
G1 X101.547 Y102.55 E.01381
G1 X102.06 Y102.538 E.02969
;WIDTH:0.649743
G1 X102.617 Y102.553 E.03398
;WIDTH:0.679487
G1 X103.174 Y102.568 E.03569
G1 X168.91 Y102.568 E4.21019
;WIDTH:0.679274
G1 X169.272 Y102.554 E.02325
;WIDTH:0.649637
G1 X169.635 Y102.539 E.02215
;WIDTH:0.62
G1 X170.452 Y102.539 E.04729
G1 X170.765 Y102.61 E.0186
G1 X170.93 Y102.775 E.01354
G1 X171.003 Y103.096 E.01909
G1 X171.003 Y103.907 E.04695
;WIDTH:0.649745
G1 X170.988 Y104.269 E.02215
;WIDTH:0.67949
G1 X170.974 Y104.632 E.02326
G1 X170.974 Y111.128 E.41604
;WIDTH:0.692768
G1 X170.989 Y111.378 E.01638
G1 X171.049 Y111.535 E.01102
;WIDTH:0.666981
G1 X171.11 Y111.692 E.01057
;WIDTH:0.641194
G1 X171.416 Y112.125 E.0319
;WIDTH:0.62
G1 X171.854 Y112.422 E.03062
;WIDTH:0.649745
G1 X172.134 Y112.495 E.01765
;WIDTH:0.679492
G1 X172.414 Y112.568 E.01854
G1 X176.826 Y112.568 E.28261
G1 X177.189 Y112.553 E.02326
;WIDTH:0.649746
G1 X177.552 Y112.538 E.02215
;WIDTH:0.62
G1 X178.514 Y112.558 E.05574
G1 X178.731 Y112.648 E.01359
G1 X178.87 Y112.829 E.01324
G1 X178.92 Y113.135 E.01797
G1 X178.92 Y113.906 E.04468
;WIDTH:0.649745
G1 X178.905 Y114.269 E.02215
;WIDTH:0.679492
G1 X178.89 Y114.632 E.02326
G1 X178.89 Y125.368 E.6876
G1 X178.909 Y126.094 E.0465
;WIDTH:0.641194
G1 X178.9 Y127.058 E.05799
;WIDTH:0.62
G1 X178.812 Y127.271 E.01333
G1 X178.629 Y127.411 E.01335
G1 X178.278 Y127.462 E.02056
;WIDTH:0.641194
G1 X177.552 Y127.451 E.04363
;WIDTH:0.679492
G1 X176.826 Y127.432 E.0465
G1 X172.414 Y127.432 E.28261
;WIDTH:0.692768
G1 X172.164 Y127.447 E.01638
G1 X172.007 Y127.507 E.01102
;WIDTH:0.666981
G1 X171.849 Y127.568 E.01057
;WIDTH:0.641194
G1 X171.416 Y127.875 E.0319
;WIDTH:0.62
G1 X171.119 Y128.312 E.03062
;WIDTH:0.649745
G1 X171.046 Y128.592 E.01765
;WIDTH:0.67949
G1 X170.974 Y128.872 E.01854
G1 X170.974 Y135.368 E.41604
G1 X170.993 Y136.094 E.0465
;WIDTH:0.641192
G1 X170.983 Y137.056 E.05783
;WIDTH:0.62
G1 X170.894 Y137.273 E.01359
G1 X170.712 Y137.411 E.01324
G1 X170.42 Y137.453 E.01709
G1 X170.482 Y138.026 F9000
G1 F1200
G1 X101.601 Y138.026 E3.99086
G1 X101.155 Y137.933 E.0264
M73 P6 R14
G1 X100.822 Y137.72 E.02291
G1 X100.609 Y137.387 E.02291
G1 X100.516 Y136.941 E.0264
G1 X100.516 Y103.186 E1.95569
G1 X100.558 Y102.736 E.02617
G1 X100.741 Y102.386 E.0229
G1 X101.033 Y102.118 E.02294
G1 X101.389 Y101.989 E.02199
G1 X102.048 Y101.974 E.03816
G1 X170.489 Y101.975 E3.96535
G1 X170.927 Y102.067 E.02594
G1 X171.265 Y102.284 E.02329
G1 X171.474 Y102.614 E.02264
G1 X171.567 Y103.059 E.02638
G1 X171.567 Y111.128 E.46747
G1 X171.637 Y111.464 E.01989
G1 X171.815 Y111.726 E.01837
G1 X172.078 Y111.905 E.01837
G1 X172.414 Y111.974 E.01989
G1 X177.552 Y111.974 E.2977
G1 X178.587 Y111.999 E.06
G1 X178.972 Y112.121 E.02337
G1 X179.257 Y112.383 E.02247
G1 X179.442 Y112.736 E.02308
G1 X179.484 Y113.135 E.02324
G1 X179.484 Y126.941 E.79986
G1 X179.391 Y127.387 E.0264
G1 X179.178 Y127.72 E.02291
G1 X178.845 Y127.933 E.02291
G1 X178.399 Y128.026 E.0264
G1 X172.414 Y128.026 E.34677
G1 X172.078 Y128.095 E.01989
G1 X171.815 Y128.274 E.01837
G1 X171.637 Y128.536 E.01837
G1 X171.567 Y128.872 E.01989
G1 X171.558 Y137.016 E.47183
G1 X171.473 Y137.387 E.02207
G1 X171.262 Y137.72 E.02283
G1 X170.928 Y137.933 E.02292
G1 X170.541 Y138.014 E.02293
G1 X170.519 Y138.59 F9000
;TYPE:Outer wall
G1 F1200
G1 X101.677 Y138.59 E3.98861
G1 X101.131 Y138.533 E.03181
M73 P7 R14
G1 X100.748 Y138.375 E.024
G1 X100.419 Y138.122 E.02401
G1 X100.167 Y137.794 E.02401
G1 X100.008 Y137.411 E.024
G1 X99.952 Y136.977 E.02533
G1 X99.952 Y103.135 E1.9608
G1 X100.008 Y102.589 E.03178
G1 X100.167 Y102.206 E.024
G1 X100.419 Y101.878 E.02401
G1 X100.748 Y101.625 E.02401
G1 X100.939 Y101.546 E.012
G1 X101.328 Y101.426 E.02355
G1 X102.042 Y101.41 E.04138
G1 X170.413 Y101.41 E3.96132
G1 X170.952 Y101.467 E.03143
G1 X171.335 Y101.625 E.02399
G1 X171.668 Y101.882 E.02438
G1 X171.916 Y102.206 E.02365
G1 X172.075 Y102.589 E.02401
G1 X172.132 Y103.023 E.02533
G1 X172.132 Y111.128 E.46961
G1 X172.214 Y111.327 E.01251
G1 X172.414 Y111.41 E.01251
G1 X178.323 Y111.41 E.34238
G1 X178.869 Y111.467 E.03179
M73 P8 R14
G1 X179.257 Y111.629 E.02437
G1 X179.581 Y111.878 E.02365
G1 X179.833 Y112.206 E.02402
G1 X179.992 Y112.589 E.024
G1 X180.048 Y113.135 E.03181
G1 X180.048 Y126.865 E.79547
G1 X179.992 Y127.411 E.03181
G1 X179.833 Y127.794 E.024
G1 X179.581 Y128.122 E.02401
G1 X179.252 Y128.375 E.02401
G1 X178.869 Y128.533 E.024
G1 X178.436 Y128.59 E.02533
G1 X172.414 Y128.59 E.3489
G1 X172.214 Y128.673 E.01251
G1 X172.132 Y128.872 E.01251
G1 X172.132 Y136.865 E.46308
G1 X172.075 Y137.411 E.03179
G1 X171.913 Y137.799 E.02437
G1 X171.664 Y138.122 E.02365
G1 X171.335 Y138.375 E.02402
G1 X170.953 Y138.533 E.024
G1 X170.579 Y138.582 E.02185
G1 E-.805 F3600
;WIPE_START
G1 F1200
G1 X169.579 Y138.582 E-.345
;WIPE_END
G1 X102.916 Y136.741 F9000
G1 E1.15 F2400
;TYPE:Inner wall
;WIDTH:0.679492
G1 F1200
G1 X102.894 Y136.735 E.00148
;WIDTH:0.649746
G1 X102.614 Y136.662 E.01765
;WIDTH:0.62
G1 X102.176 Y136.365 E.03062
;WIDTH:0.641194
G1 X101.87 Y135.932 E.0319
;WIDTH:0.666981
G1 X101.809 Y135.775 E.01057
;WIDTH:0.692768
G1 X101.749 Y135.618 E.01102
G1 X101.734 Y135.368 E.01638
;WIDTH:0.679492
G1 X101.734 Y104.632 E1.96856
G1 X101.806 Y104.353 E.01847
;WIDTH:0.649746
G1 X101.878 Y104.074 E.01759
;WIDTH:0.62
G1 X102.174 Y103.637 E.03053
G1 X102.359 Y103.481 E.01407
;WIDTH:0.656381
G1 X102.642 Y103.344 E.01934
;WIDTH:0.692763
G1 X102.924 Y103.207 E.02052
G1 X103.174 Y103.192 E.01638
;WIDTH:0.679487
G1 X168.91 Y103.192 E4.21019
;WIDTH:0.679274
G1 X169.19 Y103.265 E.01853
;WIDTH:0.649637
G1 X169.47 Y103.338 E.01765
;WIDTH:0.62
G1 X169.907 Y103.635 E.03063
G1 X170.204 Y104.072 E.03062
;WIDTH:0.649745
G1 X170.277 Y104.352 E.01765
;WIDTH:0.67949
G1 X170.35 Y104.632 E.01853
G1 X170.35 Y111.128 E.41604
G1 X170.331 Y111.854 E.0465
;WIDTH:0.641194
G1 X170.32 Y112.579 E.04363
;WIDTH:0.62
G1 X170.32 Y113.222 E.03721
G1 X171.688 Y113.222 E.07926
;WIDTH:0.649745
G1 X172.051 Y113.207 E.02215
;WIDTH:0.679492
G1 X172.414 Y113.192 E.02326
G1 X176.826 Y113.192 E.28261
G1 X177.106 Y113.265 E.01854
;WIDTH:0.649746
G1 X177.386 Y113.338 E.01765
;WIDTH:0.62
G1 X177.824 Y113.635 E.03062
G1 X178.121 Y114.072 E.03062
;WIDTH:0.649745
G1 X178.194 Y114.352 E.01765
;WIDTH:0.679492
G1 X178.266 Y114.632 E.01854
G1 X178.266 Y125.368 E.6876
;WIDTH:0.692766
G1 X178.251 Y125.618 E.01638
G1 X178.191 Y125.775 E.01102
;WIDTH:0.66698
G1 X178.13 Y125.932 E.01057
;WIDTH:0.641194
G1 X177.824 Y126.365 E.0319
G1 X177.391 Y126.672 E.0319
;WIDTH:0.666981
G1 X177.233 Y126.733 E.01057
;WIDTH:0.692768
G1 X177.076 Y126.793 E.01102
G1 X176.826 Y126.808 E.01638
;WIDTH:0.679492
G1 X172.414 Y126.808 E.28261
G1 X171.688 Y126.789 E.0465
;WIDTH:0.641194
M73 P9 R14
G1 X170.962 Y126.778 E.04363
;WIDTH:0.62
G1 X170.32 Y126.778 E.03721
G1 X170.32 Y128.146 E.07926
;WIDTH:0.649745
G1 X170.335 Y128.509 E.02215
;WIDTH:0.67949
G1 X170.35 Y128.872 E.02326
G1 X170.35 Y135.368 E.41604
;WIDTH:0.692765
G1 X170.335 Y135.618 E.01638
G1 X170.274 Y135.775 E.01102
;WIDTH:0.666979
G1 X170.214 Y135.932 E.01057
;WIDTH:0.641192
G1 X169.907 Y136.365 E.0319
G1 X169.474 Y136.672 E.0319
;WIDTH:0.666981
G1 X169.317 Y136.733 E.01057
;WIDTH:0.692768
G1 X169.16 Y136.793 E.01102
G1 X168.91 Y136.808 E.01638
;WIDTH:0.679492
G1 X103.174 Y136.808 E4.21023
G1 X102.974 Y136.756 E.01321
G1 X103.063 Y136.191 F9000
;WIDTH:0.62
G1 F1200
G1 X102.838 Y136.145 E.01336
G1 X102.575 Y135.966 E.01837
G1 X102.397 Y135.704 E.01837
G1 X102.327 Y135.368 E.01989
G1 X102.327 Y104.632 E1.78078
G1 X102.397 Y104.297 E.01982
G1 X102.574 Y104.035 E.01832
G1 X102.685 Y103.941 E.00844
G1 X103.028 Y103.799 E.02149
G1 X103.174 Y103.786 E.0085
G1 X168.91 Y103.786 E3.80863
G1 X169.246 Y103.855 E.01989
G1 X169.508 Y104.034 E.01838
G1 X169.686 Y104.296 E.01837
G1 X169.756 Y104.632 E.01988
G1 X169.756 Y113.786 E.53035
G1 X176.826 Y113.786 E.40965
M73 P10 R14
G1 X177.162 Y113.855 E.01989
G1 X177.425 Y114.034 E.01837
G1 X177.603 Y114.296 E.01837
G1 X177.673 Y114.632 E.01989
G1 X177.673 Y125.368 E.62201
G1 X177.603 Y125.704 E.01989
G1 X177.425 Y125.966 E.01837
G1 X177.162 Y126.145 E.01837
G1 X176.826 Y126.214 E.01989
G1 X169.756 Y126.214 E.40965
G1 X169.756 Y135.368 E.53035
G1 X169.686 Y135.704 E.01989
G1 X169.508 Y135.966 E.01837
G1 X169.246 Y136.145 E.01837
G1 X168.91 Y136.214 E.01989
G1 X103.174 Y136.214 E3.80863
G1 X103.122 Y136.204 E.00306
G1 X103.174 Y135.65 F9000
;TYPE:Outer wall
G1 F1200
G1 X102.974 Y135.567 E.01251
G1 X102.892 Y135.368 E.01251
G1 X102.892 Y104.632 E1.78078
G1 X102.974 Y104.433 E.01247
G1 X103.174 Y104.35 E.01255
G1 X168.91 Y104.35 E3.80863
G1 X169.109 Y104.433 E.01251
M73 P11 R14
G1 X169.192 Y104.632 E.01251
G1 X169.192 Y114.35 E.56304
G1 X176.826 Y114.35 E.44233
G1 X177.026 Y114.433 E.01251
G1 X177.108 Y114.632 E.01251
G1 X177.108 Y125.368 E.62201
G1 X177.026 Y125.567 E.01251
G1 X176.826 Y125.65 E.01251
G1 X169.192 Y125.65 E.44233
G1 X169.192 Y135.368 E.56304
G1 X169.109 Y135.567 E.01251
G1 X168.91 Y135.65 E.01251
G1 X103.234 Y135.65 E3.80515
G1 E-.805 F3600
;WIPE_START
M73 P11 R13
G1 F1200
G1 X102.974 Y135.567 E-.09395
G1 X102.892 Y135.368 E-.07449
G1 X102.892 Y134.856 E-.17656
;WIPE_END
G1 X101.265 Y136.722 F9000
G1 E1.15 F2400
;TYPE:Bottom surface
;WIDTH:0.645971
G1 F2100
M106 S0
G1 X101.824 Y137.281 E.04696
G1 E-.805 F3600
;WIPE_START
G1 F2100
G1 X101.265 Y136.722 E-.345
;WIPE_END
G1 X101.34 Y102.828 F9000
G1 E1.15 F2400
;WIDTH:0.664181
G1 F2100
G1 X102.037 Y103.526 E.06039
G1 E-.805 F3600
;WIPE_START
G1 F2100
G1 X101.34 Y102.828 E-.345
;WIPE_END
G1 X170.264 Y102.719 F9000
G1 E1.15 F2400
;WIDTH:0.648256
G1 F2100
G1 X170.823 Y103.278 E.04708
G1 E-.805 F3600
;WIPE_START
G1 F2100
G1 X170.264 Y102.719 E-.345
;WIPE_END
G1 X170.605 Y111.799 F9000
G1 E1.15 F2400
;WIDTH:0.718511
G1 F2100
G1 X171.789 Y112.983 E.11165
G1 E-.805 F3600
;WIPE_START
G1 F2100
G1 X171.082 Y112.276 E-.345
;WIPE_END
G1 X178.177 Y112.719 F9000
G1 E1.15 F2400
;WIDTH:0.646578
G1 F2100
M73 P12 R13
G1 X178.739 Y113.281 E.04728
G1 E-.805 F3600
;WIPE_START
G1 F2100
G1 X178.177 Y112.719 E-.345
;WIPE_END
G1 X177.95 Y126.492 F9000
G1 E1.15 F2400
;WIDTH:0.642971
G1 F2100
G1 X178.639 Y127.181 E.05757
G1 E-.805 F3600
;WIPE_START
G1 F2100
G1 X177.95 Y126.492 E-.345
;WIPE_END
G1 X170.501 Y126.998 F9000
G1 E1.15 F2400
;WIDTH:0.659764
G1 F2100
G1 X171.274 Y127.771 E.06652
G1 E-.805 F3600
;WIPE_START
G1 F2100
G1 X170.567 Y127.064 E-.345
;WIPE_END
G1 X170.033 Y136.492 F9000
G1 E1.15 F2400
;WIDTH:0.642971
G1 F2100
G1 X170.722 Y137.181 E.05756
M106 S255
;LAYER_CHANGE
;Z:0.54
;HEIGHT:0.28
;BEFORE_LAYER_CHANGE
;0.54
G92 E0

G1 E-.805 F3600
;WIPE_START
G1 F2100
G1 X170.033 Y136.492 E-.345
;WIPE_END
;_SET_FAN_SPEED_CHANGING_LAYER
M140 S60 ; set bed temperature
G1 X170.033 Y143.128 Z.54 F9000
G1 E1.15 F2400
;TYPE:Skirt
;WIDTH:0.62
G1 X101.542 Y143.128 E4.24105
G1 X100.219 Y142.981 E.08243
G1 X99.449 Y142.757 E.04962
G1 X98.716 Y142.435 E.04961
G1 X98.031 Y142.019 E.04961
G1 X97.405 Y141.518 E.04961
G1 X96.851 Y140.94 E.04962
G1 X96.377 Y140.294 E.04962
G1 X95.991 Y139.591 E.04961
G1 X95.7 Y138.845 E.04962
G1 X95.51 Y138.066 E.04961
G1 X95.413 Y137 E.06631
G1 X95.422 Y102.73 E2.12202
G1 X95.51 Y101.934 E.04961
G1 X95.701 Y101.155 E.04961
G1 X95.991 Y100.409 E.04961
G1 X96.377 Y99.706 E.04961
G1 X97.024 Y98.864 E.06577
G1 X97.602 Y98.309 E.04962
G1 X98.248 Y97.835 E.04961
G1 X98.95 Y97.45 E.04961
G1 X99.697 Y97.159 E.04961
G1 X100.475 Y96.968 E.04962
G1 X101.542 Y96.872 E.06631
