; HEADER_BLOCK_START
; generated by OrcaSlicer 1.7.0 on 2023-10-23 at 21:30:17
; total layer number: 18
; HEADER_BLOCK_END

; THUMBNAIL_BLOCK_START
; THUMBNAIL_BLOCK_END

; external perimeters extrusion width = 0.60mm
; perimeters extrusion width = 0.60mm
; infill extrusion width = 0.60mm
; solid infill extrusion width = 0.60mm
; top infill extrusion width = 0.60mm
; first layer extrusion width = 0.62mm

; EXECUTABLE_BLOCK_START
M73 P0 R17
;TYPE:Custom
M104 S216 ; set extruder temp
M140 S60 ; set bed temp
M190 S60 ; wait for bed temp
M109 S216 ; wait for extruder temp

G28 ; home all
BED_MESH_PROFILE LOAD=default;

G1 Z2.0 F3000 ; Move Z Axis up little to prevent scratching of Heat Bed
G1 X0.1 Y5 Z0.28 F5000.0 ; Move to start position


G92 E0 ; Reset Extruder
G1 Z2.0 F3000 ; Move Z Axis up little to prevent scratching of Heat Bed
G1 X0.1 Y10 Z0.28 F5000.0 ; Move to start position

G1 X0.1 Y200 Z0.28 F1500.0 E15 ; Draw the first line
G1 X0.4 Y200 Z0.28 F5000.0 ; Move to side a little
M73 P0 R16
G1 X0.4 Y10 Z0.28 F1500.0 E30 ; Draw the second line


G92 E0 ; Reset Extruder
G1 Z0.5 F3000 ; Move Z Axis up little to prevent scratching of Heat Bed
M117 Godmode is enabled
G90
G21
M83 ; use relative distances for extrusion
; filament start gcode
M106 S0
;LAYER_CHANGE
;Z:0.26
;HEIGHT:0.26
;BEFORE_LAYER_CHANGE
;0.26
G92 E0

M73 P1 R16
G1 E-1.15 F3600
;_SET_FAN_SPEED_CHANGING_LAYER
G1 X97.024 Y98.864 F9000
G1 Z.26
G1 E1.15 F2400
;TYPE:Skirt
;WIDTH:0.62
G1 F1200
G1 X97.602 Y98.309 E.04887
G1 X98.248 Y97.835 E.04886
G1 X98.95 Y97.45 E.04887
G1 X99.697 Y97.159 E.04887
G1 X100.475 Y96.968 E.04887
G1 X101.542 Y96.872 E.06531
G1 X170.548 Y96.872 E4.20857
G1 X171.865 Y97.019 E.08077
M73 P2 R16
G1 X173.133 Y97.45 E.08168
G1 X174.053 Y97.981 E.06478
G1 X175.06 Y98.864 E.08169
G1 X183.478 Y109.489 E.82672
G1 X183.893 Y110.174 E.04887
G1 X184.215 Y110.908 E.04887
G1 X184.439 Y111.677 E.04886
G1 X184.561 Y112.469 E.04887
G1 X184.587 Y127 E.88622
G1 X184.49 Y128.066 E.06529
G1 X184.215 Y129.092 E.06479
G1 X183.893 Y129.826 E.04887
G1 X183.282 Y130.78 E.0691
G1 X175.365 Y140.78 E.77786
G1 X174.678 Y141.518 E.06151
G1 X173.835 Y142.165 E.06478
G1 X173.133 Y142.55 E.04887
G1 X172.386 Y142.841 E.04887
G1 X171.608 Y143.032 E.04887
G1 X170.542 Y143.128 E.06531
G1 X101.542 Y143.128 E4.20816
G1 X100.219 Y142.981 E.08119
G1 X99.449 Y142.757 E.04887
G1 X98.716 Y142.435 E.04887
G1 X98.031 Y142.019 E.04887
G1 X97.405 Y141.518 E.04886
G1 X96.851 Y140.94 E.04887
G1 X96.377 Y140.294 E.04887
G1 X95.991 Y139.591 E.04886
G1 X95.7 Y138.845 E.04887
G1 X95.51 Y138.066 E.04886
G1 X95.413 Y137 E.06531
G1 X95.422 Y102.73 E2.09006
G1 X95.51 Y101.934 E.04887
G1 X95.701 Y101.155 E.04887
G1 X95.991 Y100.409 E.04887
G1 X96.377 Y99.706 E.04886
G1 X96.987 Y98.911 E.06112
G1 X97.45 Y99.298 F9000
G1 F1200
G1 X97.777 Y98.906 E.03117
G1 X98.965 Y98.071 E.08854
G1 X100.329 Y97.572 E.08855
G1 X101.542 Y97.436 E.07444
G1 X170.548 Y97.436 E4.20857
G1 X171.755 Y97.572 E.07403
M73 P3 R16
G1 X172.883 Y97.956 E.0727
G1 X173.739 Y98.45 E.06027
G1 X174.636 Y99.236 E.0727
G1 X183.009 Y109.802 E.82222
G1 X183.681 Y111.089 E.08855
G1 X183.937 Y112.044 E.06027
G1 X184.015 Y112.767 E.04437
G1 X184.023 Y127 E.86805
G1 X183.937 Y127.956 E.05855
G1 X183.681 Y128.911 E.06029
G1 X183.387 Y129.576 E.04437
G1 X182.84 Y130.43 E.06184
G1 X174.923 Y140.43 E.77786
G1 X174.109 Y141.266 E.07117
G1 X173.118 Y141.929 E.0727
G1 X171.755 Y142.428 E.08855
G1 X170.542 Y142.564 E.07444
G1 X101.542 Y142.564 E4.20816
G1 X100.585 Y142.479 E.05856
G1 X99.878 Y142.307 E.04437
G1 X98.561 Y141.696 E.08854
G1 X97.448 Y140.764 E.08854
G1 X96.613 Y139.576 E.08854
G1 X96.114 Y138.213 E.08854
G1 X95.977 Y137 E.07445
G1 X95.985 Y102.767 E2.0878
G1 X96.235 Y101.337 E.08854
M73 P4 R16
G1 X96.846 Y100.02 E.08854
G1 X97.411 Y99.344 E.05372
G1 E-.805 F3600
;WIPE_START
G1 F1200
G1 X97.777 Y98.906 E-.19704
G1 X98.128 Y98.659 E-.14796
;WIPE_END
G1 X170.432 Y137.45 F9000
G1 E1.15 F2400
;TYPE:Inner wall
;WIDTH:0.62
G1 F1200
G1 X170.279 Y137.462 E.00888
;WIDTH:0.657679
G1 X169.524 Y137.443 E.04666
;WIDTH:0.692886
G1 X169.378 Y137.425 E.00961
;WIDTH:0.728092
G1 X169.233 Y137.408 E.01014
;WIDTH:0.763299
G1 X169.087 Y137.39 E.01067
G1 X168.77 Y137.397 E.02305
;WIDTH:0.749493
G1 X103.314 Y137.397 E4.66282
G1 X103.062 Y137.418 E.01799
;WIDTH:0.706328
G1 X102.811 Y137.44 E.01687
;WIDTH:0.663164
G1 X102.559 Y137.462 E.01575
;WIDTH:0.62
G1 X101.425 Y137.434 E.06572
G1 X101.224 Y137.318 E.01345
G1 X101.108 Y137.117 E.01345
G1 X101.08 Y136.737 E.02203
;WIDTH:0.657678
G1 X101.099 Y135.983 E.04666
;WIDTH:0.692885
G1 X101.117 Y135.837 E.00961
;WIDTH:0.728092
G1 X101.134 Y135.691 E.01014
;WIDTH:0.763299
G1 X101.152 Y135.545 E.01067
G1 X101.145 Y135.228 E.02305
;WIDTH:0.749493
G1 X101.145 Y104.772 E2.16955
G1 X101.123 Y104.521 E.01794
;WIDTH:0.706328
G1 X101.102 Y104.27 E.01682
;WIDTH:0.663164
G1 X101.08 Y104.019 E.01571
;WIDTH:0.62
G1 X101.08 Y103.096 E.05349
G1 X101.153 Y102.775 E.01906
G1 X101.317 Y102.611 E.01347
G1 X101.547 Y102.55 E.01381
G1 X102.061 Y102.538 E.02976
;WIDTH:0.654417
G1 X102.374 Y102.556 E.01928
;WIDTH:0.688834
G1 X102.687 Y102.573 E.02039
;WIDTH:0.71916
G1 X103.001 Y102.588 E.02136
;WIDTH:0.749485
G1 X103.314 Y102.603 E.02234
G1 X168.77 Y102.603 E4.66277
;WIDTH:0.749275
G1 X169.021 Y102.582 E.01798
;WIDTH:0.706183
M73 P5 R16
G1 X169.273 Y102.56 E.01687
;WIDTH:0.663091
G1 X169.524 Y102.539 E.01575
;WIDTH:0.62
G1 X170.452 Y102.539 E.05372
G1 X170.765 Y102.61 E.0186
G1 X170.93 Y102.775 E.01354
G1 X171.003 Y103.096 E.01909
G1 X171.003 Y104.018 E.05338
;WIDTH:0.663163
G1 X170.982 Y104.269 E.01575
;WIDTH:0.706327
G1 X170.96 Y104.521 E.01686
;WIDTH:0.74949
G1 X170.939 Y104.772 E.01798
G1 X170.939 Y111.128 E.45276
;WIDTH:0.763297
G1 X170.954 Y111.384 E.01864
G1 X171.003 Y111.488 E.00836
;WIDTH:0.728091
G1 X171.053 Y111.592 E.00794
;WIDTH:0.692885
G1 X171.102 Y111.696 E.00752
;WIDTH:0.657678
G1 X171.416 Y112.125 E.03291
;WIDTH:0.62
G1 X171.854 Y112.422 E.03062
;WIDTH:0.663163
G1 X172.04 Y112.483 E.01224
;WIDTH:0.706327
G1 X172.227 Y112.543 E.01311
;WIDTH:0.749493
G1 X172.414 Y112.603 E.01398
G1 X176.686 Y112.603 E.30435
G1 X176.938 Y112.582 E.01799
;WIDTH:0.706328
G1 X177.189 Y112.56 E.01687
;WIDTH:0.663164
G1 X177.441 Y112.538 E.01575
;WIDTH:0.62
G1 X178.514 Y112.558 E.06217
G1 X178.731 Y112.648 E.01359
G1 X178.87 Y112.829 E.01324
G1 X178.92 Y113.135 E.01797
G1 X178.92 Y114.017 E.05111
;WIDTH:0.663163
G1 X178.898 Y114.269 E.01575
;WIDTH:0.706327
G1 X178.877 Y114.521 E.01687
;WIDTH:0.749491
G1 X178.855 Y114.772 E.01799
G1 X178.855 Y125.228 E.74483
;WIDTH:0.763297
G1 X178.848 Y125.545 E.02305
G1 X178.866 Y125.691 E.01067
;WIDTH:0.728091
G1 X178.883 Y125.837 E.01014
;WIDTH:0.692885
G1 X178.901 Y125.983 E.00961
;WIDTH:0.657678
G1 X178.92 Y126.737 E.04666
;WIDTH:0.62
G1 X178.892 Y127.117 E.02203
G1 X178.776 Y127.318 E.01345
G1 X178.575 Y127.434 E.01345
G1 X178.196 Y127.462 E.02203
;WIDTH:0.657678
G1 X177.441 Y127.443 E.04666
;WIDTH:0.692885
G1 X177.295 Y127.425 E.00961
;WIDTH:0.728092
G1 X177.149 Y127.408 E.01014
;WIDTH:0.763299
G1 X177.003 Y127.39 E.01067
G1 X176.686 Y127.397 E.02305
;WIDTH:0.749493
G1 X172.414 Y127.397 E.30435
;WIDTH:0.763299
G1 X172.158 Y127.412 E.01864
G1 X172.054 Y127.462 E.00836
;WIDTH:0.728092
G1 X171.95 Y127.511 E.00794
;WIDTH:0.692886
G1 X171.846 Y127.56 E.00752
;WIDTH:0.657679
G1 X171.416 Y127.875 E.03291
;WIDTH:0.62
G1 X171.119 Y128.312 E.03062
;WIDTH:0.663163
G1 X171.059 Y128.499 E.01224
;WIDTH:0.706327
G1 X170.999 Y128.685 E.01311
;WIDTH:0.74949
G1 X170.939 Y128.872 E.01398
G1 X170.939 Y135.228 E.45276
;WIDTH:0.763296
G1 X170.932 Y135.545 E.02305
G1 X170.949 Y135.691 E.01067
;WIDTH:0.728089
G1 X170.967 Y135.837 E.01014
;WIDTH:0.692883
G1 X170.984 Y135.983 E.00961
;WIDTH:0.657678
G1 X171.003 Y136.737 E.04666
;WIDTH:0.62
G1 X170.976 Y137.115 E.02192
G1 X170.86 Y137.317 E.01351
G1 X170.658 Y137.434 E.01349
G1 X170.492 Y137.446 E.00967
G1 X170.482 Y138.026 F9000
G1 F1200
G1 X101.601 Y138.026 E3.99086
G1 X101.155 Y137.933 E.0264
G1 X100.822 Y137.72 E.02291
G1 X100.609 Y137.387 E.02291
G1 X100.516 Y136.941 E.0264
G1 X100.516 Y103.267 E1.95101
G1 X100.558 Y102.736 E.03083
G1 X100.741 Y102.386 E.0229
G1 X101.033 Y102.118 E.02294
G1 X101.389 Y101.989 E.02199
G1 X102.048 Y101.974 E.03816
G1 X170.489 Y101.975 E3.96535
G1 X170.927 Y102.067 E.02594
M73 P6 R16
G1 X171.265 Y102.284 E.02329
G1 X171.474 Y102.614 E.02264
G1 X171.567 Y103.059 E.02638
G1 X171.567 Y111.128 E.46747
G1 X171.637 Y111.464 E.01989
M73 P6 R15
G1 X171.815 Y111.726 E.01837
G1 X172.078 Y111.905 E.01837
G1 X172.414 Y111.974 E.01989
G1 X177.441 Y111.974 E.29127
G1 X178.587 Y111.999 E.06643
G1 X178.972 Y112.121 E.02337
G1 X179.257 Y112.383 E.02247
G1 X179.442 Y112.736 E.02308
G1 X179.484 Y113.135 E.02324
G1 X179.484 Y126.941 E.79986
G1 X179.391 Y127.387 E.0264
G1 X179.178 Y127.72 E.02291
G1 X178.845 Y127.933 E.02291
G1 X178.399 Y128.026 E.0264
G1 X172.414 Y128.026 E.34677
G1 X172.078 Y128.095 E.01989
G1 X171.815 Y128.274 E.01837
G1 X171.637 Y128.536 E.01837
G1 X171.567 Y128.872 E.01989
G1 X171.558 Y137.016 E.47183
G1 X171.473 Y137.387 E.02207
G1 X171.262 Y137.72 E.02283
G1 X170.928 Y137.933 E.02292
G1 X170.541 Y138.014 E.02293
G1 X170.519 Y138.59 F9000
;TYPE:Outer wall
G1 F1200
G1 X101.677 Y138.59 E3.98861
G1 X101.131 Y138.533 E.03181
G1 X100.748 Y138.375 E.024
G1 X100.419 Y138.122 E.02401
G1 X100.167 Y137.794 E.02401
G1 X100.008 Y137.411 E.024
G1 X99.952 Y136.977 E.02533
G1 X99.952 Y103.135 E1.9608
G1 X100.008 Y102.589 E.03178
G1 X100.167 Y102.206 E.024
G1 X100.419 Y101.878 E.02401
G1 X100.748 Y101.625 E.02401
G1 X100.939 Y101.546 E.012
G1 X101.328 Y101.426 E.02355
G1 X102.042 Y101.41 E.04138
G1 X170.413 Y101.41 E3.96132
M73 P7 R15
G1 X170.952 Y101.467 E.03143
G1 X171.335 Y101.625 E.02399
G1 X171.668 Y101.882 E.02438
G1 X171.916 Y102.206 E.02365
G1 X172.075 Y102.589 E.02401
G1 X172.132 Y103.023 E.02533
G1 X172.132 Y111.128 E.46961
G1 X172.214 Y111.327 E.01251
G1 X172.414 Y111.41 E.01251
G1 X178.323 Y111.41 E.34238
G1 X178.869 Y111.467 E.03179
G1 X179.257 Y111.629 E.02437
G1 X179.581 Y111.878 E.02365
G1 X179.833 Y112.206 E.02402
G1 X179.992 Y112.589 E.024
G1 X180.048 Y113.135 E.03181
G1 X180.048 Y126.865 E.79547
G1 X179.992 Y127.411 E.03181
G1 X179.833 Y127.794 E.024
G1 X179.581 Y128.122 E.02401
G1 X179.252 Y128.375 E.02401
G1 X178.869 Y128.533 E.024
G1 X178.436 Y128.59 E.02533
G1 X172.414 Y128.59 E.3489
G1 X172.214 Y128.673 E.01251
G1 X172.132 Y128.872 E.01251
G1 X172.132 Y136.865 E.46308
G1 X172.075 Y137.411 E.03179
G1 X171.913 Y137.799 E.02437
G1 X171.664 Y138.122 E.02365
G1 X171.335 Y138.375 E.02402
G1 X170.953 Y138.533 E.024
G1 X170.579 Y138.582 E.02185
G1 E-.805 F3600
;WIPE_START
G1 F1200
G1 X169.579 Y138.582 E-.345
;WIPE_END
G1 X103.014 Y136.606 F9000
G1 E1.15 F2400
;TYPE:Inner wall
;WIDTH:0.706328
G1 F1200
G1 X102.94 Y136.583 E.00514
;WIDTH:0.663164
G1 X102.754 Y136.522 E.01224
;WIDTH:0.62
G1 X102.316 Y136.225 E.03062
;WIDTH:0.657678
G1 X102.002 Y135.796 E.03291
;WIDTH:0.692885
G1 X101.953 Y135.692 E.00752
;WIDTH:0.728092
G1 X101.903 Y135.588 E.00794
;WIDTH:0.763299
G1 X101.854 Y135.484 E.00836
G1 X101.839 Y135.228 E.01864
;WIDTH:0.749493
G1 X101.839 Y104.772 E2.16955
G1 X101.899 Y104.586 E.01394
;WIDTH:0.706328
G1 X101.959 Y104.4 E.01307
;WIDTH:0.663164
G1 X102.019 Y104.213 E.01221
;WIDTH:0.62
G1 X102.314 Y103.777 E.03056
;WIDTH:0.654417
G1 X102.573 Y103.593 E.01947
;WIDTH:0.688834
G1 X102.831 Y103.41 E.02059
;WIDTH:0.726063
G1 X102.944 Y103.361 E.00849
;WIDTH:0.763291
G1 X103.058 Y103.312 E.00896
G1 X103.314 Y103.297 E.01864
;WIDTH:0.749485
G1 X168.77 Y103.297 E4.66277
;WIDTH:0.749275
G1 X168.956 Y103.357 E.01398
;WIDTH:0.706183
M73 P8 R15
G1 X169.143 Y103.417 E.01311
;WIDTH:0.663091
G1 X169.33 Y103.478 E.01224
;WIDTH:0.62
G1 X169.767 Y103.775 E.03063
G1 X170.064 Y104.212 E.03062
;WIDTH:0.663163
G1 X170.124 Y104.399 E.01224
;WIDTH:0.706327
G1 X170.185 Y104.585 E.01311
;WIDTH:0.74949
G1 X170.245 Y104.772 E.01398
G1 X170.245 Y111.128 E.45276
;WIDTH:0.763297
G1 X170.252 Y111.445 E.02305
G1 X170.234 Y111.591 E.01067
;WIDTH:0.728091
G1 X170.217 Y111.737 E.01014
;WIDTH:0.692885
G1 X170.199 Y111.883 E.00961
;WIDTH:0.657678
G1 X170.18 Y112.637 E.04666
;WIDTH:0.62
G1 X170.18 Y113.362 E.04196
G1 X171.659 Y113.362 E.08569
;WIDTH:0.663163
G1 X171.911 Y113.34 E.01575
;WIDTH:0.706327
G1 X172.162 Y113.318 E.01687
;WIDTH:0.749491
G1 X172.414 Y113.297 E.01799
G1 X176.686 Y113.297 E.30435
G1 X176.873 Y113.357 E.01398
;WIDTH:0.706328
G1 X177.06 Y113.417 E.01311
;WIDTH:0.663164
G1 X177.246 Y113.478 E.01224
;WIDTH:0.62
G1 X177.684 Y113.775 E.03062
G1 X177.981 Y114.212 E.03062
;WIDTH:0.663163
G1 X178.041 Y114.399 E.01224
;WIDTH:0.706327
G1 X178.101 Y114.585 E.01311
;WIDTH:0.749491
G1 X178.161 Y114.772 E.01398
G1 X178.161 Y125.228 E.74483
;WIDTH:0.763297
G1 X178.146 Y125.484 E.01864
G1 X178.097 Y125.588 E.00836
;WIDTH:0.728091
G1 X178.047 Y125.692 E.00794
;WIDTH:0.692885
G1 X177.998 Y125.796 E.00752
;WIDTH:0.657678
G1 X177.684 Y126.225 E.03291
G1 X177.254 Y126.54 E.03291
;WIDTH:0.692885
G1 X177.15 Y126.589 E.00752
;WIDTH:0.728092
G1 X177.046 Y126.638 E.00794
;WIDTH:0.763299
G1 X176.942 Y126.688 E.00836
G1 X176.686 Y126.703 E.01864
;WIDTH:0.749493
G1 X172.414 Y126.703 E.30435
;WIDTH:0.763299
G1 X172.097 Y126.71 E.02305
G1 X171.951 Y126.692 E.01067
;WIDTH:0.728092
G1 X171.805 Y126.675 E.01014
;WIDTH:0.692886
G1 X171.659 Y126.657 E.00961
;WIDTH:0.657679
G1 X170.904 Y126.638 E.04666
;WIDTH:0.62
G1 X170.18 Y126.638 E.04196
G1 X170.18 Y128.117 E.08569
;WIDTH:0.663163
G1 X170.202 Y128.369 E.01575
;WIDTH:0.706327
G1 X170.223 Y128.621 E.01687
;WIDTH:0.74949
G1 X170.245 Y128.872 E.01799
G1 X170.245 Y135.228 E.45276
;WIDTH:0.763296
G1 X170.229 Y135.484 E.01864
G1 X170.18 Y135.588 E.00836
;WIDTH:0.728089
G1 X170.131 Y135.692 E.00794
;WIDTH:0.692883
G1 X170.081 Y135.796 E.00752
;WIDTH:0.657678
G1 X169.767 Y136.225 E.03291
G1 X169.337 Y136.54 E.03291
;WIDTH:0.692886
G1 X169.233 Y136.589 E.00752
;WIDTH:0.728092
G1 X169.13 Y136.638 E.00794
;WIDTH:0.763299
G1 X169.026 Y136.688 E.00836
G1 X168.77 Y136.703 E.01864
;WIDTH:0.749493
G1 X103.314 Y136.703 E4.66282
G1 X103.127 Y136.643 E.01398
;WIDTH:0.706328
G1 X103.071 Y136.625 E.00396
G1 X103.203 Y136.051 F9000
;WIDTH:0.62
G1 F1200
G1 X102.978 Y136.005 E.01336
G1 X102.715 Y135.826 E.01837
G1 X102.537 Y135.564 E.01837
G1 X102.467 Y135.228 E.01989
G1 X102.467 Y104.772 E1.76456
G1 X102.537 Y104.437 E.01984
G1 X102.793 Y104.105 E.02432
G1 X103.168 Y103.939 E.02372
G1 X103.314 Y103.926 E.0085
G1 X168.77 Y103.926 E3.7924
G1 X169.106 Y103.995 E.01989
M73 P9 R15
G1 X169.368 Y104.174 E.01838
G1 X169.546 Y104.436 E.01837
G1 X169.616 Y104.772 E.01988
G1 X169.616 Y113.926 E.53035
G1 X176.686 Y113.926 E.40965
G1 X177.022 Y113.995 E.01989
G1 X177.285 Y114.174 E.01837
G1 X177.463 Y114.436 E.01837
G1 X177.533 Y114.772 E.01989
G1 X177.533 Y125.228 E.60579
G1 X177.463 Y125.564 E.01989
G1 X177.285 Y125.826 E.01837
G1 X177.022 Y126.005 E.01837
G1 X176.832 Y126.061 E.01149
G1 X176.686 Y126.074 E.0085
G1 X169.616 Y126.074 E.40965
G1 X169.616 Y135.228 E.53035
G1 X169.546 Y135.564 E.01989
G1 X169.368 Y135.826 E.01837
G1 X169.106 Y136.005 E.01837
G1 X168.77 Y136.074 E.01989
G1 X103.314 Y136.074 E3.7924
G1 X103.262 Y136.064 E.00306
G1 X103.314 Y135.51 F9000
;TYPE:Outer wall
G1 F1200
G1 X103.114 Y135.427 E.01251
G1 X103.032 Y135.228 E.01251
G1 X103.032 Y104.772 E1.76456
G1 X103.114 Y104.573 E.01248
G1 X103.265 Y104.494 E.00987
G1 X103.314 Y104.49 E.00283
G1 X168.77 Y104.49 E3.7924
G1 X168.969 Y104.573 E.01251
M73 P10 R15
G1 X169.052 Y104.772 E.01251
G1 X169.052 Y114.49 E.56304
G1 X176.686 Y114.49 E.44233
G1 X176.886 Y114.573 E.01251
G1 X176.968 Y114.772 E.01251
G1 X176.968 Y125.228 E.60579
G1 X176.886 Y125.427 E.01251
G1 X176.735 Y125.506 E.00984
G1 X169.052 Y125.51 E.44516
G1 X169.052 Y135.228 E.56304
G1 X168.969 Y135.427 E.01251
G1 X168.77 Y135.51 E.01251
G1 X103.374 Y135.51 E3.78893
G1 E-.805 F3600
;WIPE_START
G1 F1200
G1 X103.114 Y135.427 E-.09395
G1 X103.032 Y135.228 E-.07449
G1 X103.032 Y134.716 E-.17656
;WIPE_END
