; HEADER_BLOCK_START
; generated by OrcaSlicer 1.7.0 on 2023-10-23 at 20:34:14
; total layer number: 18
; HEADER_BLOCK_END

; THUMBNAIL_BLOCK_START
; THUMBNAIL_BLOCK_END

; external perimeters extrusion width = 0.60mm
; perimeters extrusion width = 0.60mm
; infill extrusion width = 0.60mm
; solid infill extrusion width = 0.60mm
; top infill extrusion width = 0.60mm
; first layer extrusion width = 0.62mm

; EXECUTABLE_BLOCK_START
M73 P0 R15
;TYPE:Custom
M104 S216 ; set extruder temp
M140 S60 ; set bed temp
M190 S60 ; wait for bed temp
M109 S216 ; wait for extruder temp

G28 ; home all
BED_MESH_PROFILE LOAD=default;

G1 Z2.0 F3000 ; Move Z Axis up little to prevent scratching of Heat Bed
G1 X0.1 Y5 Z0.28 F5000.0 ; Move to start position


G92 E0 ; Reset Extruder
G1 Z2.0 F3000 ; Move Z Axis up little to prevent scratching of Heat Bed
G1 X0.1 Y10 Z0.28 F5000.0 ; Move to start position

G1 X0.1 Y200 Z0.28 F1500.0 E15 ; Draw the first line
G1 X0.4 Y200 Z0.28 F5000.0 ; Move to side a little
G1 X0.4 Y10 Z0.28 F1500.0 E30 ; Draw the second line


G92 E0 ; Reset Extruder
G1 Z0.5 F3000 ; Move Z Axis up little to prevent scratching of Heat Bed
M117 Godmode is enabled
G90
G21
M83 ; use relative distances for extrusion
; filament start gcode
M106 S0
;LAYER_CHANGE
;Z:0.26
;HEIGHT:0.26
;BEFORE_LAYER_CHANGE
;0.26
G92 E0

M73 P1 R15
G1 E-1.15 F3600
;_SET_FAN_SPEED_CHANGING_LAYER
G1 X97.024 Y98.864 F9000
G1 Z.26
G1 E1.15 F2400
;TYPE:Skirt
;WIDTH:0.62
G1 F1200
G1 X97.602 Y98.309 E.04887
G1 X98.248 Y97.835 E.04886
G1 X98.95 Y97.45 E.04887
G1 X99.697 Y97.159 E.04887
G1 X100.475 Y96.968 E.04887
G1 X101.542 Y96.872 E.06531
G1 X170.548 Y96.872 E4.20857
G1 X171.865 Y97.019 E.08077
M73 P2 R15
G1 X173.133 Y97.45 E.08168
G1 X174.053 Y97.981 E.06478
G1 X175.06 Y98.864 E.08169
G1 X183.478 Y109.489 E.82672
G1 X183.893 Y110.174 E.04887
G1 X184.215 Y110.908 E.04887
G1 X184.439 Y111.677 E.04886
G1 X184.561 Y112.469 E.04887
G1 X184.587 Y127 E.88622
G1 X184.49 Y128.066 E.06529
G1 X184.215 Y129.092 E.06479
G1 X183.893 Y129.826 E.04887
G1 X183.282 Y130.78 E.0691
G1 X175.365 Y140.78 E.77786
G1 X174.678 Y141.518 E.06151
G1 X173.835 Y142.165 E.06478
G1 X173.133 Y142.55 E.04887
G1 X172.386 Y142.841 E.04887
G1 X171.608 Y143.032 E.04887
G1 X170.542 Y143.128 E.06531
G1 X101.542 Y143.128 E4.20816
G1 X100.219 Y142.981 E.08119
G1 X99.449 Y142.757 E.04887
G1 X98.716 Y142.435 E.04887
G1 X98.031 Y142.019 E.04887
G1 X97.405 Y141.518 E.04886
G1 X96.851 Y140.94 E.04887
G1 X96.377 Y140.294 E.04887
G1 X95.991 Y139.591 E.04886
G1 X95.7 Y138.845 E.04887
G1 X95.51 Y138.066 E.04886
G1 X95.413 Y137 E.06531
G1 X95.422 Y102.73 E2.09006
G1 X95.51 Y101.934 E.04887
M73 P3 R15
G1 X95.701 Y101.155 E.04887
G1 X95.991 Y100.409 E.04887
G1 X96.377 Y99.706 E.04886
G1 X96.987 Y98.911 E.06112
G1 X97.45 Y99.298 F9000
G1 F1200
G1 X97.777 Y98.906 E.03117
G1 X98.965 Y98.071 E.08854
G1 X100.329 Y97.572 E.08855
G1 X101.542 Y97.436 E.07444
G1 X170.548 Y97.436 E4.20857
G1 X171.755 Y97.572 E.07403
G1 X172.883 Y97.956 E.0727
G1 X173.739 Y98.45 E.06027
G1 X174.636 Y99.236 E.0727
G1 X183.009 Y109.802 E.82222
G1 X183.681 Y111.089 E.08855
G1 X183.937 Y112.044 E.06027
G1 X184.015 Y112.767 E.04437
G1 X184.023 Y127 E.86805
G1 X183.937 Y127.956 E.05855
G1 X183.681 Y128.911 E.06029
G1 X183.387 Y129.576 E.04437
G1 X182.84 Y130.43 E.06184
G1 X174.923 Y140.43 E.77786
G1 X174.109 Y141.266 E.07117
G1 X173.118 Y141.929 E.0727
G1 X171.755 Y142.428 E.08855
G1 X170.542 Y142.564 E.07444
G1 X101.542 Y142.564 E4.20816
G1 X100.585 Y142.479 E.05856
M73 P4 R15
G1 X99.878 Y142.307 E.04437
G1 X98.561 Y141.696 E.08854
G1 X97.448 Y140.764 E.08854
G1 X96.613 Y139.576 E.08854
G1 X96.114 Y138.213 E.08854
G1 X95.977 Y137 E.07445
G1 X95.985 Y102.767 E2.0878
G1 X96.235 Y101.337 E.08854
G1 X96.846 Y100.02 E.08854
G1 X97.411 Y99.344 E.05372
G1 E-.805 F3600
;WIPE_START
G1 F1200
G1 X97.777 Y98.906 E-.19704
G1 X98.128 Y98.659 E-.14796
;WIPE_END
G1 X170.359 Y137.459 F9000
G1 E1.15 F2400
;TYPE:Inner wall
;WIDTH:0.62
G1 F1200
G1 X170.338 Y137.462 E.00122
;WIDTH:0.646312
G1 X169.604 Y137.448 E.04452
;WIDTH:0.672902
G1 X169.237 Y137.435 E.02327
;WIDTH:0.699492
G1 X168.87 Y137.422 E.02428
G1 X103.214 Y137.422 E4.33995
G1 X102.847 Y137.442 E.0243
;WIDTH:0.659746
M73 P4 R14
G1 X102.48 Y137.462 E.0228
;WIDTH:0.62
G1 X101.483 Y137.441 E.05774
G1 X101.271 Y137.353 E.01333
G1 X101.13 Y137.171 E.01336
G1 X101.08 Y136.796 E.0219
;WIDTH:0.646312
G1 X101.093 Y136.062 E.04452
;WIDTH:0.672902
G1 X101.107 Y135.695 E.02327
;WIDTH:0.699492
G1 X101.12 Y135.328 E.02428
G1 X101.12 Y104.672 E2.0264
G1 X101.1 Y104.306 E.02421
;WIDTH:0.659746
M73 P5 R14
G1 X101.08 Y103.941 E.02272
;WIDTH:0.62
G1 X101.08 Y103.096 E.04892
G1 X101.153 Y102.775 E.01906
G1 X101.317 Y102.611 E.01347
G1 X101.547 Y102.55 E.01381
G1 X102.06 Y102.538 E.02971
;WIDTH:0.659743
G1 X102.637 Y102.558 E.0358
;WIDTH:0.699486
G1 X103.214 Y102.578 E.03815
G1 X168.87 Y102.578 E4.33991
;WIDTH:0.699274
G1 X169.237 Y102.559 E.02429
;WIDTH:0.659637
G1 X169.604 Y102.539 E.02279
;WIDTH:0.62
G1 X170.452 Y102.539 E.04913
G1 X170.765 Y102.61 E.0186
G1 X170.93 Y102.775 E.01354
G1 X171.003 Y103.096 E.01909
G1 X171.003 Y103.938 E.04878
;WIDTH:0.659745
G1 X170.983 Y104.305 E.02279
;WIDTH:0.69949
G1 X170.964 Y104.672 E.02429
G1 X170.964 Y111.128 E.42674
;WIDTH:0.712919
G1 X170.979 Y111.38 E.01702
G1 X171.043 Y111.536 E.01144
;WIDTH:0.679614
G1 X171.107 Y111.693 E.01086
;WIDTH:0.64631
G1 X171.416 Y112.125 E.03221
;WIDTH:0.62
G1 X171.854 Y112.422 E.03062
;WIDTH:0.659745
G1 X172.134 Y112.5 E.01803
;WIDTH:0.699492
G1 X172.414 Y112.578 E.01922
G1 X176.786 Y112.578 E.28903
G1 X177.153 Y112.558 E.0243
;WIDTH:0.659746
G1 X177.52 Y112.538 E.0228
;WIDTH:0.62
G1 X178.514 Y112.558 E.05758
G1 X178.731 Y112.648 E.01359
G1 X178.87 Y112.829 E.01324
G1 X178.92 Y113.135 E.01797
G1 X178.92 Y113.938 E.04652
;WIDTH:0.659745
G1 X178.9 Y114.305 E.0228
;WIDTH:0.699492
G1 X178.88 Y114.672 E.0243
G1 X178.88 Y125.328 E.70436
G1 X178.893 Y125.695 E.02428
;WIDTH:0.672902
G1 X178.907 Y126.062 E.02327
;WIDTH:0.646312
G1 X178.9 Y127.058 E.06042
;WIDTH:0.62
G1 X178.812 Y127.271 E.01333
G1 X178.629 Y127.411 E.01335
G1 X178.254 Y127.462 E.0219
;WIDTH:0.646312
G1 X177.52 Y127.448 E.04452
;WIDTH:0.672902
G1 X177.153 Y127.435 E.02327
;WIDTH:0.699492
G1 X176.786 Y127.422 E.02428
G1 X172.414 Y127.422 E.28903
;WIDTH:0.712919
G1 X172.162 Y127.437 E.01702
G1 X172.005 Y127.501 E.01144
;WIDTH:0.679615
G1 X171.848 Y127.566 E.01086
;WIDTH:0.646312
G1 X171.416 Y127.875 E.03221
;WIDTH:0.62
G1 X171.119 Y128.312 E.03062
;WIDTH:0.659745
G1 X171.041 Y128.592 E.01803
;WIDTH:0.69949
G1 X170.964 Y128.872 E.01922
G1 X170.964 Y135.328 E.42674
G1 X170.977 Y135.695 E.02428
;WIDTH:0.6729
G1 X170.99 Y136.062 E.02327
;WIDTH:0.64631
G1 X170.983 Y137.056 E.06026
;WIDTH:0.62
G1 X170.894 Y137.273 E.01359
G1 X170.712 Y137.411 E.01324
G1 X170.418 Y137.451 E.01721
G1 X170.482 Y138.026 F9000
G1 F1200
G1 X101.601 Y138.026 E3.99086
G1 X101.155 Y137.933 E.0264
M73 P6 R14
G1 X100.822 Y137.72 E.02291
G1 X100.609 Y137.387 E.02291
G1 X100.516 Y136.941 E.0264
G1 X100.516 Y103.209 E1.95435
G1 X100.558 Y102.736 E.0275
G1 X100.741 Y102.386 E.0229
G1 X101.033 Y102.118 E.02294
G1 X101.389 Y101.989 E.02199
G1 X102.048 Y101.974 E.03816
G1 X170.489 Y101.975 E3.96535
G1 X170.927 Y102.067 E.02594
G1 X171.265 Y102.284 E.02329
G1 X171.474 Y102.614 E.02264
G1 X171.567 Y103.059 E.02638
G1 X171.567 Y111.128 E.46747
G1 X171.637 Y111.464 E.01989
G1 X171.815 Y111.726 E.01837
G1 X172.078 Y111.905 E.01837
G1 X172.414 Y111.974 E.01989
G1 X177.52 Y111.974 E.29586
G1 X178.587 Y111.999 E.06183
G1 X178.972 Y112.121 E.02337
G1 X179.257 Y112.383 E.02247
G1 X179.442 Y112.736 E.02308
G1 X179.484 Y113.135 E.02324
G1 X179.484 Y126.941 E.79986
G1 X179.391 Y127.387 E.0264
G1 X179.178 Y127.72 E.02291
G1 X178.845 Y127.933 E.02291
G1 X178.399 Y128.026 E.0264
G1 X172.414 Y128.026 E.34677
G1 X172.078 Y128.095 E.01989
G1 X171.815 Y128.274 E.01837
G1 X171.637 Y128.536 E.01837
G1 X171.567 Y128.872 E.01989
G1 X171.558 Y137.016 E.47183
G1 X171.473 Y137.387 E.02207
G1 X171.262 Y137.72 E.02283
G1 X170.928 Y137.933 E.02292
G1 X170.541 Y138.014 E.02293
G1 X170.519 Y138.59 F9000
;TYPE:Outer wall
G1 F1200
G1 X101.677 Y138.59 E3.98861
G1 X101.131 Y138.533 E.03181
M73 P7 R14
G1 X100.748 Y138.375 E.024
G1 X100.419 Y138.122 E.02401
G1 X100.167 Y137.794 E.02401
G1 X100.008 Y137.411 E.024
G1 X99.952 Y136.977 E.02533
G1 X99.952 Y103.135 E1.9608
G1 X100.008 Y102.589 E.03178
G1 X100.167 Y102.206 E.024
G1 X100.419 Y101.878 E.02401
G1 X100.748 Y101.625 E.02401
G1 X100.939 Y101.546 E.012
G1 X101.328 Y101.426 E.02355
G1 X102.042 Y101.41 E.04138
G1 X170.413 Y101.41 E3.96132
G1 X170.952 Y101.467 E.03143
G1 X171.335 Y101.625 E.02399
G1 X171.668 Y101.882 E.02438
G1 X171.916 Y102.206 E.02365
G1 X172.075 Y102.589 E.02401
G1 X172.132 Y103.023 E.02533
G1 X172.132 Y111.128 E.46961
G1 X172.214 Y111.327 E.01251
G1 X172.414 Y111.41 E.01251
G1 X178.323 Y111.41 E.34238
G1 X178.869 Y111.467 E.03179
M73 P8 R14
G1 X179.257 Y111.629 E.02437
G1 X179.581 Y111.878 E.02365
G1 X179.833 Y112.206 E.02402
G1 X179.992 Y112.589 E.024
G1 X180.048 Y113.135 E.03181
G1 X180.048 Y126.865 E.79547
G1 X179.992 Y127.411 E.03181
G1 X179.833 Y127.794 E.024
G1 X179.581 Y128.122 E.02401
G1 X179.252 Y128.375 E.02401
G1 X178.869 Y128.533 E.024
G1 X178.436 Y128.59 E.02533
G1 X172.414 Y128.59 E.3489
G1 X172.214 Y128.673 E.01251
G1 X172.132 Y128.872 E.01251
G1 X172.132 Y136.865 E.46308
G1 X172.075 Y137.411 E.03179
G1 X171.913 Y137.799 E.02437
G1 X171.664 Y138.122 E.02365
G1 X171.335 Y138.375 E.02402
G1 X170.953 Y138.533 E.024
G1 X170.579 Y138.582 E.02185
G1 E-.805 F3600
;WIPE_START
G1 F1200
G1 X169.579 Y138.582 E-.345
;WIPE_END
G1 X102.944 Y136.703 F9000
G1 E1.15 F2400
;TYPE:Inner wall
;WIDTH:0.699492
G1 F1200
G1 X102.934 Y136.7 E.00069
;WIDTH:0.659746
G1 X102.654 Y136.622 E.01803
;WIDTH:0.62
G1 X102.216 Y136.325 E.03062
;WIDTH:0.646312
G1 X101.907 Y135.893 E.03221
;WIDTH:0.679615
G1 X101.843 Y135.736 E.01086
;WIDTH:0.712919
G1 X101.779 Y135.58 E.01144
G1 X101.764 Y135.328 E.01702
;WIDTH:0.699492
G1 X101.764 Y104.672 E2.0264
G1 X101.841 Y104.393 E.01916
;WIDTH:0.659746
G1 X101.919 Y104.114 E.01797
;WIDTH:0.62
G1 X102.214 Y103.677 E.03054
G1 X102.383 Y103.532 E.01293
;WIDTH:0.666457
G1 X102.673 Y103.384 E.02036
;WIDTH:0.712914
G1 X102.962 Y103.237 E.02191
G1 X103.214 Y103.222 E.01702
;WIDTH:0.699486
G1 X168.87 Y103.222 E4.33991
;WIDTH:0.699274
G1 X169.15 Y103.3 E.01921
;WIDTH:0.659637
G1 X169.43 Y103.378 E.01803
;WIDTH:0.62
G1 X169.867 Y103.675 E.03063
G1 X170.164 Y104.112 E.03062
;WIDTH:0.659745
G1 X170.242 Y104.392 E.01803
;WIDTH:0.69949
G1 X170.32 Y104.672 E.01921
G1 X170.32 Y111.128 E.42674
G1 X170.307 Y111.495 E.02428
;WIDTH:0.6729
G1 X170.293 Y111.862 E.02327
;WIDTH:0.64631
G1 X170.28 Y112.596 E.04452
;WIDTH:0.62
G1 X170.28 Y113.262 E.03857
G1 X171.68 Y113.262 E.08109
;WIDTH:0.659745
G1 X172.047 Y113.242 E.0228
;WIDTH:0.699492
G1 X172.414 Y113.222 E.0243
G1 X176.786 Y113.222 E.28903
G1 X177.066 Y113.3 E.01922
;WIDTH:0.659746
G1 X177.346 Y113.378 E.01803
;WIDTH:0.62
G1 X177.784 Y113.675 E.03062
G1 X178.081 Y114.112 E.03062
;WIDTH:0.659745
G1 X178.159 Y114.392 E.01803
;WIDTH:0.699492
G1 X178.236 Y114.672 E.01922
G1 X178.236 Y125.328 E.70436
;WIDTH:0.712919
G1 X178.221 Y125.58 E.01702
M73 P9 R14
G1 X178.157 Y125.736 E.01144
;WIDTH:0.679615
G1 X178.093 Y125.893 E.01086
;WIDTH:0.646312
G1 X177.784 Y126.325 E.03221
G1 X177.352 Y126.634 E.03221
;WIDTH:0.679615
G1 X177.195 Y126.699 E.01086
;WIDTH:0.712919
G1 X177.038 Y126.763 E.01144
G1 X176.786 Y126.778 E.01702
;WIDTH:0.699492
G1 X172.414 Y126.778 E.28903
G1 X172.047 Y126.765 E.02428
;WIDTH:0.672902
G1 X171.68 Y126.752 E.02327
;WIDTH:0.646312
G1 X170.946 Y126.738 E.04452
;WIDTH:0.62
G1 X170.28 Y126.738 E.03857
G1 X170.28 Y128.138 E.08109
;WIDTH:0.659745
G1 X170.3 Y128.505 E.0228
;WIDTH:0.69949
G1 X170.32 Y128.872 E.0243
G1 X170.32 Y135.328 E.42674
;WIDTH:0.712917
G1 X170.305 Y135.58 E.01702
G1 X170.24 Y135.736 E.01144
;WIDTH:0.679614
G1 X170.176 Y135.893 E.01086
;WIDTH:0.64631
G1 X169.867 Y136.325 E.03221
G1 X169.435 Y136.634 E.03221
;WIDTH:0.679615
G1 X169.278 Y136.699 E.01086
;WIDTH:0.712919
G1 X169.121 Y136.763 E.01144
G1 X168.87 Y136.778 E.01702
;WIDTH:0.699492
G1 X103.214 Y136.778 E4.33995
G1 X103.002 Y136.719 E.01456
G1 X103.103 Y136.151 F9000
;WIDTH:0.62
G1 F1200
G1 X102.878 Y136.105 E.01336
G1 X102.615 Y135.926 E.01837
G1 X102.437 Y135.664 E.01837
G1 X102.367 Y135.328 E.01989
G1 X102.367 Y104.672 E1.77615
G1 X102.437 Y104.337 E.01982
G1 X102.614 Y104.075 E.01832
G1 X102.716 Y103.988 E.00776
G1 X103.068 Y103.839 E.02215
G1 X103.214 Y103.826 E.0085
G1 X168.87 Y103.826 E3.80399
G1 X169.206 Y103.895 E.01989
G1 X169.468 Y104.074 E.01838
G1 X169.646 Y104.336 E.01837
G1 X169.716 Y104.672 E.01988
G1 X169.716 Y113.826 E.53035
G1 X176.786 Y113.826 E.40965
M73 P10 R14
G1 X177.122 Y113.895 E.01989
G1 X177.385 Y114.074 E.01837
G1 X177.563 Y114.336 E.01837
G1 X177.633 Y114.672 E.01989
G1 X177.633 Y125.328 E.61738
G1 X177.563 Y125.664 E.01989
G1 X177.385 Y125.926 E.01837
G1 X177.122 Y126.105 E.01837
G1 X176.786 Y126.174 E.01989
G1 X169.716 Y126.174 E.40965
G1 X169.716 Y135.328 E.53035
G1 X169.646 Y135.664 E.01989
G1 X169.468 Y135.926 E.01837
G1 X169.206 Y136.105 E.01837
G1 X168.87 Y136.174 E.01989
G1 X103.214 Y136.174 E3.80399
G1 X103.162 Y136.164 E.00306
G1 X103.214 Y135.61 F9000
;TYPE:Outer wall
G1 F1200
G1 X103.014 Y135.527 E.01251
G1 X102.932 Y135.328 E.01251
G1 X102.932 Y104.672 E1.77615
G1 X103.014 Y104.473 E.01247
G1 X103.214 Y104.39 E.01255
G1 X168.87 Y104.39 E3.80399
G1 X169.069 Y104.473 E.01251
M73 P11 R14
G1 X169.152 Y104.672 E.01251
G1 X169.152 Y114.39 E.56304
G1 X176.786 Y114.39 E.44233
G1 X176.986 Y114.473 E.01251
G1 X177.068 Y114.672 E.01251
G1 X177.068 Y125.328 E.61738
G1 X176.986 Y125.527 E.01251
M73 P11 R13
G1 X176.786 Y125.61 E.01251
G1 X169.152 Y125.61 E.44233
G1 X169.152 Y135.328 E.56304
G1 X169.069 Y135.527 E.01251
G1 X168.87 Y135.61 E.01251
G1 X103.274 Y135.61 E3.80051
G1 E-.805 F3600
;WIPE_START
G1 F1200
G1 X103.014 Y135.527 E-.09395
G1 X102.932 Y135.328 E-.07449
G1 X102.932 Y134.816 E-.17656
;WIPE_END
G1 X101.267 Y136.699 F9000
G1 E1.15 F2400
;TYPE:Bottom surface
;WIDTH:0.680923
G1 F2100
M106 S0
G1 X101.849 Y137.281 E.0518
G1 E-.805 F3600
;WIPE_START
G1 F2100
G1 X101.267 Y136.699 E-.345
;WIPE_END
G1 X101.333 Y102.84 F9000
G1 E1.15 F2400
;WIDTH:0.702196
G1 F2100
G1 X102.07 Y103.577 E.06778
G1 E-.805 F3600
;WIPE_START
G1 F2100
G1 X101.363 Y102.87 E-.345
;WIPE_END
G1 X170.24 Y102.719 F9000
G1 E1.15 F2400
;WIDTH:0.683212
G1 F2100
G1 X170.823 Y103.302 E.05206
G1 E-.805 F3600
;WIPE_START
G1 F2100
G1 X170.24 Y102.719 E-.345
;WIPE_END
G1 X170.574 Y111.759 F9000
G1 E1.15 F2400
;WIDTH:0.73284
G1 F2100
G1 X171.846 Y113.031 E.12258
G1 E-.805 F3600
;WIPE_START
G1 F2100
G1 X171.139 Y112.324 E-.345
;WIPE_END
G1 X178.157 Y112.719 F9000
G1 E1.15 F2400
;WIDTH:0.683496
M73 P12 R13
G1 F2100
G1 X178.739 Y113.302 E.05207
G1 E-.805 F3600
;WIPE_START
G1 F2100
G1 X178.157 Y112.719 E-.345
;WIPE_END
G1 X177.91 Y126.452 F9000
G1 E1.15 F2400
;WIDTH:0.67711
G1 F2100
G1 X178.639 Y127.181 E.06445
G1 E-.805 F3600
;WIPE_START
G1 F2100
G1 X177.932 Y126.474 E-.345
;WIPE_END
G1 X170.461 Y126.97 F9000
G1 E1.15 F2400
;WIDTH:0.700368
G1 F2100
G1 X171.269 Y127.779 E.07418
G1 E-.805 F3600
;WIPE_START
G1 F2100
G1 X170.562 Y127.072 E-.345
;WIPE_END
G1 X169.994 Y136.452 F9000
G1 E1.15 F2400
;WIDTH:0.67711
G1 F2100
G1 X170.722 Y137.181 E.06443
M106 S255
;LAYER_CHANGE
;Z:0.54
;HEIGHT:0.28
;BEFORE_LAYER_CHANGE
;0.54
G92 E0

G1 E-.805 F3600
;WIPE_START
G1 F2100
G1 X170.015 Y136.474 E-.345
;WIPE_END
;_SET_FAN_SPEED_CHANGING_LAYER
M140 S60 ; set bed temperature
G1 X170.015 Y143.128 Z.54 F9000
G1 E1.15 F2400
;TYPE:Skirt
;WIDTH:0.62
G1 X101.542 Y143.128 E4.23993
G1 X100.219 Y142.981 E.08243
G1 X99.449 Y142.757 E.04962
G1 X98.716 Y142.435 E.04961
G1 X98.031 Y142.019 E.04961
G1 X97.405 Y141.518 E.04961
G1 X96.851 Y140.94 E.04962
G1 X96.377 Y140.294 E.04962
G1 X95.991 Y139.591 E.04961
G1 X95.7 Y138.845 E.04962
G1 X95.51 Y138.066 E.04961
G1 X95.413 Y137 E.06631
