; HEADER_BLOCK_START
; generated by OrcaSlicer 1.7.0 on 2023-10-23 at 22:03:13
; total layer number: 18
; HEADER_BLOCK_END

; THUMBNAIL_BLOCK_START
; THUMBNAIL_BLOCK_END

; external perimeters extrusion width = 0.60mm
; perimeters extrusion width = 0.60mm
; infill extrusion width = 0.60mm
; solid infill extrusion width = 0.60mm
; top infill extrusion width = 0.60mm
; first layer extrusion width = 0.62mm

; EXECUTABLE_BLOCK_START
M73 P0 R17
;TYPE:Custom
M104 S216 ; set extruder temp
M140 S60 ; set bed temp
M190 S60 ; wait for bed temp
M109 S216 ; wait for extruder temp

G28 ; home all
BED_MESH_PROFILE LOAD=default;

G1 Z2.0 F3000 ; Move Z Axis up little to prevent scratching of Heat Bed
G1 X0.1 Y5 Z0.28 F5000.0 ; Move to start position


G92 E0 ; Reset Extruder
G1 Z2.0 F3000 ; Move Z Axis up little to prevent scratching of Heat Bed
G1 X0.1 Y10 Z0.28 F5000.0 ; Move to start position

G1 X0.1 Y200 Z0.28 F1500.0 E15 ; Draw the first line
G1 X0.4 Y200 Z0.28 F5000.0 ; Move to side a little
M73 P0 R16
G1 X0.4 Y10 Z0.28 F1500.0 E30 ; Draw the second line


G92 E0 ; Reset Extruder
G1 Z0.5 F3000 ; Move Z Axis up little to prevent scratching of Heat Bed
M117 Godmode is enabled
G90
G21
M83 ; use relative distances for extrusion
; filament start gcode
M106 S0
;LAYER_CHANGE
;Z:0.26
;HEIGHT:0.26
;BEFORE_LAYER_CHANGE
;0.26
G92 E0

M73 P1 R16
G1 E-1.15 F3600
;_SET_FAN_SPEED_CHANGING_LAYER
G1 X97.024 Y98.864 F9000
G1 Z.26
G1 E1.15 F2400
;TYPE:Skirt
;WIDTH:0.62
G1 F1200
G1 X97.602 Y98.309 E.04887
G1 X98.248 Y97.835 E.04886
G1 X98.95 Y97.45 E.04887
G1 X99.697 Y97.159 E.04887
G1 X100.475 Y96.968 E.04887
G1 X101.542 Y96.872 E.06531
G1 X170.548 Y96.872 E4.20857
G1 X171.865 Y97.019 E.08077
M73 P2 R16
G1 X173.133 Y97.45 E.08168
G1 X174.053 Y97.981 E.06478
G1 X175.06 Y98.864 E.08169
G1 X183.478 Y109.489 E.82672
G1 X183.893 Y110.174 E.04887
G1 X184.215 Y110.908 E.04887
G1 X184.439 Y111.677 E.04886
G1 X184.561 Y112.469 E.04887
G1 X184.587 Y127 E.88622
G1 X184.49 Y128.066 E.06529
G1 X184.215 Y129.092 E.06479
G1 X183.893 Y129.826 E.04887
G1 X183.282 Y130.78 E.0691
G1 X175.365 Y140.78 E.77786
G1 X174.678 Y141.518 E.06151
G1 X173.835 Y142.165 E.06478
G1 X173.133 Y142.55 E.04887
G1 X172.386 Y142.841 E.04887
G1 X171.608 Y143.032 E.04887
G1 X170.542 Y143.128 E.06531
G1 X101.542 Y143.128 E4.20816
G1 X100.219 Y142.981 E.08119
G1 X99.449 Y142.757 E.04887
G1 X98.716 Y142.435 E.04887
G1 X98.031 Y142.019 E.04887
G1 X97.405 Y141.518 E.04886
G1 X96.851 Y140.94 E.04887
G1 X96.377 Y140.294 E.04887
G1 X95.991 Y139.591 E.04886
G1 X95.7 Y138.845 E.04887
G1 X95.51 Y138.066 E.04886
G1 X95.413 Y137 E.06531
G1 X95.422 Y102.73 E2.09006
G1 X95.51 Y101.934 E.04887
G1 X95.701 Y101.155 E.04887
G1 X95.991 Y100.409 E.04887
G1 X96.377 Y99.706 E.04886
G1 X96.987 Y98.911 E.06112
G1 X97.45 Y99.298 F9000
G1 F1200
G1 X97.777 Y98.906 E.03117
G1 X98.965 Y98.071 E.08854
G1 X100.329 Y97.572 E.08855
G1 X101.542 Y97.436 E.07444
G1 X170.548 Y97.436 E4.20857
G1 X171.755 Y97.572 E.07403
M73 P3 R16
G1 X172.883 Y97.956 E.0727
G1 X173.739 Y98.45 E.06027
G1 X174.636 Y99.236 E.0727
G1 X183.009 Y109.802 E.82222
G1 X183.681 Y111.089 E.08855
G1 X183.937 Y112.044 E.06027
G1 X184.015 Y112.767 E.04437
G1 X184.023 Y127 E.86805
G1 X183.937 Y127.956 E.05855
G1 X183.681 Y128.911 E.06029
G1 X183.387 Y129.576 E.04437
G1 X182.84 Y130.43 E.06184
G1 X174.923 Y140.43 E.77786
G1 X174.109 Y141.266 E.07117
G1 X173.118 Y141.929 E.0727
G1 X171.755 Y142.428 E.08855
G1 X170.542 Y142.564 E.07444
G1 X101.542 Y142.564 E4.20816
G1 X100.585 Y142.479 E.05856
G1 X99.878 Y142.307 E.04437
G1 X98.561 Y141.696 E.08854
G1 X97.448 Y140.764 E.08854
G1 X96.613 Y139.576 E.08854
G1 X96.114 Y138.213 E.08854
G1 X95.977 Y137 E.07445
G1 X95.985 Y102.767 E2.0878
G1 X96.235 Y101.337 E.08854
M73 P4 R16
G1 X96.846 Y100.02 E.08854
G1 X97.411 Y99.344 E.05372
G1 E-.805 F3600
;WIPE_START
G1 F1200
G1 X97.777 Y98.906 E-.19704
G1 X98.128 Y98.659 E-.14796
;WIPE_END
G1 X170.37 Y137.454 F9000
G1 E1.15 F2400
;TYPE:Inner wall
;WIDTH:0.62
G1 F1200
G1 X170.308 Y137.462 E.00359
;WIDTH:0.652249
G1 X169.564 Y137.445 E.0456
;WIDTH:0.688371
G1 X169.192 Y137.427 E.02421
;WIDTH:0.724492
G1 X168.82 Y137.409 E.02559
G1 X103.264 Y137.409 E4.50164
G1 X103.016 Y137.427 E.01708
;WIDTH:0.689662
G1 X102.768 Y137.444 E.01619
;WIDTH:0.65483
G1 X102.519 Y137.462 E.0153
;WIDTH:0.62
G1 X101.483 Y137.441 E.06004
G1 X101.271 Y137.353 E.01333
G1 X101.13 Y137.171 E.01336
G1 X101.08 Y136.767 E.02359
;WIDTH:0.652249
G1 X101.096 Y136.022 E.0456
;WIDTH:0.688371
G1 X101.114 Y135.65 E.02421
;WIDTH:0.724492
G1 X101.132 Y135.278 E.02559
G1 X101.132 Y104.722 E2.09823
G1 X101.115 Y104.475 E.01703
;WIDTH:0.689662
G1 X101.097 Y104.227 E.01614
;WIDTH:0.65483
G1 X101.08 Y103.98 E.01525
;WIDTH:0.62
G1 X101.08 Y103.096 E.0512
G1 X101.153 Y102.775 E.01906
G1 X101.317 Y102.611 E.01347
G1 X101.547 Y102.55 E.01381
G1 X102.061 Y102.538 E.02974
;WIDTH:0.650402
G1 X102.361 Y102.554 E.01839
;WIDTH:0.680805
G1 X102.662 Y102.569 E.01933
;WIDTH:0.724486
G1 X103.264 Y102.591 E.04134
G1 X168.82 Y102.591 E4.5016
;WIDTH:0.724275
G1 X169.068 Y102.574 E.01708
;WIDTH:0.689517
M73 P5 R16
G1 X169.316 Y102.556 E.01619
;WIDTH:0.654758
G1 X169.564 Y102.539 E.0153
;WIDTH:0.62
G1 X170.452 Y102.539 E.05142
G1 X170.765 Y102.61 E.0186
G1 X170.93 Y102.775 E.01354
G1 X171.003 Y103.096 E.01909
G1 X171.003 Y103.978 E.05108
;WIDTH:0.65483
G1 X170.986 Y104.226 E.0153
;WIDTH:0.68966
G1 X170.968 Y104.474 E.01619
;WIDTH:0.724491
G1 X170.951 Y104.722 E.01708
G1 X170.951 Y111.128 E.43988
;WIDTH:0.738109
G1 X170.966 Y111.382 E.01782
G1 X171.035 Y111.538 E.01198
;WIDTH:0.695179
G1 X171.104 Y111.695 E.01122
;WIDTH:0.652249
G1 X171.416 Y112.125 E.03257
;WIDTH:0.62
G1 X171.854 Y112.422 E.03062
;WIDTH:0.65483
G1 X172.04 Y112.478 E.01199
;WIDTH:0.689661
G1 X172.227 Y112.535 E.01269
;WIDTH:0.724492
G1 X172.414 Y112.591 E.01339
G1 X176.736 Y112.591 E.29682
G1 X176.984 Y112.573 E.01708
;WIDTH:0.689662
G1 X177.232 Y112.556 E.01619
;WIDTH:0.65483
G1 X177.481 Y112.538 E.0153
;WIDTH:0.62
G1 X178.514 Y112.558 E.05988
G1 X178.731 Y112.648 E.01359
G1 X178.87 Y112.829 E.01324
G1 X178.92 Y113.135 E.01797
G1 X178.92 Y113.978 E.04881
;WIDTH:0.65483
G1 X178.903 Y114.226 E.0153
;WIDTH:0.689661
G1 X178.885 Y114.474 E.01619
;WIDTH:0.724491
G1 X178.868 Y114.722 E.01708
G1 X178.868 Y125.278 E.72485
G1 X178.886 Y125.65 E.02559
;WIDTH:0.68837
G1 X178.904 Y126.022 E.02421
;WIDTH:0.652249
G1 X178.9 Y127.058 E.06345
;WIDTH:0.62
G1 X178.812 Y127.271 E.01333
G1 X178.629 Y127.411 E.01335
G1 X178.225 Y127.462 E.02359
;WIDTH:0.652249
G1 X177.481 Y127.445 E.0456
;WIDTH:0.688371
G1 X177.108 Y127.427 E.02421
;WIDTH:0.724492
G1 X176.736 Y127.409 E.02559
G1 X172.414 Y127.409 E.29682
;WIDTH:0.738109
G1 X172.16 Y127.425 E.01782
G1 X172.003 Y127.494 E.01198
;WIDTH:0.695179
G1 X171.847 Y127.563 E.01122
;WIDTH:0.652249
G1 X171.416 Y127.875 E.03257
;WIDTH:0.62
G1 X171.119 Y128.312 E.03062
;WIDTH:0.65483
G1 X171.063 Y128.499 E.01199
;WIDTH:0.68966
G1 X171.007 Y128.685 E.01269
;WIDTH:0.724491
G1 X170.951 Y128.872 E.01339
G1 X170.951 Y135.278 E.43988
G1 X170.969 Y135.65 E.02559
;WIDTH:0.68837
G1 X170.987 Y136.022 E.02421
;WIDTH:0.652249
G1 X170.983 Y137.056 E.06329
;WIDTH:0.62
G1 X170.894 Y137.273 E.01359
G1 X170.712 Y137.411 E.01324
G1 X170.429 Y137.447 E.01653
G1 X170.482 Y138.026 F9000
G1 F1200
G1 X101.601 Y138.026 E3.99086
G1 X101.155 Y137.933 E.0264
G1 X100.822 Y137.72 E.02291
G1 X100.609 Y137.387 E.02291
G1 X100.516 Y136.941 E.0264
G1 X100.516 Y103.238 E1.95268
G1 X100.558 Y102.736 E.02917
G1 X100.741 Y102.386 E.0229
G1 X101.033 Y102.118 E.02294
G1 X101.389 Y101.989 E.02199
G1 X102.048 Y101.974 E.03816
G1 X170.489 Y101.975 E3.96535
G1 X170.927 Y102.067 E.02594
M73 P6 R15
G1 X171.265 Y102.284 E.02329
G1 X171.474 Y102.614 E.02264
G1 X171.567 Y103.059 E.02638
G1 X171.567 Y111.128 E.46747
G1 X171.637 Y111.464 E.01989
G1 X171.815 Y111.726 E.01837
G1 X172.078 Y111.905 E.01837
G1 X172.414 Y111.974 E.01989
G1 X177.481 Y111.974 E.29357
G1 X178.587 Y111.999 E.06413
G1 X178.972 Y112.121 E.02337
G1 X179.257 Y112.383 E.02247
G1 X179.442 Y112.736 E.02308
G1 X179.484 Y113.135 E.02324
G1 X179.484 Y126.941 E.79986
G1 X179.391 Y127.387 E.0264
G1 X179.178 Y127.72 E.02291
G1 X178.845 Y127.933 E.02291
G1 X178.399 Y128.026 E.0264
G1 X172.414 Y128.026 E.34677
G1 X172.078 Y128.095 E.01989
G1 X171.815 Y128.274 E.01837
G1 X171.637 Y128.536 E.01837
G1 X171.567 Y128.872 E.01989
G1 X171.558 Y137.016 E.47183
G1 X171.473 Y137.387 E.02207
G1 X171.262 Y137.72 E.02283
G1 X170.928 Y137.933 E.02292
G1 X170.541 Y138.014 E.02293
G1 X170.519 Y138.59 F9000
;TYPE:Outer wall
G1 F1200
G1 X101.677 Y138.59 E3.98861
G1 X101.131 Y138.533 E.03181
G1 X100.748 Y138.375 E.024
G1 X100.419 Y138.122 E.02401
G1 X100.167 Y137.794 E.02401
G1 X100.008 Y137.411 E.024
G1 X99.952 Y136.977 E.02533
G1 X99.952 Y103.135 E1.9608
G1 X100.008 Y102.589 E.03178
G1 X100.167 Y102.206 E.024
M73 P7 R15
G1 X100.419 Y101.878 E.02401
G1 X100.748 Y101.625 E.02401
G1 X100.939 Y101.546 E.012
G1 X101.328 Y101.426 E.02355
G1 X102.042 Y101.41 E.04138
G1 X170.413 Y101.41 E3.96132
G1 X170.952 Y101.467 E.03143
G1 X171.335 Y101.625 E.02399
G1 X171.668 Y101.882 E.02438
G1 X171.916 Y102.206 E.02365
G1 X172.075 Y102.589 E.02401
G1 X172.132 Y103.023 E.02533
G1 X172.132 Y111.128 E.46961
G1 X172.214 Y111.327 E.01251
G1 X172.414 Y111.41 E.01251
G1 X178.323 Y111.41 E.34238
G1 X178.869 Y111.467 E.03179
G1 X179.257 Y111.629 E.02437
G1 X179.581 Y111.878 E.02365
G1 X179.833 Y112.206 E.02402
G1 X179.992 Y112.589 E.024
G1 X180.048 Y113.135 E.03181
G1 X180.048 Y126.865 E.79547
G1 X179.992 Y127.411 E.03181
G1 X179.833 Y127.794 E.024
G1 X179.581 Y128.122 E.02401
G1 X179.252 Y128.375 E.02401
G1 X178.869 Y128.533 E.024
G1 X178.436 Y128.59 E.02533
G1 X172.414 Y128.59 E.3489
G1 X172.214 Y128.673 E.01251
G1 X172.132 Y128.872 E.01251
G1 X172.132 Y136.865 E.46308
G1 X172.075 Y137.411 E.03179
G1 X171.913 Y137.799 E.02437
G1 X171.664 Y138.122 E.02365
G1 X171.335 Y138.375 E.02402
G1 X170.953 Y138.533 E.024
G1 X170.579 Y138.582 E.02185
G1 E-.805 F3600
;WIPE_START
G1 F1200
G1 X169.579 Y138.582 E-.345
;WIPE_END
G1 X102.979 Y136.655 F9000
G1 E1.15 F2400
;TYPE:Inner wall
;WIDTH:0.689662
G1 F1200
G1 X102.89 Y136.628 E.006
;WIDTH:0.65483
G1 X102.704 Y136.572 E.01199
;WIDTH:0.62
G1 X102.266 Y136.275 E.03062
;WIDTH:0.652249
G1 X101.954 Y135.845 E.03257
;WIDTH:0.695179
G1 X101.885 Y135.688 E.01122
;WIDTH:0.738109
G1 X101.816 Y135.532 E.01198
G1 X101.801 Y135.278 E.01782
;WIDTH:0.724492
G1 X101.801 Y104.722 E2.09823
G1 X101.857 Y104.536 E.01335
;WIDTH:0.689662
G1 X101.913 Y104.35 E.01266
;WIDTH:0.65483
G1 X101.969 Y104.163 E.01196
;WIDTH:0.62
G1 X102.264 Y103.727 E.03055
;WIDTH:0.650402
G1 X102.529 Y103.543 E.01969
;WIDTH:0.680805
G1 X102.795 Y103.36 E.0207
;WIDTH:0.709454
G1 X102.902 Y103.317 E.00777
;WIDTH:0.738104
G1 X103.01 Y103.275 E.00811
G1 X103.264 Y103.259 E.01782
;WIDTH:0.724486
G1 X168.82 Y103.259 E4.5016
;WIDTH:0.724275
G1 X169.006 Y103.316 E.01339
;WIDTH:0.689517
M73 P8 R15
G1 X169.193 Y103.372 E.01269
;WIDTH:0.654758
G1 X169.38 Y103.428 E.01199
;WIDTH:0.62
G1 X169.817 Y103.725 E.03063
G1 X170.114 Y104.162 E.03062
;WIDTH:0.65483
G1 X170.17 Y104.349 E.01199
;WIDTH:0.68966
G1 X170.226 Y104.535 E.01269
;WIDTH:0.724491
G1 X170.282 Y104.722 E.01339
G1 X170.282 Y111.128 E.43988
G1 X170.264 Y111.5 E.02559
;WIDTH:0.68837
G1 X170.246 Y111.872 E.02421
;WIDTH:0.652249
G1 X170.23 Y112.617 E.0456
;WIDTH:0.62
G1 X170.23 Y113.312 E.04026
G1 X171.669 Y113.312 E.08339
;WIDTH:0.65483
G1 X171.918 Y113.294 E.0153
;WIDTH:0.689661
G1 X172.166 Y113.277 E.01619
;WIDTH:0.724491
G1 X172.414 Y113.259 E.01708
G1 X176.736 Y113.259 E.29682
G1 X176.923 Y113.315 E.01339
;WIDTH:0.689662
G1 X177.11 Y113.372 E.01269
;WIDTH:0.65483
G1 X177.296 Y113.428 E.01199
;WIDTH:0.62
G1 X177.734 Y113.725 E.03062
G1 X178.031 Y114.162 E.03062
;WIDTH:0.65483
G1 X178.087 Y114.349 E.01199
;WIDTH:0.689661
G1 X178.143 Y114.535 E.01269
;WIDTH:0.724491
G1 X178.199 Y114.722 E.01339
G1 X178.199 Y125.278 E.72485
;WIDTH:0.738107
G1 X178.184 Y125.532 E.01782
G1 X178.115 Y125.688 E.01198
;WIDTH:0.695179
G1 X178.046 Y125.845 E.01122
;WIDTH:0.652249
G1 X177.734 Y126.275 E.03257
G1 X177.303 Y126.587 E.03257
;WIDTH:0.695179
G1 X177.147 Y126.656 E.01122
;WIDTH:0.738109
G1 X176.99 Y126.725 E.01198
G1 X176.736 Y126.741 E.01782
;WIDTH:0.724492
G1 X172.414 Y126.741 E.29682
G1 X172.042 Y126.723 E.02559
;WIDTH:0.68837
G1 X171.669 Y126.705 E.02421
;WIDTH:0.652249
G1 X170.925 Y126.688 E.0456
;WIDTH:0.62
G1 X170.23 Y126.688 E.04026
G1 X170.23 Y128.128 E.08339
;WIDTH:0.65483
G1 X170.247 Y128.376 E.0153
;WIDTH:0.68966
G1 X170.265 Y128.624 E.01619
;WIDTH:0.724491
G1 X170.282 Y128.872 E.01708
G1 X170.282 Y135.278 E.43988
;WIDTH:0.738106
G1 X170.267 Y135.532 E.01782
G1 X170.198 Y135.688 E.01198
;WIDTH:0.695177
G1 X170.129 Y135.845 E.01122
;WIDTH:0.652249
G1 X169.817 Y136.275 E.03257
G1 X169.386 Y136.587 E.03257
;WIDTH:0.695179
G1 X169.23 Y136.656 E.01122
;WIDTH:0.738109
G1 X169.073 Y136.725 E.01198
G1 X168.82 Y136.741 E.01782
;WIDTH:0.724492
G1 X103.264 Y136.741 E4.50164
G1 X103.077 Y136.685 E.01339
;WIDTH:0.689662
G1 X103.036 Y136.672 E.00279
G1 X103.153 Y136.101 F9000
;WIDTH:0.62
G1 F1200
G1 X102.928 Y136.055 E.01336
G1 X102.665 Y135.876 E.01837
G1 X102.487 Y135.614 E.01837
G1 X102.417 Y135.278 E.01989
G1 X102.417 Y104.722 E1.77035
G1 X102.487 Y104.387 E.01983
G1 X102.754 Y104.046 E.02509
G1 X103.118 Y103.889 E.02295
G1 X103.264 Y103.876 E.0085
G1 X168.82 Y103.876 E3.7982
G1 X169.156 Y103.945 E.01989
M73 P9 R15
G1 X169.418 Y104.124 E.01838
G1 X169.596 Y104.386 E.01837
G1 X169.666 Y104.722 E.01988
G1 X169.666 Y113.876 E.53035
G1 X176.736 Y113.876 E.40965
G1 X177.072 Y113.945 E.01989
G1 X177.335 Y114.124 E.01837
G1 X177.513 Y114.386 E.01837
G1 X177.583 Y114.722 E.01989
G1 X177.583 Y125.278 E.61159
G1 X177.513 Y125.614 E.01989
G1 X177.335 Y125.876 E.01837
G1 X177.072 Y126.055 E.01837
G1 X176.736 Y126.124 E.01989
G1 X169.666 Y126.124 E.40965
G1 X169.666 Y135.278 E.53035
G1 X169.596 Y135.614 E.01989
G1 X169.418 Y135.876 E.01837
G1 X169.156 Y136.055 E.01837
G1 X168.82 Y136.124 E.01989
G1 X103.264 Y136.124 E3.7982
G1 X103.212 Y136.114 E.00306
G1 X103.264 Y135.56 F9000
;TYPE:Outer wall
G1 F1200
G1 X103.064 Y135.477 E.01251
G1 X102.982 Y135.278 E.01251
G1 X102.982 Y104.722 E1.77035
G1 X103.064 Y104.523 E.01248
G1 X103.215 Y104.444 E.00988
G1 X103.264 Y104.44 E.00283
G1 X168.82 Y104.44 E3.7982
G1 X169.019 Y104.523 E.01251
M73 P10 R15
G1 X169.102 Y104.722 E.01251
G1 X169.102 Y114.44 E.56304
G1 X176.736 Y114.44 E.44233
G1 X176.936 Y114.523 E.01251
G1 X177.018 Y114.722 E.01251
G1 X177.018 Y125.278 E.61159
G1 X176.936 Y125.477 E.01251
G1 X176.736 Y125.56 E.01251
G1 X169.102 Y125.56 E.44233
G1 X169.102 Y135.278 E.56304
G1 X169.019 Y135.477 E.01251
G1 X168.82 Y135.56 E.01251
G1 X103.324 Y135.56 E3.79472
G1 E-.805 F3600
;WIPE_START
G1 F1200
G1 X103.064 Y135.477 E-.09395
G1 X102.982 Y135.278 E-.07449
G1 X102.982 Y134.766 E-.17656
;WIPE_END
G1 X101.267 Y136.616 F9000
G1 E1.15 F2400
;TYPE:Bottom surface
;WIDTH:0.73284
G1 F2100
M106 S0
G1 X101.932 Y137.281 E.06406
G1 E-.805 F3600
;WIPE_START
G1 F2100
G1 X101.267 Y136.616 E-.345
;WIPE_END
G1 X101.886 Y102.723 F9000
G1 E1.15 F2400
;WIDTH:0.673844
G1 F2100
G1 X102.307 Y103.144 E.03702
G1 X102.151 Y103.25 E.01171
G1 X101.949 Y103.426 E.01667
G1 X101.855 Y103.566 E.01049
G1 X101.276 Y102.987 E.05087
G1 E-.805 F3600
;WIPE_START
G1 F2100
G1 X101.855 Y103.566 E-.28217
G1 X101.949 Y103.426 E-.05819
G1 X101.959 Y103.417 E-.00463
;WIPE_END
G1 X170.205 Y102.719 F9000
G1 E1.15 F2400
;WIDTH:0.73284
M73 P11 R15
G1 F2100
G1 X170.563 Y103.077 E.0345
G1 X170.56 Y104.032 E.06504
G1 X169.285 Y102.757 E.12282
G1 E-.805 F3600
;WIPE_START
G1 F2100
G1 X169.992 Y103.465 E-.345
;WIPE_END
G1 X170.426 Y112.475 F9000
G1 E1.15 F2400
G1 F2100
G1 X171.082 Y113.131 E.06319
G1 E-.805 F3600
;WIPE_START
G1 F2100
G1 X170.426 Y112.475 E-.345
;WIPE_END
G1 X178.122 Y112.719 F9000
G1 E1.15 F2400
G1 F2100
G1 X178.479 Y113.076 E.03445
G1 X178.477 Y114.031 E.06506
G1 X177.202 Y112.757 E.12278
G1 E-.805 F3600
;WIPE_START
G1 F2100
