; generated by PrusaSlicer 2.6.1+win64 on 2023-10-23 at 10:29:44 UTC


;
;

;
;
; 

; external perimeters extrusion width = 0.60mm
; perimeters extrusion width = 0.60mm
; infill extrusion width = 0.65mm
; solid infill extrusion width = 0.60mm
; top infill extrusion width = 0.65mm
; support material extrusion width = 0.65mm
; first layer extrusion width = 0.60mm

M73 P0 R17
;TYPE:Custom
M104 S216 ; set extruder temp
M140 S60 ; set bed temp
M190 S60 ; wait for bed temp
M109 S216 ; wait for extruder temp

G28 ; home all
BED_MESH_PROFILE LOAD=default;

G1 Z2.0 F3000 ; Move Z Axis up little to prevent scratching of Heat Bed
G1 X0.1 Y5 Z0.28 F5000.0 ; Move to start position


G92 E0 ; Reset Extruder
G1 Z2.0 F3000 ; Move Z Axis up little to prevent scratching of Heat Bed
G1 X0.1 Y10 Z0.28 F5000.0 ; Move to start position

G1 X0.1 Y200 Z0.28 F1500.0 E15 ; Draw the first line
G1 X0.4 Y200 Z0.28 F5000.0 ; Move to side a little
G1 X0.4 Y10 Z0.28 F1500.0 E30 ; Draw the second line


G92 E0 ; Reset Extruder
G1 Z0.5 F3000 ; Move Z Axis up little to prevent scratching of Heat Bed
M117 Godmode is enabled
G21 ; set units to millimeters
G90 ; use absolute coordinates
M82 ; use absolute distances for extrusion
G92 E0
; Filament gcode
M107
;LAYER_CHANGE
;Z:0.2
;HEIGHT:0.2
M73 P1 R17
G1 Z.2 F7800
G1 E-1.4 F2400
G92 E0
G1 Z.7 F7800
G1 X108.418 Y84.017
G1 Z.2
G1 E1.4 F2400
;TYPE:Skirt/Brim
;WIDTH:0.6
G1 F1800
G1 X109.018 Y83.416 E1.43934
G1 X109.236 Y83.259 E1.45178
G1 X109.69 Y83.059 E1.47476
G1 X110.067 Y82.983 E1.49257
G1 X189.989 Y82.989 E5.19467
G1 X190.309 Y83.058 E5.20983
M73 P2 R17
G1 X190.667 Y83.206 E5.22777
G1 X190.895 Y83.346 E5.24016
G1 X191.582 Y84.017 E5.28464
G1 X191.795 Y84.335 E5.30237
G1 X191.942 Y84.691 E5.32021
G1 X192.017 Y85.066 E5.33792
G1 X192.017 Y164.934 E9.03751
G1 X191.942 Y165.309 E9.05522
G1 X191.795 Y165.665 E9.07306
G1 X191.582 Y165.983 E9.09079
G1 X190.982 Y166.584 E9.13013
G1 X190.764 Y166.741 E9.14257
G1 X190.31 Y166.941 E9.16555
G1 X189.934 Y167.017 E9.18332
G1 X110.066 Y167.017 E12.88291
G1 X109.691 Y166.942 E12.90062
G1 X109.335 Y166.795 E12.91846
G1 X109.017 Y166.582 E12.93619
G1 X108.416 Y165.982 E12.97553
G1 X108.259 Y165.764 E12.98797
G1 X108.059 Y165.31 E13.01095
G1 X107.983 Y164.934 E13.02872
G1 X107.983 Y85.066 E16.72831
G1 X108.058 Y84.691 E16.74602
G1 X108.205 Y84.335 E16.76386
G1 X108.368 Y84.092 E16.77741
G1 X108.826 Y84.398 F7800
G1 F1800
G1 X109.394 Y83.829 E16.81465
G1 X109.53 Y83.733 E16.82236
G1 X109.881 Y83.583 E16.84004
G1 X110.094 Y83.54 E16.85011
G1 X189.957 Y83.546 E20.54947
G1 X190.118 Y83.582 E20.55711
M73 P3 R17
G1 X190.43 Y83.711 E20.57275
G1 X190.569 Y83.799 E20.58037
G1 X191.169 Y84.392 E20.61945
G1 X191.29 Y84.573 E20.62954
G1 X191.417 Y84.879 E20.64489
G1 X191.46 Y85.094 E20.65505
G1 X191.46 Y164.906 E24.35205
G1 X191.417 Y165.121 E24.36221
G1 X191.29 Y165.427 E24.37756
G1 X191.169 Y165.608 E24.38765
G1 X190.606 Y166.171 E24.42453
G1 X190.47 Y166.267 E24.43224
G1 X190.119 Y166.417 E24.44992
G1 X189.906 Y166.46 E24.45999
G1 X110.094 Y166.46 E28.15699
G1 X109.879 Y166.417 E28.16715
G1 X109.573 Y166.29 E28.1825
G1 X109.392 Y166.169 E28.19259
G1 X108.829 Y165.606 E28.22947
G1 X108.733 Y165.47 E28.23718
G1 X108.583 Y165.119 E28.25486
G1 X108.54 Y164.906 E28.26493
G1 X108.54 Y85.094 E31.96193
G1 X108.583 Y84.879 E31.97209
G1 X108.71 Y84.573 E31.98744
G1 X108.776 Y84.473 E31.99299
G1 X109.235 Y84.78 F7800
G1 F1800
G1 X109.766 Y84.244 E32.02794
G1 X110.121 Y84.097 E32.04574
G1 X189.879 Y84.097 E35.74024
G1 X190.234 Y84.244 E35.75804
M73 P4 R17
G1 X190.756 Y84.766 E35.79224
G1 X190.903 Y85.121 E35.81004
G1 X190.903 Y164.879 E39.50454
G1 X190.756 Y165.234 E39.52234
G1 X190.234 Y165.756 E39.55654
G1 X189.879 Y165.903 E39.57434
G1 X110.121 Y165.903 E43.26884
G1 X109.766 Y165.756 E43.28664
G1 X109.244 Y165.234 E43.32084
G1 X109.097 Y164.879 E43.33864
G1 X109.097 Y85.121 E47.03314
G1 X109.194 Y84.859 E47.04608
G1 X109.697 Y85.101 F7800
G1 F1800
G1 X110.101 Y84.697 E47.07255
G1 X110.204 Y84.654 E47.07772
G1 X189.796 Y84.654 E50.76453
G1 X189.899 Y84.697 E50.7697
M73 P5 R17
G1 X190.303 Y85.101 E50.79617
G1 X190.346 Y85.204 E50.80134
G1 X190.346 Y164.796 E54.48815
G1 X190.303 Y164.899 E54.49332
M73 P5 R16
G1 X189.899 Y165.303 E54.51979
G1 X189.796 Y165.346 E54.52496
G1 X110.204 Y165.346 E58.21177
G1 X110.101 Y165.303 E58.21694
G1 X109.697 Y164.899 E58.24341
G1 X109.654 Y164.796 E58.24858
G1 X109.662 Y85.185 E61.93627
G1 X110.211 Y85.375 F7800
G1 F1800
G1 X110.375 Y85.211 E61.94701
G1 X189.625 Y85.211 E65.61798
G1 X189.789 Y85.375 E65.62872
M73 P6 R16
G1 X189.789 Y164.625 E69.29969
G1 X189.625 Y164.789 E69.31043
G1 X110.375 Y164.789 E72.9814
G1 X110.211 Y164.625 E72.99214
G1 X110.211 Y85.465 E76.65894
; printing object Shape-Box id:0 copy 0
G1 E75.25894 F2400
G92 E0
G1 Z.7 F7800
G1 X188.096 Y163.096
G1 Z.2
G1 E1.4 F2400
;TYPE:Perimeter
;WIDTH:0.599999
G1 F1800
G1 X111.904 Y163.096 E4.92931
G1 X111.904 Y86.904 E8.45862
M73 P7 R16
G1 X188.096 Y86.904 E11.98793
G1 X188.096 Y163.006 E15.51307
G1 X188.653 Y163.653 F7800
G1 F1800
G1 X111.347 Y163.653 E19.09399
G1 X111.347 Y86.347 E22.67491
M73 P8 R16
G1 X188.653 Y86.347 E26.25583
G1 X188.653 Y163.563 E29.83258
G1 X189.21 Y164.21 F7800
;TYPE:External perimeter
G1 F1800
G1 X110.79 Y164.21 E33.4651
G1 X110.79 Y85.79 E37.09762
M73 P9 R16
G1 X189.21 Y85.79 E40.73014
G1 X189.21 Y164.12 E44.35849
G1 X188.63 Y164.055 F7800
G1 E42.95849 F2400
G92 E0
G1 Z.7 F7800
G1 X187.929 Y88.202
G1 Z.2
G1 E1.4 F2400
;TYPE:Solid infill
;WIDTH:0.602073
G1 F1800
G1 X187.049 Y87.322 E1.45786
G1 X186.258 Y87.322 E1.49464
G1 X187.678 Y88.742 E1.58801
M73 P10 R16
G1 X187.678 Y89.533 E1.62479
G1 X185.467 Y87.322 E1.77017
G1 X184.677 Y87.322 E1.8069
G1 X187.678 Y90.323 E2.00422
G1 X187.678 Y91.114 E2.041
G1 X183.886 Y87.322 E2.29033
G1 X183.095 Y87.322 E2.32711
G1 X187.678 Y91.905 E2.62845
G1 X187.678 Y92.696 E2.66523
G1 X182.304 Y87.322 E3.01858
G1 X181.514 Y87.322 E3.05531
G1 X187.678 Y93.486 E3.46061
G1 X187.678 Y94.277 E3.49739
G1 X180.723 Y87.322 E3.9547
G1 X179.932 Y87.322 E3.99148
G1 X187.678 Y95.068 E4.5008
G1 X187.678 Y95.859 E4.53758
G1 X179.141 Y87.322 E5.09891
G1 X178.351 Y87.322 E5.13564
G1 X187.678 Y96.649 E5.74891
G1 X187.678 Y97.44 E5.78569
G1 X177.56 Y87.322 E6.45097
G1 X176.769 Y87.322 E6.48775
G1 X187.678 Y98.231 E7.20504
G1 X187.678 Y99.022 E7.24182
G1 X175.978 Y87.322 E8.01112
G1 X175.187 Y87.322 E8.0479
G1 X187.678 Y99.813 E8.86921
G1 X187.678 Y100.603 E8.90594
G1 X174.397 Y87.322 E9.77919
G1 X173.606 Y87.322 E9.81597
G1 X187.678 Y101.394 E10.74123
G1 X187.678 Y102.185 E10.77801
G1 X172.815 Y87.322 E11.75528
G1 X172.024 Y87.322 E11.79206
G1 X187.678 Y102.976 E12.82134
G1 X187.678 Y103.766 E12.85807
G1 X171.234 Y87.322 E13.9393
G1 X170.443 Y87.322 E13.97608
M73 P10 R15
G1 X187.678 Y104.557 E15.10932
G1 X187.678 Y105.348 E15.1461
G1 X169.652 Y87.322 E16.33135
G1 X168.861 Y87.322 E16.36813
M73 P11 R15
G1 X187.678 Y106.139 E17.60539
G1 X187.678 Y106.929 E17.64212
G1 X168.071 Y87.322 E18.93132
G1 X167.28 Y87.322 E18.9681
G1 X187.678 Y107.72 E20.30931
G1 X187.678 Y108.511 E20.34609
G1 X166.489 Y87.322 E21.73931
G1 X165.698 Y87.322 E21.77609
G1 X187.678 Y109.302 E23.22132
G1 X187.678 Y110.092 E23.25805
G1 X164.908 Y87.322 E24.75523
G1 X164.117 Y87.322 E24.79201
G1 X187.678 Y110.883 E26.3412
G1 X187.678 Y111.674 E26.37798
G1 X163.326 Y87.322 E27.97918
G1 X162.535 Y87.322 E28.01596
G1 X187.678 Y112.465 E29.66917
G1 X187.678 Y113.255 E29.7059
G1 X161.745 Y87.322 E31.41105
G1 X160.954 Y87.322 E31.44783
M73 P12 R15
G1 X187.678 Y114.046 E33.20499
G1 X187.678 Y114.837 E33.24177
G1 X160.163 Y87.322 E35.05094
G1 X159.372 Y87.322 E35.08772
G1 X187.678 Y115.628 E36.9489
G1 X187.678 Y116.419 E36.98568
G1 X158.581 Y87.322 E38.89887
G1 X157.791 Y87.322 E38.9356
G1 X187.678 Y117.209 E40.90073
G1 X187.678 Y118 E40.93751
G1 X157 Y87.322 E42.95465
G1 X156.209 Y87.322 E42.99143
G1 X187.678 Y118.791 E45.06058
G1 X187.678 Y119.582 E45.09736
M73 P13 R15
G1 X155.418 Y87.322 E47.21852
G1 X154.628 Y87.322 E47.25525
G1 X187.678 Y120.372 E49.42836
G1 X187.678 Y121.163 E49.46514
G1 X153.837 Y87.322 E51.69026
G1 X153.046 Y87.322 E51.72704
G1 X187.678 Y121.954 E54.00417
G1 X187.678 Y122.745 E54.04095
G1 X152.255 Y87.322 E56.37009
G1 X151.465 Y87.322 E56.40682
G1 X187.678 Y123.535 E58.7879
G1 X187.678 Y124.326 E58.82468
G1 X150.674 Y87.322 E61.25777
G1 X149.883 Y87.322 E61.29455
M73 P14 R15
G1 X187.678 Y125.117 E63.77965
G1 X187.678 Y125.908 E63.81643
G1 X149.092 Y87.322 E66.35354
G1 X148.302 Y87.322 E66.39027
G1 X187.678 Y126.698 E68.97932
G1 X187.678 Y127.489 E69.0161
G1 X147.511 Y87.322 E71.65716
G1 X146.72 Y87.322 E71.69394
G1 X187.678 Y128.28 E74.38701
G1 X187.678 Y129.071 E74.42379
M73 P15 R15
G1 X145.929 Y87.322 E77.16887
G1 X145.139 Y87.322 E77.2056
G1 X187.678 Y129.861 E80.00263
G1 X187.678 Y130.652 E80.03941
G1 X144.348 Y87.322 E82.88845
G1 X143.557 Y87.322 E82.92523
G1 X187.678 Y131.443 E85.82628
G1 X187.678 Y132.234 E85.86306
G1 X142.766 Y87.322 E88.81612
G1 X141.975 Y87.322 E88.8529
M73 P16 R15
G1 X187.678 Y133.025 E91.85797
G1 X187.678 Y133.815 E91.8947
G1 X141.185 Y87.322 E94.95171
G1 X140.394 Y87.322 E94.98849
G1 X187.678 Y134.606 E98.09751
M73 P16 R14
G1 X187.678 Y135.397 E98.13429
G1 X139.603 Y87.322 E101.29532
G1 X138.812 Y87.322 E101.3321
G1 X187.678 Y136.188 E104.54514
G1 X187.678 Y136.978 E104.58187
M73 P17 R14
G1 X138.022 Y87.322 E107.84686
G1 X137.231 Y87.322 E107.88364
G1 X187.678 Y137.769 E111.20064
G1 X187.678 Y138.56 E111.23742
G1 X136.44 Y87.322 E114.60643
G1 X135.649 Y87.322 E114.64321
G1 X187.678 Y139.351 E118.06423
G1 X187.678 Y140.141 E118.10096
M73 P18 R14
G1 X134.859 Y87.322 E121.57392
G1 X134.068 Y87.322 E121.6107
G1 X187.678 Y140.932 E125.13567
G1 X187.678 Y141.723 E125.17245
G1 X133.277 Y87.322 E128.74943
G1 X132.486 Y87.322 E128.78621
G1 X187.678 Y142.514 E132.4152
G1 X187.678 Y143.304 E132.45193
G1 X131.696 Y87.322 E136.13286
G1 X130.905 Y87.322 E136.16964
M73 P19 R14
G1 X187.678 Y144.095 E139.90258
G1 X187.678 Y144.886 E139.93936
G1 X130.114 Y87.322 E143.72431
G1 X129.323 Y87.322 E143.76109
G1 X187.678 Y145.677 E147.59805
G1 X187.678 Y146.467 E147.63478
M73 P20 R14
G1 X128.533 Y87.322 E151.52369
G1 X127.742 Y87.322 E151.56047
G1 X187.678 Y147.258 E155.50139
G1 X187.678 Y148.049 E155.53817
G1 X126.951 Y87.322 E159.5311
G1 X126.16 Y87.322 E159.56788
G1 X187.678 Y148.84 E163.61282
G1 X187.678 Y149.631 E163.6496
M73 P21 R14
G1 X125.369 Y87.322 E167.74655
G1 X124.579 Y87.322 E167.78328
G1 X187.678 Y150.421 E171.93217
G1 X187.678 Y151.212 E171.96895
G1 X123.788 Y87.322 E176.16985
G1 X122.997 Y87.322 E176.20663
G1 X187.678 Y152.003 E180.45954
G1 X187.678 Y152.794 E180.49632
M73 P22 R13
G1 X122.206 Y87.322 E184.80124
G1 X121.416 Y87.322 E184.83797
G1 X187.678 Y153.584 E189.19484
G1 X187.678 Y154.375 E189.23162
G1 X120.625 Y87.322 E193.6405
G1 X119.834 Y87.322 E193.67728
M73 P23 R13
G1 X187.678 Y155.166 E198.13817
G1 X187.678 Y155.957 E198.17495
G1 X119.043 Y87.322 E202.68785
G1 X118.253 Y87.322 E202.72458
G1 X187.678 Y156.747 E207.28942
G1 X187.678 Y157.538 E207.3262
M73 P24 R13
G1 X117.462 Y87.322 E211.94305
G1 X116.671 Y87.322 E211.97983
G1 X187.678 Y158.329 E216.64869
G1 X187.678 Y159.12 E216.68547
G1 X115.88 Y87.322 E221.40634
G1 X115.09 Y87.322 E221.44307
G1 X187.678 Y159.91 E226.21588
G1 X187.678 Y160.701 E226.25266
M73 P25 R13
G1 X114.299 Y87.322 E231.07748
G1 X113.508 Y87.322 E231.11426
G1 X187.678 Y161.492 E235.99109
G1 X187.678 Y162.283 E236.02787
G1 X112.717 Y87.322 E240.95671
G1 X112.322 Y87.322 E240.97508
M73 P26 R13
G1 X112.322 Y87.717 E240.99345
G1 X187.283 Y162.678 E245.92229
G1 X186.492 Y162.678 E245.95907
G1 X112.322 Y88.508 E250.8359
G1 X112.322 Y89.299 E250.87268
G1 X185.701 Y162.678 E255.6975
G1 X184.91 Y162.678 E255.73428
M73 P27 R13
G1 X112.322 Y90.09 E260.50709
G1 X112.322 Y90.88 E260.54382
M73 P27 R12
G1 X184.12 Y162.678 E265.26469
G1 X183.329 Y162.678 E265.30147
G1 X112.322 Y91.671 E269.97033
G1 X112.322 Y92.462 E270.00711
M73 P28 R12
G1 X182.538 Y162.678 E274.62396
G1 X181.747 Y162.678 E274.66074
G1 X112.322 Y93.253 E279.22558
G1 X112.322 Y94.043 E279.26231
G1 X180.957 Y162.678 E283.77521
G1 X180.166 Y162.678 E283.81199
M73 P29 R12
G1 X112.322 Y94.834 E288.27288
G1 X112.322 Y95.625 E288.30966
G1 X179.375 Y162.678 E292.71854
G1 X178.584 Y162.678 E292.75532
G1 X112.322 Y96.416 E297.11219
G1 X112.322 Y97.207 E297.14897
M73 P30 R12
G1 X177.793 Y162.678 E301.45383
G1 X177.003 Y162.678 E301.49056
G1 X112.322 Y97.997 E305.74347
G1 X112.322 Y98.788 E305.78025
G1 X176.212 Y162.678 E309.98115
G1 X175.421 Y162.678 E310.01793
G1 X112.322 Y99.579 E314.16682
G1 X112.322 Y100.37 E314.2036
M73 P31 R12
G1 X174.63 Y162.678 E318.30048
G1 X173.84 Y162.678 E318.33721
G1 X112.322 Y101.16 E322.38215
G1 X112.322 Y101.951 E322.41893
G1 X173.049 Y162.678 E326.41186
G1 X172.258 Y162.678 E326.44864
M73 P32 R12
G1 X112.322 Y102.742 E330.38956
G1 X112.322 Y103.533 E330.42634
G1 X171.467 Y162.678 E334.31525
G1 X170.677 Y162.678 E334.35198
G1 X112.322 Y104.323 E338.18894
G1 X112.322 Y105.114 E338.22572
G1 X169.886 Y162.678 E342.01067
G1 X169.095 Y162.678 E342.04745
M73 P33 R12
G1 X112.322 Y105.905 E345.78039
G1 X112.322 Y106.696 E345.81717
M73 P33 R11
G1 X168.304 Y162.678 E349.4981
G1 X167.514 Y162.678 E349.53483
G1 X112.322 Y107.486 E353.16382
G1 X112.322 Y108.277 E353.2006
G1 X166.723 Y162.678 E356.77758
G1 X165.932 Y162.678 E356.81436
M73 P34 R11
G1 X112.322 Y109.068 E360.33933
G1 X112.322 Y109.859 E360.37611
G1 X165.141 Y162.678 E363.84907
G1 X164.351 Y162.678 E363.8858
G1 X112.322 Y110.649 E367.30682
G1 X112.322 Y111.44 E367.3436
G1 X163.56 Y162.678 E370.71261
G1 X162.769 Y162.678 E370.74939
M73 P35 R11
G1 X112.322 Y112.231 E374.06639
G1 X112.322 Y113.022 E374.10317
G1 X161.978 Y162.678 E377.36816
G1 X161.187 Y162.678 E377.40494
G1 X112.322 Y113.813 E380.61792
G1 X112.322 Y114.603 E380.65465
G1 X160.397 Y162.678 E383.81568
G1 X159.606 Y162.678 E383.85246
G1 X112.322 Y115.394 E386.96148
G1 X112.322 Y116.185 E386.99826
M73 P36 R11
G1 X158.815 Y162.678 E390.05527
G1 X158.024 Y162.678 E390.09205
G1 X112.322 Y116.976 E393.09705
G1 X112.322 Y117.766 E393.13378
G1 X157.234 Y162.678 E396.08684
G1 X156.443 Y162.678 E396.12362
G1 X112.322 Y118.557 E399.02467
G1 X112.322 Y119.348 E399.06145
G1 X155.652 Y162.678 E401.91049
G1 X154.861 Y162.678 E401.94727
M73 P37 R11
G1 X112.322 Y120.139 E404.7443
G1 X112.322 Y120.929 E404.78103
G1 X154.071 Y162.678 E407.52611
G1 X153.28 Y162.678 E407.56289
G1 X112.322 Y121.72 E410.25596
G1 X112.322 Y122.511 E410.29274
G1 X152.489 Y162.678 E412.9338
G1 X151.698 Y162.678 E412.97058
G1 X112.322 Y123.302 E415.55963
G1 X112.322 Y124.092 E415.59636
M73 P38 R11
G1 X150.908 Y162.678 E418.13347
G1 X150.117 Y162.678 E418.17025
G1 X112.322 Y124.883 E420.65535
G1 X112.322 Y125.674 E420.69213
G1 X149.326 Y162.678 E423.12522
G1 X148.535 Y162.678 E423.162
G1 X112.322 Y126.465 E425.54308
G1 X112.322 Y127.255 E425.57981
M73 P38 R10
G1 X147.745 Y162.678 E427.90895
G1 X146.954 Y162.678 E427.94573
G1 X112.322 Y128.046 E430.22286
G1 X112.322 Y128.837 E430.25964
M73 P39 R10
G1 X146.163 Y162.678 E432.48476
G1 X145.372 Y162.678 E432.52154
G1 X112.322 Y129.628 E434.69465
G1 X112.322 Y130.419 E434.73143
G1 X144.581 Y162.678 E436.85253
G1 X143.791 Y162.678 E436.88926
G1 X112.322 Y131.209 E438.95841
G1 X112.322 Y132 E438.99519
G1 X143 Y162.678 E441.01233
G1 X142.209 Y162.678 E441.04911
G1 X112.322 Y132.791 E443.01424
G1 X112.322 Y133.582 E443.05102
G1 X141.418 Y162.678 E444.96414
G1 X140.628 Y162.678 E445.00087
M73 P40 R10
G1 X112.322 Y134.372 E446.86205
G1 X112.322 Y135.163 E446.89883
G1 X139.837 Y162.678 E448.708
G1 X139.046 Y162.678 E448.74478
G1 X112.322 Y135.954 E450.50194
G1 X112.322 Y136.745 E450.53872
G1 X138.255 Y162.678 E452.24387
G1 X137.465 Y162.678 E452.2806
G1 X112.322 Y137.535 E453.93381
G1 X112.322 Y138.326 E453.97059
G1 X136.674 Y162.678 E455.57179
G1 X135.883 Y162.678 E455.60857
G1 X112.322 Y139.117 E457.15776
G1 X112.322 Y139.908 E457.19454
G1 X135.092 Y162.678 E458.69172
G1 X134.302 Y162.678 E458.72845
M73 P41 R10
