; generated by PrusaSlicer 2.6.1+win64 on 2023-10-11 at 17:58:18 UTC


;
;

;
;
; 

; external perimeters extrusion width = 0.60mm
; perimeters extrusion width = 0.60mm
; infill extrusion width = 0.65mm
; solid infill extrusion width = 0.60mm
; top infill extrusion width = 0.65mm
; support material extrusion width = 0.65mm
; first layer extrusion width = 0.60mm

M73 P0 R62
;TYPE:Custom
M104 S216 ; set extruder temp
M140 S60 ; set bed temp
M190 S60 ; wait for bed temp
M109 S216 ; wait for extruder temp

G28 ; home all
BED_MESH_PROFILE LOAD=default;

G1 Z2.0 F3000 ; Move Z Axis up little to prevent scratching of Heat Bed
G1 X0.1 Y5 Z0.28 F5000.0 ; Move to start position


G92 E0 ; Reset Extruder
G1 Z2.0 F3000 ; Move Z Axis up little to prevent scratching of Heat Bed
G1 X0.1 Y10 Z0.28 F5000.0 ; Move to start position

G1 X0.1 Y200 Z0.28 F1500.0 E15 ; Draw the first line
G1 X0.4 Y200 Z0.28 F5000.0 ; Move to side a little
G1 X0.4 Y10 Z0.28 F1500.0 E30 ; Draw the second line


G92 E0 ; Reset Extruder
G1 Z0.5 F3000 ; Move Z Axis up little to prevent scratching of Heat Bed
M117 Godmode is enabled
G21 ; set units to millimeters
G90 ; use absolute coordinates
M82 ; use absolute distances for extrusion
G92 E0
; Filament gcode
M107
;LAYER_CHANGE
;Z:0.3
;HEIGHT:0.3
G1 Z.3 F7800
G1 E-1.4 F2400
G92 E0
G1 Z.8 F7800
G1 X117.885 Y56.655
G1 Z.3
G1 E1.4 F2400
;TYPE:Skirt/Brim
;WIDTH:0.6
G1 F1800
G1 X118.037 Y56.446 E1.41726
G1 X118.698 Y55.8 E1.479
G1 X118.917 Y55.665 E1.49619
G1 X119.262 Y55.522 E1.52114
G1 X119.622 Y55.451 E1.54565
G1 X180.61 Y55.456 E5.61998
G1 X180.918 Y55.523 E5.64104
G1 X181.262 Y55.665 E5.6659
G1 X181.481 Y55.8 E5.68309
G1 X182.141 Y56.444 E5.74469
G1 X182.346 Y56.75 E5.7693
G1 X182.488 Y57.093 E5.7941
G1 X182.56 Y57.454 E5.81869
G1 X182.56 Y88.388 E7.88525
G1 X182.488 Y88.749 E7.90984
G1 X182.346 Y89.092 E7.93464
G1 X182.141 Y89.398 E7.95925
G1 X181.481 Y90.042 E8.02085
G1 X181.262 Y90.177 E8.03804
G1 X180.917 Y90.32 E8.06299
G1 X180.557 Y90.391 E8.0875
G1 X177.01 Y90.391 E8.32446
G1 X177.008 Y106.738 E9.41653
G1 X201.049 Y106.825 E11.02261
G1 X201.794 Y106.881 E11.07252
G1 X202.565 Y107.041 E11.12512
G1 X203.271 Y107.291 E11.17515
G1 X203.876 Y107.594 E11.22035
G1 X204.441 Y107.965 E11.26551
G1 X205.062 Y108.501 E11.32031
G1 X205.584 Y109.099 E11.37334
G1 X206.021 Y109.766 E11.42661
G1 X206.358 Y110.479 E11.47929
G1 X206.557 Y111.087 E11.52203
G1 X206.692 Y111.743 E11.56677
G1 X206.753 Y112.562 E11.62164
G1 X206.753 Y188.687 E16.7072
G1 X206.692 Y189.496 E16.7614
G1 X206.534 Y190.25 E16.81287
G1 X206.278 Y190.978 E16.86442
G1 X205.914 Y191.691 E16.9179
G1 X205.526 Y192.259 E16.96385
G1 X205.094 Y192.759 E17.00799
G1 X204.372 Y193.392 E17.07214
G1 X203.789 Y193.772 E17.11863
G1 X203.165 Y194.082 E17.16518
G1 X202.338 Y194.362 E17.22351
G1 X201.624 Y194.499 E17.27208
G1 X200.887 Y194.549 E17.32143
G1 X193.081 Y194.541 E17.84291
G1 X192.424 Y194.412 E17.88764
G1 X175.53 Y187.538 E19.1061
G1 X129.638 Y187.487 E22.17194
G1 X124.673 Y187.576 E22.50368
G1 X108.199 Y194.312 E23.69268
G1 X107.772 Y194.418 E23.72207
G1 X98.889 Y194.431 E24.3155
G1 X98.153 Y194.369 E24.36484
G1 X97.416 Y194.207 E24.41525
G1 X96.707 Y193.951 E24.46561
G1 X96.041 Y193.607 E24.51569
G1 X95.453 Y193.201 E24.56343
G1 X94.892 Y192.698 E24.61377
G1 X94.422 Y192.152 E24.6619
G1 X94.006 Y191.523 E24.71228
G1 X93.676 Y190.846 E24.76259
G1 X93.447 Y190.167 E24.81046
G1 X93.3 Y189.43 E24.86067
G1 X93.248 Y188.699 E24.90963
G1 X93.247 Y112.344 E30.01056
G1 X93.314 Y111.492 E30.06765
G1 X93.476 Y110.742 E30.11891
G1 X93.705 Y110.09 E30.16508
G1 X93.993 Y109.494 E30.2093
G1 X94.458 Y108.784 E30.266
G1 X94.999 Y108.168 E30.32077
G1 X95.637 Y107.621 E30.37691
G1 X96.215 Y107.242 E30.42308
G1 X96.806 Y106.945 E30.46727
G1 X97.57 Y106.675 E30.5214
G1 X98.369 Y106.511 E30.57589
G1 X99.143 Y106.457 E30.62772
G1 X123.169 Y106.544 E32.2328
G1 X123.169 Y90.391 E33.31191
G1 X119.622 Y90.391 E33.54887
G1 X119.262 Y90.32 E33.57338
G1 X118.917 Y90.177 E33.59833
G1 X118.698 Y90.042 E33.61552
G1 X118.038 Y89.398 E33.67712
G1 X117.833 Y89.092 E33.70173
G1 X117.691 Y88.75 E33.72647
G1 X117.624 Y88.442 E33.74753
G1 X117.619 Y57.454 E35.8177
G1 X117.692 Y57.092 E35.84237
G1 X117.848 Y56.737 E35.86827
G1 X118.337 Y56.946 F7800
G1 F1800
G1 X118.432 Y56.808 E35.87946
G1 X119.011 Y56.235 E35.93388
G1 X119.145 Y56.15 E35.94448
G1 X119.442 Y56.027 E35.96596
G1 X119.649 Y55.986 E35.98006
G1 X180.58 Y55.991 E40.05058
G1 X180.734 Y56.026 E40.06113
M73 P1 R61
G1 X181.034 Y56.15 E40.08282
G1 X181.168 Y56.235 E40.09342
G1 X181.745 Y56.806 E40.14765
G1 X181.861 Y56.98 E40.16162
G1 X181.983 Y57.274 E40.18288
G1 X182.024 Y57.48 E40.19691
G1 X182.024 Y88.362 E42.25999
G1 X181.983 Y88.568 E42.27402
G1 X181.861 Y88.862 E42.29528
G1 X181.745 Y89.036 E42.30925
G1 X181.168 Y89.607 E42.36348
G1 X181.034 Y89.692 E42.37408
G1 X180.737 Y89.815 E42.39556
G1 X180.531 Y89.856 E42.40959
G1 X176.474 Y89.856 E42.68062
G1 X176.472 Y107.272 E43.8441
G1 X201.038 Y107.361 E45.48525
G1 X201.704 Y107.409 E45.52986
G1 X202.406 Y107.553 E45.57773
G1 X203.048 Y107.778 E45.62318
G1 X203.596 Y108.05 E45.66405
G1 X204.132 Y108.403 E45.70693
G1 X204.673 Y108.869 E45.75463
G1 X205.148 Y109.41 E45.80273
G1 X205.546 Y110.014 E45.85105
G1 X205.854 Y110.662 E45.89898
G1 X206.043 Y111.238 E45.93948
G1 X206.163 Y111.832 E45.97996
G1 X206.217 Y112.571 E46.02946
G1 X206.217 Y188.678 E51.11382
G1 X206.164 Y189.405 E51.16252
G1 X206.022 Y190.091 E51.20932
G1 X205.792 Y190.753 E51.25614
G1 X205.461 Y191.405 E51.30499
G1 X205.111 Y191.921 E51.34664
G1 X204.701 Y192.395 E51.38851
G1 X204.063 Y192.954 E51.44518
G1 X203.536 Y193.3 E51.4873
G1 X202.943 Y193.594 E51.53152
G1 X202.218 Y193.84 E51.58267
G1 X201.57 Y193.966 E51.62677
G1 X200.878 Y194.014 E51.67311
G1 X193.107 Y194.005 E52.19226
G1 X192.602 Y193.906 E52.22664
G1 X175.635 Y187.003 E53.45035
G1 X129.633 Y186.951 E56.52353
G1 X124.563 Y187.042 E56.86229
G1 X108.015 Y193.808 E58.05662
G1 X107.677 Y193.89 E58.07986
G1 X98.922 Y193.897 E58.66474
G1 X98.249 Y193.841 E58.70986
G1 X97.58 Y193.697 E58.75558
G1 X96.935 Y193.466 E58.80135
G1 X96.329 Y193.155 E58.84685
G1 X95.796 Y192.79 E58.89001
G1 X95.286 Y192.335 E58.93567
G1 X94.839 Y191.816 E58.98143
G1 X94.464 Y191.244 E59.02712
G1 X94.166 Y190.629 E59.07277
G1 X93.961 Y190.014 E59.11608
G1 X93.829 Y189.343 E59.16177
G1 X93.783 Y188.673 E59.20663
G1 X93.783 Y112.354 E64.30515
G1 X93.841 Y111.586 E64.3566
G1 X93.988 Y110.902 E64.40334
G1 X94.194 Y110.309 E64.44528
G1 X94.467 Y109.744 E64.4872
G1 X94.895 Y109.095 E64.53914
G1 X95.388 Y108.537 E64.58888
G1 X95.946 Y108.058 E64.63801
G1 X96.469 Y107.714 E64.67983
G1 X97.031 Y107.432 E64.72184
G1 X97.729 Y107.187 E64.77126
G1 X98.458 Y107.04 E64.82094
G1 X99.151 Y106.993 E64.86734
G1 X123.705 Y107.081 E66.50769
G1 X123.705 Y89.856 E67.65841
G1 X119.649 Y89.856 E67.92937
G1 X119.442 Y89.815 E67.94347
G1 X119.145 Y89.692 E67.96495
G1 X119.011 Y89.607 E67.97555
G1 X118.434 Y89.036 E68.02978
G1 X118.318 Y88.862 E68.04375
G1 X118.195 Y88.565 E68.06523
G1 X118.16 Y88.411 E68.07578
G1 X118.155 Y57.48 E70.14214
G1 X118.196 Y57.275 E70.15611
G1 X118.301 Y57.029 E70.17398
G1 X118.793 Y57.233 F7800
G1 F1800
G1 X118.832 Y57.165 E70.17922
G1 X119.334 Y56.663 E70.22665
G1 X119.675 Y56.522 E70.2513
G1 X180.504 Y56.522 E74.31501
G1 X180.846 Y56.663 E74.33972
G1 X181.377 Y57.209 E74.3906
G1 X181.489 Y57.506 E74.41181
G1 X181.489 Y88.336 E76.47142
G1 X181.347 Y88.677 E76.4961
G1 X180.846 Y89.179 E76.54348
G1 X180.504 Y89.32 E76.56819
G1 X175.939 Y89.32 E76.87316
G1 X175.936 Y107.806 E78.10812
G1 X201.027 Y107.897 E79.78435
G1 X201.615 Y107.938 E79.82373
G1 X202.248 Y108.065 E79.86686
G1 X202.826 Y108.266 E79.90774
G1 X203.342 Y108.522 E79.94622
G1 X203.822 Y108.84 E79.98469
G1 X204.284 Y109.238 E80.02543
G1 X204.712 Y109.722 E80.06859
G1 X205.071 Y110.263 E80.11197
G1 X205.351 Y110.845 E80.15512
G1 X205.529 Y111.389 E80.19336
G1 X205.635 Y111.92 E80.22953
G1 X205.681 Y112.58 E80.27373
G1 X205.681 Y188.669 E85.35689
G1 X205.636 Y189.316 E85.40022
G1 X205.51 Y189.934 E85.44236
G1 X205.305 Y190.529 E85.4844
G1 X205.008 Y191.119 E85.52853
G1 X204.677 Y191.607 E85.56792
G1 X204.309 Y192.029 E85.60533
G1 X203.753 Y192.517 E85.65475
G1 X203.257 Y192.843 E85.6944
G1 X202.723 Y193.105 E85.73414
G1 X202.096 Y193.318 E85.77838
G1 X201.515 Y193.433 E85.81795
G1 X200.869 Y193.478 E85.86121
G1 X193.133 Y193.469 E86.37802
G1 X192.78 Y193.4 E86.40205
G1 X175.74 Y186.467 E87.63103
G1 X129.629 Y186.415 E90.7115
G1 X124.453 Y186.508 E91.05734
G1 X107.833 Y193.304 E92.25688
G1 X107.586 Y193.362 E92.27383
G1 X98.953 Y193.362 E92.85056
G1 X98.342 Y193.314 E92.8915
G1 X97.741 Y193.186 E92.93255
G1 X97.162 Y192.981 E92.97358
G1 X96.616 Y192.703 E93.01451
G1 X96.138 Y192.377 E93.05316
G1 X95.678 Y191.97 E93.09419
G1 X95.276 Y191.506 E93.1352
G1 X94.937 Y190.993 E93.17628
G1 X94.668 Y190.441 E93.2173
G1 X94.483 Y189.891 E93.25607
G1 X94.362 Y189.289 E93.29709
G1 X94.319 Y188.663 E93.33901
G1 X94.319 Y112.363 E98.43626
G1 X94.369 Y111.678 E98.48214
G1 X94.5 Y111.06 E98.52434
G1 X94.683 Y110.528 E98.56192
G1 X94.941 Y109.994 E98.60154
G1 X95.33 Y109.408 E98.64853
G1 X95.776 Y108.907 E98.69334
G1 X96.254 Y108.497 E98.73541
G1 X96.75 Y108.17 E98.7751
G1 X97.254 Y107.919 E98.81271
G1 X97.886 Y107.699 E98.85742
G1 X98.544 Y107.569 E98.90223
G1 X99.158 Y107.528 E98.94334
G1 X124.241 Y107.619 E100.61903
G1 X124.241 Y89.32 E101.8415
G1 X119.675 Y89.32 E102.14653
G1 X119.334 Y89.179 E102.17118
G1 X118.832 Y88.677 E102.21861
G1 X118.691 Y88.336 E102.24326
G1 X118.691 Y57.506 E104.30287
G1 X118.758 Y57.316 E104.31633
G1 X119.253 Y57.521 F7800
G1 F1800
G1 X119.267 Y57.487 E104.31879
G1 X119.656 Y57.098 E104.35554
G1 X119.754 Y57.058 E104.36261
G1 X180.425 Y57.058 E108.41576
G1 X180.523 Y57.098 E108.42283
G1 X180.912 Y57.487 E108.45958
G1 X180.953 Y57.586 E108.46674
G1 X180.953 Y88.256 E110.51566
G1 X180.912 Y88.355 E110.52282
G1 X180.523 Y88.744 E110.55957
G1 X180.425 Y88.784 E110.56664
G1 X175.403 Y88.784 E110.90214
G1 X175.401 Y108.339 E112.20852
G1 X201.017 Y108.432 E113.91982
G1 X201.529 Y108.466 E113.9541
M73 P2 R61
G1 X202.092 Y108.578 E113.99245
G1 X202.603 Y108.753 E114.02853
G1 X203.088 Y108.994 E114.06471
G1 X203.51 Y109.275 E114.09858
G1 X203.918 Y109.63 E114.13471
G1 X204.298 Y110.062 E114.17315
G1 X204.597 Y110.513 E114.2093
G1 X204.848 Y111.031 E114.24775
G1 X205.007 Y111.511 E114.28153
G1 X205.106 Y112.008 E114.31538
G1 X205.146 Y112.589 E114.35429
G1 X205.146 Y188.659 E119.43618
G1 X205.103 Y189.26 E119.47643
G1 X204.989 Y189.807 E119.51376
G1 X204.805 Y190.335 E119.55111
G1 X204.554 Y190.834 E119.58843
G1 X204.261 Y191.268 E119.62341
G1 X203.917 Y191.664 E119.65845
G1 X203.442 Y192.08 E119.70063
G1 X203.004 Y192.37 E119.73572
G1 X202.502 Y192.617 E119.7731
G1 X201.972 Y192.796 E119.81047
G1 X201.46 Y192.9 E119.84537
G1 X200.86 Y192.942 E119.88555
G1 X193.16 Y192.934 E120.39995
G1 X192.957 Y192.894 E120.41377
G1 X175.845 Y185.932 E121.64794
G1 X129.624 Y185.88 E124.73576
G1 X124.344 Y185.975 E125.08855
G1 X107.653 Y192.799 E126.29319
G1 X107.5 Y192.833 E126.30366
G1 X98.983 Y192.827 E126.87264
G1 X98.433 Y192.786 E126.90948
G1 X97.901 Y192.674 E126.9458
G1 X97.387 Y192.494 E126.98218
G1 X96.901 Y192.249 E127.01854
G1 X96.478 Y191.963 E127.05265
G1 X96.069 Y191.603 E127.08905
G1 X95.711 Y191.194 E127.12536
G1 X95.41 Y190.741 E127.16169
G1 X95.17 Y190.252 E127.19808
G1 X94.996 Y189.737 E127.2344
G1 X94.891 Y189.203 E127.27076
G1 X94.854 Y188.655 E127.30745
G1 X94.854 Y112.373 E132.4035
G1 X94.897 Y111.769 E132.44395
G1 X95.012 Y111.218 E132.48155
G1 X95.184 Y110.718 E132.51687
G1 X95.415 Y110.245 E132.55204
G1 X95.744 Y109.748 E132.59186
G1 X96.14 Y109.3 E132.6318
G1 X96.565 Y108.933 E132.66931
G1 X97.004 Y108.642 E132.7045
G1 X97.477 Y108.407 E132.73978
G1 X98.042 Y108.212 E132.77971
G1 X98.629 Y108.098 E132.81966
G1 X99.164 Y108.064 E132.85547
G1 X124.776 Y108.156 E134.5665
G1 X124.776 Y88.784 E135.86065
G1 X119.754 Y88.784 E136.19615
G1 X119.656 Y88.744 E136.20322
G1 X119.267 Y88.355 E136.23997
G1 X119.226 Y88.256 E136.24713
G1 X119.226 Y57.606 E138.29472
G1 X119.762 Y57.75 F7800
G1 F1800
G1 X119.919 Y57.593 E138.30955
G1 X180.261 Y57.593 E142.34072
G1 X180.417 Y57.75 E142.35551
G1 X180.417 Y88.092 E144.38252
G1 X180.261 Y88.249 E144.39731
G1 X174.867 Y88.249 E144.75766
G1 X174.865 Y108.873 E146.13545
G1 X201.007 Y108.968 E147.88189
G1 X201.476 Y109 E147.91329
G1 X201.938 Y109.091 E147.94475
G1 X202.384 Y109.242 E147.97621
G1 X202.806 Y109.45 E148.00764
G1 X203.198 Y109.711 E148.0391
G1 X203.552 Y110.021 E148.07054
G1 X203.863 Y110.375 E148.10202
G1 X204.124 Y110.765 E148.13337
G1 X204.346 Y111.219 E148.16713
G1 X204.485 Y111.633 E148.1963
G1 X204.577 Y112.095 E148.22777
G1 X204.61 Y112.598 E148.26145
G1 X204.61 Y188.65 E153.34214
G1 X204.574 Y189.171 E153.37703
G1 X204.477 Y189.65 E153.40968
G1 X204.317 Y190.113 E153.44241
G1 X204.099 Y190.551 E153.47509
G1 X203.846 Y190.93 E153.50553
G1 X203.525 Y191.299 E153.5382
G1 X203.131 Y191.644 E153.57319
G1 X202.724 Y191.913 E153.60578
G1 X202.284 Y192.127 E153.63847
G1 X201.82 Y192.283 E153.67117
G1 X201.373 Y192.371 E153.70161
G1 X200.852 Y192.407 E153.7365
G1 X193.135 Y192.388 E154.25204
G1 X175.95 Y185.396 E155.49148
G1 X129.62 Y185.344 E158.58658
G1 X124.234 Y185.441 E158.94645
M73 P2 R60
G1 X107.426 Y192.302 E160.15926
G1 X99.011 Y192.292 E160.72143
G1 X98.523 Y192.257 E160.75411
G1 X98.058 Y192.162 E160.78582
G1 X97.61 Y192.007 E160.81749
G1 X97.186 Y191.795 E160.84916
G1 X96.793 Y191.53 E160.88083
G1 X96.439 Y191.215 E160.91249
G1 X96.128 Y190.857 E160.94417
G1 X95.867 Y190.461 E160.97585
G1 X95.66 Y190.035 E161.00749
G1 X95.51 Y189.585 E161.03918
G1 X95.42 Y189.119 E161.07089
G1 X95.39 Y188.647 E161.10249
G1 X95.39 Y112.381 E166.19747
G1 X95.426 Y111.857 E166.23256
G1 X95.524 Y111.375 E166.26542
G1 X95.685 Y110.909 E166.29836
G1 X95.887 Y110.498 E166.32895
G1 X96.159 Y110.087 E166.36188
G1 X96.506 Y109.692 E166.397
G1 X96.878 Y109.368 E166.42996
G1 X97.259 Y109.114 E166.46055
G1 X97.7 Y108.894 E166.49347
G1 X98.165 Y108.734 E166.52632
G1 X98.681 Y108.631 E166.56147
G1 X99.172 Y108.599 E166.59434
G1 X125.312 Y108.694 E168.34065
G1 X125.312 Y88.249 E169.70649
G1 X119.919 Y88.249 E170.06677
G1 X119.762 Y88.092 E170.0816
G1 X119.762 Y57.84 E172.1026
; printing object SKR_e3 mini v3)1 id:0 copy 0
G1 E170.7026 F2400
G92 E0
G1 Z.8 F7800
G1 X128.325 Y59.382
G1 Z.3
G1 E1.4 F2400
;TYPE:Perimeter
;WIDTH:0.899923
G1 F1800
G1 X127.877 Y59.558 E1.45016
;WIDTH:0.863596
G1 X127.393 Y59.989 E1.51476
;WIDTH:0.856768
G1 X127.187 Y60.393 E1.55958
G1 X127.132 Y60.655 E1.58604
G1 X126.886 Y60.182 E1.63873
G1 X126.54 Y59.726 E1.6953
G1 X126.148 Y59.361 E1.74824
G1 X127.072 Y59.361 E1.83956
;WIDTH:0.899923
G1 X128.235 Y59.381 E1.96078
G1 E.56078 F2400
G92 E0
G1 Z.8 F7800
G1 X121.405 Y60.287
G1 Z.3
G1 E1.4 F2400
;WIDTH:0.60864
G1 F1800
G1 X121.405 Y59.237 E1.47128
G1 X122.455 Y59.237 E1.54256
G1 X122.161 Y59.438 E1.56674
G1 X121.757 Y59.813 E1.60416
G1 X121.459 Y60.214 E1.63807
G1 E.23807 F2400
G92 E0
G1 Z.8 F7800
G1 X121.401 Y63.569
G1 Z.3
G1 E1.4 F2400
;WIDTH:0.6
G1 F1800
G1 X121.61 Y63.877 E1.42487
G1 X121.985 Y64.28 E1.46165
G1 X122.425 Y64.613 E1.49851
G1 X122.915 Y64.864 E1.53529
G1 X123.441 Y65.026 E1.57206
G1 X123.988 Y65.094 E1.60888
G1 X124.538 Y65.066 E1.64567
G1 X125.075 Y64.944 E1.68246
G1 X125.583 Y64.729 E1.71931
G1 X126.045 Y64.43 E1.75607
G1 X126.449 Y64.055 E1.79289
G1 X126.781 Y63.616 E1.82966
G1 X127.032 Y63.126 E1.86644
;WIDTH:0.623563
G1 X127.232 Y62.486 E1.91321
G1 X127.234 Y62.606 E1.92158
;WIDTH:0.61884
G1 X127.243 Y63.173 E1.9608
;WIDTH:0.6
G1 X127.243 Y82.483 E3.25081
;WIDTH:0.608395
G1 X127.239 Y83.472 E3.31792
G1 X127.161 Y83.13 E3.34172
;WIDTH:0.603384
G1 X126.943 Y82.536 E3.38426
;WIDTH:0.6
G1 X126.781 Y82.226 E3.40763
G1 X126.449 Y81.787 E3.4444
G1 X126.045 Y81.412 E3.48122
G1 X125.583 Y81.113 E3.51798
G1 X125.075 Y80.898 E3.55483
G1 X124.421 Y80.77 E3.59935
G1 X123.788 Y80.77 E3.64164
G1 X123.134 Y80.898 E3.68616
