; generated by PrusaSlicer 2.6.1+win64 on 2023-10-14 at 13:14:43 UTC


;
;

;
;
; 

; external perimeters extrusion width = 0.60mm
; perimeters extrusion width = 0.60mm
; infill extrusion width = 0.65mm
; solid infill extrusion width = 0.60mm
; top infill extrusion width = 0.65mm
; support material extrusion width = 0.65mm
; first layer extrusion width = 0.60mm

M73 P0 R53
;TYPE:Custom
M104 S216 ; set extruder temp
M140 S60 ; set bed temp
M190 S60 ; wait for bed temp
M109 S216 ; wait for extruder temp

G28 ; home all
BED_MESH_PROFILE LOAD=default;

G1 Z2.0 F3000 ; Move Z Axis up little to prevent scratching of Heat Bed
G1 X0.1 Y5 Z0.28 F5000.0 ; Move to start position


G92 E0 ; Reset Extruder
G1 Z2.0 F3000 ; Move Z Axis up little to prevent scratching of Heat Bed
G1 X0.1 Y10 Z0.28 F5000.0 ; Move to start position

G1 X0.1 Y200 Z0.28 F1500.0 E15 ; Draw the first line
G1 X0.4 Y200 Z0.28 F5000.0 ; Move to side a little
G1 X0.4 Y10 Z0.28 F1500.0 E30 ; Draw the second line


G92 E0 ; Reset Extruder
G1 Z0.5 F3000 ; Move Z Axis up little to prevent scratching of Heat Bed
M117 Godmode is enabled
G21 ; set units to millimeters
G90 ; use absolute coordinates
M82 ; use absolute distances for extrusion
G92 E0
; Filament gcode
M107
;LAYER_CHANGE
;Z:0.3
;HEIGHT:0.3
G1 Z.3 F7800
G1 E-1.4 F2400
G92 E0
G1 Z.8 F7800
G1 X133.108 Y52.333
G1 Z.3
G1 E1.4 F2400
;TYPE:Skirt/Brim
;WIDTH:0.6
G1 F1800
G1 X133.462 Y51.573 E1.45601
G1 X133.904 Y50.864 E1.51183
G1 X134.427 Y50.214 E1.56756
G1 X135.022 Y49.634 E1.62307
G1 X135.626 Y49.169 E1.67399
G1 X136.251 Y48.786 E1.72296
G1 X137.004 Y48.435 E1.77846
G1 X137.798 Y48.176 E1.83425
G1 X138.619 Y48.014 E1.89015
G1 X139.525 Y47.951 E1.95082
G1 X160.665 Y47.951 E3.36309
G1 X161.456 Y48 E3.41603
M73 P0 R52
G1 X162.214 Y48.132 E3.46743
G1 X163.179 Y48.432 E3.53494
G1 X163.848 Y48.738 E3.58409
G1 X164.504 Y49.128 E3.63507
G1 X165.297 Y49.749 E3.70236
G1 X165.814 Y50.272 E3.75149
G1 X166.29 Y50.87 E3.80255
G1 X166.811 Y51.732 E3.86984
G1 X167.109 Y52.404 E3.91895
G1 X167.342 Y53.133 E3.97008
G1 X167.519 Y54.088 E4.03497
G1 X167.565 Y54.854 E4.08624
G1 X167.565 Y109.921 E7.76501
G1 X167.59 Y110.397 E7.79685
G1 X167.656 Y110.819 E7.82538
G1 X167.767 Y111.231 E7.85389
G1 X167.92 Y111.629 E7.88238
G1 X168.114 Y112.01 E7.91094
G1 X168.346 Y112.367 E7.93938
G1 X168.615 Y112.699 E7.96793
G1 X168.916 Y113.001 E7.99641
G1 X169.248 Y113.269 E8.02491
G1 X169.606 Y113.502 E8.05345
G1 X169.986 Y113.696 E8.08195
G1 X170.385 Y113.849 E8.1105
G1 X170.797 Y113.959 E8.13899
G1 X171.218 Y114.026 E8.16747
G1 X171.695 Y114.051 E8.19938
G1 X175.042 Y114.051 E8.42298
G1 X175.178 Y114.034 E8.43214
G1 X201.001 Y114.192 E10.15729
G1 X201.517 Y114.358 E10.1935
G1 X201.869 Y114.391 E10.21712
G1 X202.428 Y114.504 E10.25522
G1 X203.13 Y114.732 E10.30453
G1 X203.838 Y115.072 E10.357
G1 X204.499 Y115.509 E10.40994
G1 X205.124 Y116.064 E10.46578
G1 X205.638 Y116.671 E10.51892
G1 X206.04 Y117.3 E10.56879
G1 X206.327 Y117.904 E10.61346
G1 X206.535 Y118.508 E10.65614
G1 X206.696 Y119.273 E10.70837
G1 X206.753 Y120.062 E10.76122
G1 X206.753 Y196.185 E15.84665
G1 X206.704 Y196.909 E15.89513
G1 X206.576 Y197.594 E15.94168
G1 X206.282 Y198.469 E16.00335
G1 X205.953 Y199.124 E16.05232
G1 X205.546 Y199.733 E16.10125
G1 X205.068 Y200.286 E16.15008
G1 X204.528 Y200.772 E16.19861
G1 X203.898 Y201.208 E16.24979
G1 X203.211 Y201.562 E16.30142
G1 X202.367 Y201.854 E16.36108
G1 X201.643 Y201.997 E16.41038
G1 X200.884 Y202.049 E16.4612
G1 X193.081 Y202.041 E16.98248
G1 X192.424 Y201.912 E17.02721
G1 X175.53 Y195.038 E18.24567
G1 X129.638 Y194.987 E21.31151
G1 X124.673 Y195.076 E21.64325
G1 X107.957 Y201.882 E22.84898
G1 X107.521 Y201.945 E22.87841
G1 X98.955 Y201.934 E23.45067
G1 X98.281 Y201.887 E23.49581
G1 X97.612 Y201.76 E23.5413
G1 X96.783 Y201.484 E23.59967
G1 X96.07 Y201.124 E23.65303
G1 X95.418 Y200.674 E23.70595
G1 X94.865 Y200.17 E23.75593
G1 X94.427 Y199.659 E23.80089
G1 X94.067 Y199.128 E23.84375
G1 X93.711 Y198.428 E23.89621
G1 X93.46 Y197.714 E23.94677
G1 X93.306 Y196.975 E23.9972
G1 X93.249 Y196.221 E24.04772
G1 X93.247 Y119.843 E29.15018
G1 X93.317 Y118.97 E29.20869
M73 P1 R52
G1 X93.46 Y118.302 E29.25433
G1 X93.69 Y117.625 E29.3021
G1 X94.039 Y116.913 E29.35507
G1 X94.484 Y116.25 E29.40841
G1 X95.015 Y115.653 E29.46179
G1 X95.621 Y115.133 E29.51514
G1 X96.292 Y114.699 E29.56853
G1 X97.026 Y114.355 E29.62268
G1 X98.155 Y114.059 E29.70065
G1 X128.494 Y114.051 E31.72746
G1 X128.971 Y114.026 E31.75937
G1 X129.392 Y113.959 E31.78785
G1 X129.804 Y113.849 E31.81634
G1 X130.203 Y113.696 E31.84489
G1 X130.583 Y113.502 E31.87339
G1 X130.941 Y113.269 E31.90193
G1 X131.273 Y113.001 E31.93043
G1 X131.574 Y112.699 E31.95891
G1 X131.843 Y112.367 E31.98746
G1 X132.055 Y112.04 E32.01349
G1 X132.272 Y111.622 E32.04495
G1 X132.422 Y111.231 E32.07293
G1 X132.532 Y110.819 E32.10142
G1 X132.599 Y110.397 E32.12996
G1 X132.624 Y109.921 E32.1618
G1 X132.624 Y54.854 E35.84057
G1 X132.673 Y54.059 E35.89378
G1 X132.806 Y53.302 E35.94513
G1 X133.081 Y52.419 E36.00691
G1 X133.59 Y52.577 F7800
G1 F1800
G1 X133.926 Y51.841 E36.06096
G1 X134.332 Y51.186 E36.11244
G1 X134.814 Y50.585 E36.16391
G1 X135.363 Y50.048 E36.21521
G1 X135.918 Y49.618 E36.26211
G1 X136.517 Y49.251 E36.30904
G1 X137.214 Y48.928 E36.36036
G1 X137.948 Y48.691 E36.41189
G1 X138.704 Y48.543 E36.46335
G1 X139.534 Y48.486 E36.51893
G1 X160.657 Y48.487 E37.93006
G1 X161.379 Y48.53 E37.97838
G1 X162.104 Y48.657 E38.02755
G1 X162.971 Y48.927 E38.08821
G1 X163.611 Y49.219 E38.13521
G1 X164.215 Y49.58 E38.18222
G1 X164.928 Y50.138 E38.24271
G1 X165.423 Y50.638 E38.28971
G1 X165.859 Y51.19 E38.3367
G1 X166.328 Y51.965 E38.39722
G1 X166.613 Y52.608 E38.44421
G1 X166.826 Y53.278 E38.49118
G1 X166.989 Y54.167 E38.55156
G1 X167.029 Y54.862 E38.59807
G1 X167.029 Y109.935 E42.27724
G1 X167.056 Y110.453 E42.31189
G1 X167.132 Y110.93 E42.34416
G1 X167.257 Y111.397 E42.37646
G1 X167.43 Y111.847 E42.40867
G1 X167.649 Y112.278 E42.44097
G1 X167.912 Y112.683 E42.47323
G1 X168.216 Y113.058 E42.50548
G1 X168.557 Y113.399 E42.5377
G1 X168.933 Y113.703 E42.57
G1 X169.338 Y113.966 E42.60226
G1 X169.768 Y114.186 E42.63453
G1 X170.219 Y114.359 E42.6668
G1 X170.685 Y114.484 E42.69903
G1 X171.162 Y114.559 E42.73129
G1 X171.681 Y114.586 E42.76601
G1 X175.084 Y114.586 E42.99335
G1 X175.199 Y114.569 E43.00112
G1 X200.876 Y114.715 E44.71651
G1 X201.41 Y114.887 E44.75399
G1 X201.778 Y114.919 E44.77867
G1 X202.306 Y115.026 E44.81466
G1 X202.945 Y115.236 E44.85959
G1 X203.589 Y115.546 E44.90734
G1 X204.159 Y115.923 E44.95299
G1 X204.73 Y116.427 E45.00387
G1 X205.198 Y116.976 E45.05206
G1 X205.564 Y117.547 E45.09737
G1 X205.826 Y118.093 E45.13783
G1 X206.023 Y118.665 E45.17825
G1 X206.167 Y119.364 E45.22593
G1 X206.217 Y120.071 E45.27328
G1 X206.217 Y196.177 E50.35757
G1 X206.175 Y196.826 E50.40102
G1 X206.053 Y197.477 E50.44527
G1 X205.794 Y198.247 E50.49954
G1 X205.498 Y198.841 E50.54388
G1 X205.111 Y199.421 E50.59046
G1 X204.675 Y199.921 E50.63478
G1 X204.183 Y200.361 E50.67887
G1 X203.609 Y200.757 E50.72546
G1 X202.985 Y201.076 E50.77228
G1 X202.212 Y201.341 E50.82687
G1 X201.558 Y201.468 E50.87138
G1 X200.876 Y201.514 E50.91704
G1 X193.107 Y201.505 E51.43605
G1 X192.602 Y201.406 E51.47043
G1 X175.635 Y194.503 E52.69414
G1 X129.633 Y194.451 E55.76732
G1 X124.563 Y194.542 E56.10608
G1 X107.845 Y201.357 E57.31216
G1 X107.501 Y201.409 E57.3354
G1 X98.983 Y201.399 E57.90445
G1 X98.334 Y201.353 E57.94792
G1 X97.731 Y201.238 E57.98893
G1 X96.973 Y200.982 E58.04238
G1 X96.358 Y200.672 E58.08839
G1 X95.764 Y200.264 E58.13653
G1 X95.259 Y199.807 E58.18203
G1 X94.862 Y199.346 E58.22267
G1 X94.52 Y198.842 E58.26336
G1 X94.197 Y198.203 E58.31119
G1 X93.972 Y197.556 E58.35695
G1 X93.834 Y196.885 E58.40271
G1 X93.784 Y196.192 E58.44913
G1 X93.783 Y119.854 E63.54892
G1 X93.845 Y119.064 E63.60186
G1 X93.98 Y118.429 E63.64523
G1 X94.191 Y117.816 E63.68854
G1 X94.511 Y117.168 E63.73682
G1 X94.918 Y116.566 E63.78537
G1 X95.402 Y116.024 E63.83391
G1 X95.954 Y115.552 E63.88243
G1 X96.565 Y115.16 E63.93093
G1 X97.229 Y114.851 E63.97986
G1 X98.256 Y114.586 E64.05072
G1 X128.508 Y114.586 E66.07172
G1 X129.027 Y114.559 E66.10644
G1 X129.504 Y114.484 E66.1387
G1 X129.97 Y114.359 E66.17093
G1 X130.421 Y114.186 E66.2032
G1 X130.851 Y113.966 E66.23547
G1 X131.256 Y113.703 E66.26773
G1 X131.631 Y113.399 E66.29998
G1 X131.973 Y113.058 E66.33224
G1 X132.277 Y112.683 E66.36449
G1 X132.519 Y112.31 E66.39419
G1 X132.761 Y111.842 E66.42939
G1 X132.932 Y111.397 E66.46124
G1 X133.057 Y110.93 E66.49354
G1 X133.133 Y110.453 E66.52581
G1 X133.16 Y109.935 E66.56046
G1 X133.16 Y54.862 E70.23963
G1 X133.203 Y54.137 E70.28815
G1 X133.33 Y53.411 E70.33739
G1 X133.563 Y52.663 E70.38973
G1 X134.073 Y52.822 F7800
G1 F1800
G1 X134.391 Y52.108 E70.44195
G1 X134.761 Y51.507 E70.4891
G1 X135.201 Y50.955 E70.53626
G1 X135.704 Y50.461 E70.58336
G1 X136.234 Y50.051 E70.62812
G1 X136.782 Y49.717 E70.67099
G1 X137.423 Y49.422 E70.71813
G1 X138.095 Y49.206 E70.76529
G1 X138.789 Y49.072 E70.81251
G1 X139.543 Y49.022 E70.86299
G1 X160.649 Y49.022 E72.27299
G1 X161.331 Y49.064 E72.31864
G1 X161.994 Y49.181 E72.36362
G1 X162.765 Y49.421 E72.41756
G1 X163.35 Y49.687 E72.46049
G1 X163.926 Y50.031 E72.50531
G1 X164.56 Y50.528 E72.55913
G1 X165.012 Y50.983 E72.60198
G1 X165.429 Y51.509 E72.64682
G1 X165.846 Y52.198 E72.70062
G1 X166.107 Y52.785 E72.74354
G1 X166.31 Y53.424 E72.78833
G1 X166.455 Y54.215 E72.84205
G1 X166.494 Y54.87 E72.88589
G1 X166.494 Y109.949 E76.56547
G1 X166.523 Y110.509 E76.60293
G1 X166.607 Y111.042 E76.63898
G1 X166.747 Y111.562 E76.67496
G1 X166.94 Y112.066 E76.71101
G1 X167.185 Y112.546 E76.74701
G1 X167.478 Y112.998 E76.783
G1 X167.817 Y113.417 E76.81901
G1 X168.199 Y113.798 E76.85505
G1 X168.617 Y114.137 E76.891
G1 X169.07 Y114.431 E76.92708
G1 X169.55 Y114.676 E76.96308
G1 X170.053 Y114.869 E76.99907
G1 X170.574 Y115.008 E77.03509
G1 X171.106 Y115.093 E77.07108
G1 X171.667 Y115.122 E77.10861
G1 X175.142 Y115.122 E77.34076
G1 X175.229 Y115.105 E77.34668
G1 X200.763 Y115.239 E79.05251
G1 X201.098 Y115.338 E79.07585
G1 X201.258 Y115.411 E79.0876
G1 X201.688 Y115.447 E79.11643
G1 X202.184 Y115.548 E79.15025
G1 X202.76 Y115.739 E79.19079
G1 X203.31 Y116.004 E79.23158
G1 X203.821 Y116.339 E79.2724
G1 X204.336 Y116.79 E79.31813
G1 X204.758 Y117.283 E79.36148
G1 X205.089 Y117.794 E79.40215
G1 X205.336 Y118.31 E79.44037
G1 X205.511 Y118.822 E79.47652
G1 X205.635 Y119.42 E79.51732
G1 X205.681 Y120.081 E79.56159
G1 X205.681 Y196.168 E84.64461
G1 X205.641 Y196.774 E84.68518
G1 X205.53 Y197.357 E84.72483
G1 X205.293 Y198.057 E84.7742
G1 X205.028 Y198.585 E84.81367
G1 X204.676 Y199.107 E84.85573
G1 X204.284 Y199.555 E84.8955
G1 X203.841 Y199.95 E84.93515
G1 X203.322 Y200.304 E84.97712
G1 X202.761 Y200.589 E85.01916
G1 X202.058 Y200.827 E85.06874
G1 X201.475 Y200.938 E85.10839
G1 X200.868 Y200.978 E85.14903
G1 X193.133 Y200.969 E85.66577
G1 X192.78 Y200.9 E85.6898
G1 X175.74 Y193.967 E86.91878
G1 X129.629 Y193.915 E89.99925
G1 X124.453 Y194.008 E90.34509
G1 X107.73 Y200.834 E91.55176
G1 X107.479 Y200.873 E91.56873
M73 P2 R52
G1 X99.01 Y200.864 E92.13451
G1 X98.419 Y200.824 E92.17408
G1 X97.85 Y200.715 E92.21278
G1 X97.195 Y200.495 E92.25894
G1 X96.644 Y200.219 E92.30011
G1 X96.108 Y199.854 E92.34343
G1 X95.653 Y199.444 E92.38435
G1 X95.296 Y199.032 E92.42077
G1 X94.974 Y198.556 E92.45916
G1 X94.684 Y197.98 E92.50224
G1 X94.485 Y197.399 E92.54327
G1 X94.363 Y196.796 E92.58437
G1 X94.319 Y196.164 E92.62669
G1 X94.319 Y119.863 E97.72401
G1 X94.372 Y119.158 E97.77124
G1 X94.5 Y118.558 E97.81223
G1 X94.691 Y118.008 E97.85113
G1 X94.982 Y117.423 E97.89478
G1 X95.35 Y116.882 E97.93849
G1 X95.787 Y116.396 E97.98215
G1 X96.286 Y115.973 E98.02585
G1 X96.837 Y115.622 E98.06949
G1 X97.432 Y115.347 E98.11328
G1 X98.291 Y115.122 E98.1726
G1 X128.522 Y115.122 E100.19219
G1 X129.083 Y115.093 E100.22972
G1 X129.615 Y115.008 E100.26571
G1 X130.136 Y114.869 E100.30173
G1 X130.639 Y114.676 E100.33772
G1 X131.119 Y114.431 E100.37372
G1 X131.571 Y114.137 E100.40974
G1 X131.99 Y113.798 E100.44575
G1 X132.371 Y113.417 E100.48175
G1 X132.711 Y112.998 E100.5178
G1 X132.982 Y112.58 E100.55108
G1 X133.251 Y112.062 E100.59007
G1 X133.442 Y111.562 E100.62583
G1 X133.582 Y111.042 E100.66181
G1 X133.666 Y110.509 E100.69786
G1 X133.695 Y109.949 E100.73532
G1 X133.695 Y54.87 E104.4149
G1 X133.737 Y54.185 E104.46075
G1 X133.855 Y53.522 E104.50574
G1 X134.046 Y52.908 E104.5487
G1 X134.555 Y53.067 F7800
G1 F1800
G1 X134.856 Y52.374 E104.59917
G1 X135.191 Y51.827 E104.64202
G1 X135.59 Y51.324 E104.68491
G1 X136.046 Y50.874 E104.72771
G1 X136.526 Y50.5 E104.76836
G1 X137.047 Y50.183 E104.8091
G1 X137.63 Y49.916 E104.85194
G1 X138.242 Y49.721 E104.89485
G1 X138.872 Y49.602 E104.93768
G1 X139.551 Y49.558 E104.98314
G1 X160.641 Y49.558 E106.39207
G1 X161.253 Y49.594 E106.43303
G1 X161.884 Y49.706 E106.47584
G1 X162.559 Y49.916 E106.52307
G1 X163.114 Y50.168 E106.56379
G1 X163.636 Y50.481 E106.60445
G1 X164.192 Y50.917 E106.65165
G1 X164.621 Y51.349 E106.69232
G1 X164.998 Y51.827 E106.73299
G1 X165.363 Y52.432 E106.78019
G1 X165.612 Y52.988 E106.82089
G1 X165.794 Y53.569 E106.86156
G1 X165.922 Y54.263 E106.9087
G1 X165.958 Y54.878 E106.94986
G1 X165.958 Y109.963 E110.62984
G1 X165.989 Y110.565 E110.67011
G1 X166.083 Y111.153 E110.70989
G1 X166.237 Y111.728 E110.74966
G1 X166.45 Y112.284 E110.78944
G1 X166.72 Y112.814 E110.82918
G1 X167.044 Y113.313 E110.86893
G1 X167.419 Y113.776 E110.90873
G1 X167.84 Y114.197 E110.9485
G1 X168.302 Y114.571 E110.98821
G1 X168.801 Y114.895 E111.02796
G1 X169.332 Y115.166 E111.06779
G1 X169.887 Y115.379 E111.1075
G1 X170.462 Y115.533 E111.14727
G1 X171.05 Y115.626 E111.18704
G1 X171.653 Y115.658 E111.22738
G1 X175.266 Y115.658 E111.46875
G1 X175.306 Y115.641 E111.47165
G1 X200.647 Y115.763 E113.16459
G1 X200.921 Y115.845 E113.1837
G1 X201.113 Y115.938 E113.19795
G1 X201.598 Y115.976 E113.23045
G1 X202.061 Y116.069 E113.262
G1 X202.573 Y116.241 E113.29808
G1 X203.059 Y116.477 E113.33417
G1 X203.51 Y116.775 E113.37028
G1 X203.943 Y117.155 E113.40877
G1 X204.32 Y117.591 E113.44728
G1 X204.615 Y118.043 E113.48334
G1 X204.834 Y118.498 E113.51707
G1 X204.998 Y118.978 E113.55096
G1 X205.106 Y119.508 E113.58709
G1 X205.146 Y120.089 E113.626
G1 X205.146 Y196.159 E118.70789
G1 X205.112 Y196.69 E118.74344
G1 X205.007 Y197.239 E118.78078
G1 X204.805 Y197.835 E118.82282
G1 X204.572 Y198.302 E118.85769
G1 X204.262 Y198.768 E118.89508
G1 X203.893 Y199.189 E118.93248
G1 X203.499 Y199.537 E118.9676
G1 X203.036 Y199.851 E119.00497
G1 X202.537 Y200.102 E119.04229
G1 X201.94 Y200.305 E119.08442
G1 X201.391 Y200.409 E119.12175
G1 X200.86 Y200.442 E119.15729
G1 X193.16 Y200.434 E119.67169
G1 X192.957 Y200.394 E119.68551
G1 X175.845 Y193.432 E120.91968
G1 X129.624 Y193.38 E124.0075
G1 X124.344 Y193.475 E124.36029
M73 P2 R51
G1 X107.609 Y200.311 E125.56796
G1 X107.455 Y200.338 E125.5784
G1 X99.018 Y200.328 E126.14204
G1 X98.503 Y200.295 E126.17652
G1 X97.969 Y200.193 E126.21284
G1 X97.387 Y199.994 E126.25393
G1 X96.901 Y199.749 E126.29029
G1 X96.452 Y199.443 E126.32659
G1 X96.046 Y199.079 E126.36302
G1 X95.712 Y198.694 E126.39707
G1 X95.428 Y198.272 E126.43105
G1 X95.184 Y197.787 E126.46732
G1 X95.006 Y197.273 E126.50366
G1 X94.896 Y196.74 E126.54002
G1 X94.854 Y196.155 E126.5792
G1 X94.854 Y119.873 E131.67525
G1 X94.9 Y119.25 E131.71698
G1 X95.012 Y118.717 E131.75336
G1 X95.191 Y118.201 E131.78985
G1 X95.452 Y117.681 E131.82872
G1 X95.781 Y117.201 E131.8676
G1 X96.171 Y116.77 E131.90643
G1 X96.616 Y116.395 E131.94531
G1 X97.108 Y116.085 E131.98416
G1 X97.635 Y115.843 E132.0229
G1 X98.327 Y115.658 E132.07075
G1 X128.536 Y115.658 E134.08887
G1 X129.139 Y115.626 E134.12921
G1 X129.727 Y115.533 E134.16898
G1 X130.302 Y115.379 E134.20875
G1 X130.857 Y115.166 E134.24846
G1 X131.388 Y114.895 E134.28829
G1 X131.887 Y114.571 E134.32804
G1 X132.349 Y114.197 E134.36775
G1 X132.77 Y113.776 E134.40752
G1 X133.145 Y113.313 E134.44732
G1 X133.446 Y112.849 E134.48427
G1 X133.74 Y112.281 E134.527
