; HEADER_BLOCK_START
; generated by OrcaSlicer 1.7.0 on 2023-10-21 at 19:52:34
; total layer number: 67
; HEADER_BLOCK_END

; THUMBNAIL_BLOCK_START
; THUMBNAIL_BLOCK_END

; external perimeters extrusion width = 1.05mm
; perimeters extrusion width = 0.60mm
; infill extrusion width = 0.60mm
; solid infill extrusion width = 0.60mm
; top infill extrusion width = 0.60mm
; first layer extrusion width = 0.62mm

; EXECUTABLE_BLOCK_START
EXCLUDE_OBJECT_DEFINE NAME=SpeedTestStructure.step_id_0_copy_0 CENTER=140,120 POLYGON=[[50.0007,90],[50.0036,89.6687],[50.0066,89.5167],[50.0123,89.3248],[50.023,89.0582],[50.0241,89.0337],[50.0333,88.8587],[50.0474,88.6347],[50.0533,88.5513],[50.0621,88.4358],[50.08,88.2227],[50.0941,88.0697],[50.1124,87.8911],[50.1227,87.7953],[50.1351,87.6861],[50.1466,87.5893],[50.152,87.5448],[50.1593,87.4863],[50.1732,87.3793],[50.1804,87.3251],[50.1929,87.2342],[50.1944,87.2238],[50.2036,87.1586],[50.2085,87.1251],[50.2106,87.1102],[50.2124,87.0978],[50.2143,87.0852],[50.2172,87.0654],[50.2177,87.0621],[50.2179,87.061],[50.2315,86.9753],[50.2677,86.749],[50.2862,86.6329],[50.2962,86.5785],[50.3733,86.1575],[50.4719,85.6843],[50.5819,85.2137],[50.7032,84.7458],[50.7184,84.6927],[50.8358,84.2811],[50.9796,83.8197],[50.9973,83.7673],[51.1345,83.3618],[51.1535,83.31],[51.3004,82.9079],[51.4773,82.4581],[51.6649,82.0127],[51.8633,81.572],[51.8871,81.5222],[52.0722,81.1362],[52.2916,80.7055],[52.5214,80.2803],[52.5488,80.2324],[52.7614,79.8608],[52.7899,79.8135],[53.0114,79.4472],[53.0411,79.4006],[53.2713,79.0397],[53.3022,78.9939],[53.5411,78.6387],[53.8204,78.2443],[53.8534,78.2],[54.1092,77.8568],[54.4073,77.4763],[54.4424,77.4337],[54.7144,77.1032],[54.7506,77.0614],[55.0305,76.7375],[55.0677,76.6966],[55.3554,76.3797],[55.3935,76.3397],[55.6888,76.0298],[55.7278,75.9907],[56.0305,75.688],[56.3804,75.3546],[56.7383,75.0298],[56.7801,74.9937],[57.1039,74.7137],[57.1465,74.6786],[57.477,74.4065],[57.5205,74.3725],[57.8575,74.1084],[57.9018,74.0754],[58.245,73.8197],[58.2901,73.7877],[58.6395,73.5403],[58.6853,73.5095],[59.0405,73.2706],[59.0871,73.2409],[59.4479,73.0106],[59.8615,72.7606],[60.2811,72.5206],[60.3297,72.4944],[60.7063,72.2909],[61.1369,72.0715],[61.5727,71.8625],[62.0135,71.6642],[62.4588,71.4765],[62.5103,71.4563],[62.9086,71.2997],[63.3626,71.1338],[63.8204,70.9789],[64.2818,70.8351],[64.7466,70.7025],[64.8001,70.6886],[65.2144,70.5812],[65.6851,70.4712],[65.7391,70.4599],[66.1582,70.3726],[66.6336,70.2855],[67.111,70.2099],[67.1657,70.2026],[67.59,70.1458],[67.6449,70.1398],[68.0705,70.0934],[68.1255,70.0887],[68.552,70.0525],[69.0345,70.0234],[69.0897,70.0214],[69.5175,70.0058],[69.5727,70.0052],[70.0007,70],[220.001,70],[220.346,70.006],[220.691,70.0238],[221.035,70.0536],[221.074,70.0583],[221.377,70.0952],[221.416,70.1013],[221.718,70.1486],[222.057,70.2138],[222.096,70.2225],[222.394,70.2906],[222.728,70.379],[223.058,70.4788],[223.385,70.59],[223.708,70.7124],[223.744,70.7277],[224.026,70.8459],[224.34,70.9903],[224.648,71.1454],[224.951,71.3111],[225.248,71.4872],[225.538,71.6733],[225.571,71.6957],[225.823,71.8694],[226.1,72.0752],[226.131,72.0998],[226.37,72.2905],[226.632,72.5149],[226.886,72.7482],[226.915,72.7759],[227.133,72.9902],[227.16,73.0188],[227.37,73.2406],[227.599,73.499],[227.624,73.5294],[227.819,73.7651],[227.843,73.7964],[228.03,74.0387],[228.053,74.0708],[228.231,74.3194],[228.252,74.3522],[228.422,74.6068],[228.603,74.9007],[228.622,74.935],[228.774,75.2006],[228.792,75.2356],[228.934,75.5063],[229.084,75.8173],[229.1,75.8534],[229.223,76.1333],[229.238,76.17],[229.351,76.4539],[229.468,76.7788],[229.573,77.1075],[229.667,77.4396],[229.75,77.7748],[229.758,77.8134],[229.821,78.1126],[229.828,78.1515],[229.88,78.4527],[229.886,78.4918],[229.928,78.7946],[229.964,79.138],[229.987,79.4824],[229.989,79.5218],[229.999,79.8274],[229.999,160.173],[229.998,160.212],[229.987,160.518],[229.964,160.862],[229.928,161.205],[229.922,161.244],[229.88,161.547],[229.874,161.586],[229.821,161.887],[229.813,161.926],[229.75,162.225],[229.741,162.264],[229.667,162.56],[229.573,162.893],[229.468,163.221],[229.351,163.546],[229.223,163.867],[229.084,164.183],[228.934,164.494],[228.774,164.799],[228.754,164.834],[228.603,165.099],[228.422,165.393],[228.252,165.648],[228.231,165.681],[228.053,165.929],[228.03,165.961],[227.843,166.204],[227.819,166.235],[227.794,166.265],[227.599,166.501],[227.37,166.759],[227.343,166.788],[227.133,167.01],[226.886,167.252],[226.661,167.458],[226.632,167.485],[226.37,167.71],[226.131,167.9],[226.1,167.925],[225.854,168.107],[225.823,168.131],[225.571,168.304],[225.538,168.327],[225.248,168.513],[224.951,168.689],[224.648,168.855],[224.375,168.992],[224.34,169.01],[224.026,169.154],[223.744,169.272],[223.708,169.288],[223.385,169.41],[223.095,169.508],[223.058,169.521],[222.728,169.621],[222.394,169.709],[222.057,169.786],[221.718,169.851],[221.377,169.905],[221.035,169.946],[220.691,169.976],[220.346,169.994],[220.001,170],[70.0007,170],[69.5175,169.994],[69.0345,169.977],[68.552,169.947],[68.0705,169.907],[68.0156,169.901],[67.59,169.854],[67.111,169.79],[67.0564,169.781],[66.6336,169.715],[66.1582,169.627],[66.1041,169.616],[65.6851,169.529],[65.6313,169.516],[65.2144,169.419],[65.161,169.405],[64.7466,169.298],[64.6935,169.282],[64.2818,169.165],[63.8204,169.021],[63.3626,168.866],[62.9086,168.7],[62.4588,168.523],[62.4079,168.502],[62.0135,168.336],[61.5727,168.137],[61.5229,168.114],[61.1369,167.929],[60.7063,167.709],[60.2811,167.479],[60.2331,167.452],[59.8615,167.239],[59.4479,166.989],[59.4014,166.96],[59.0405,166.729],[58.9947,166.699],[58.6395,166.46],[58.5944,166.428],[58.245,166.18],[57.8575,165.892],[57.814,165.857],[57.477,165.593],[57.4344,165.558],[57.1039,165.286],[57.0621,165.25],[56.7383,164.97],[56.6974,164.933],[56.3804,164.645],[56.3404,164.607],[56.0305,164.312],[55.6888,163.97],[55.3554,163.62],[55.3182,163.579],[55.0305,163.262],[54.7144,162.897],[54.4073,162.524],[54.1092,162.143],[53.8204,161.756],[53.5411,161.361],[53.2713,160.96],[53.2416,160.914],[53.0114,160.553],[52.7614,160.139],[52.7339,160.091],[52.5214,159.72],[52.4951,159.671],[52.2916,159.294],[52.2665,159.245],[52.0722,158.864],[52.0483,158.814],[51.8633,158.428],[51.8406,158.378],[51.6649,157.987],[51.4772,157.542],[51.3004,157.092],[51.1345,156.638],[50.9796,156.18],[50.9632,156.128],[50.8358,155.719],[50.7032,155.254],[50.5819,154.786],[50.4719,154.316],[50.3733,153.843],[50.2862,153.367],[50.2677,153.251],[50.2315,153.025],[50.2179,152.939],[50.2179,152.939],[50.2177,152.938],[50.217,152.933],[50.2165,152.93],[50.2153,152.922],[50.2137,152.911],[50.2106,152.89],[50.2092,152.88],[50.2083,152.874],[50.2021,152.831],[50.1998,152.815],[50.1901,152.745],[50.1858,152.715],[50.1741,152.627],[50.1652,152.559],[50.1593,152.514],[50.1466,152.411],[50.1437,152.387],[50.1348,152.311],[50.1135,152.119],[50.1044,152.033],[50.0941,151.93],[50.0812,151.79],[50.074,151.709],[50.0533,151.449],[50.0485,151.381],[50.0441,151.315],[50.0241,150.966],[50.0207,150.892],[50.0066,150.483],[50.0051,150.413],[50.0018,150.204],[50.0007,150],[50.0007,90]]
M73 P0 R38
;TYPE:Custom
M104 S230 ; set extruder temp
M140 S60 ; set bed temp
M190 S60 ; wait for bed temp
M109 S230 ; wait for extruder temp

G28 ; home all
BED_MESH_PROFILE LOAD=default;

G1 Z2.0 F3000 ; Move Z Axis up little to prevent scratching of Heat Bed
G1 X0.1 Y5 Z0.28 F5000.0 ; Move to start position


G92 E0 ; Reset Extruder
G1 Z2.0 F3000 ; Move Z Axis up little to prevent scratching of Heat Bed
G1 X0.1 Y10 Z0.28 F5000.0 ; Move to start position

G1 X0.1 Y200 Z0.28 F1500.0 E15 ; Draw the first line
G1 X0.4 Y200 Z0.28 F5000.0 ; Move to side a little
G1 X0.4 Y10 Z0.28 F1500.0 E30 ; Draw the second line


G92 E0 ; Reset Extruder
G1 Z0.5 F3000 ; Move Z Axis up little to prevent scratching of Heat Bed
M117 Godmode is enabled
G90
G21
M83 ; use relative distances for extrusion
; filament start gcode
M106 S0
;LAYER_CHANGE
;Z:0.48
;HEIGHT:0.48
;BEFORE_LAYER_CHANGE
;0.48
G92 E0

G1 Z.48 F9000
;_SET_FAN_SPEED_CHANGING_LAYER
M73 P0 R37
G1 E-1.15 F3600
G1 X54.601 Y68.927 F9000
G1 E1.15 F2400
;TYPE:Skirt
;WIDTH:0.62
G1 F1200
G1 X57.253 Y67.224 E.32518
G1 X60.091 Y65.854 E.32519
G1 X63.075 Y64.835 E.32532
G1 X66.158 Y64.184 E.32504
G1 X67.939 Y63.982 E.1849
G1 X69.492 Y63.904 E.16051
G1 X220.08 Y63.899 E15.53625
G1 X221.491 Y63.969 E.14582
M73 P1 R37
G1 X222.938 Y64.17 E.15072
G1 X224.424 Y64.518 E.15745
G1 X225.806 Y64.983 E.15043
G1 X227.144 Y65.571 E.15074
G1 X228.478 Y66.311 E.15746
G1 X229.681 Y67.135 E.15043
G1 X230.808 Y68.066 E.15082
G1 X231.787 Y69.03 E.14175
G1 X232.697 Y70.099 E.1448
G1 X233.578 Y71.345 E.15744
G1 X234.429 Y72.857 E.17898
G1 X235.183 Y74.642 E.19991
G1 X235.56 Y75.856 E.13119
G1 X235.83 Y77.063 E.12762
G1 X236.069 Y78.991 E.20038
G1 X236.069 Y161.008 E8.46183
G1 X235.892 Y162.582 E.16339
G1 X235.379 Y164.769 E.23184
G1 X234.816 Y166.302 E.16844
G1 X233.754 Y168.37 E.23986
G1 X232.645 Y169.966 E.20054
G1 X231.419 Y171.351 E.1908
G1 X229.902 Y172.695 E.20913
G1 X228.05 Y173.943 E.23042
G1 X226.131 Y174.887 E.22061
G1 X224.211 Y175.54 E.20923
G1 X222.126 Y175.959 E.2194
G1 X220.037 Y176.102 E.21608
G1 X68.569 Y176.06 E15.6271
G1 X66.831 Y175.908 E.17998
G1 X65.116 Y175.64 E.17906
G1 X62.098 Y174.875 E.3212
G1 X60.586 Y174.342 E.16546
G1 X58.979 Y173.66 E.18011
G1 X56.291 Y172.21 E.31511
G1 X54.639 Y171.103 E.20513
G1 X53.264 Y170.029 E.18
G1 X51.005 Y167.898 E.32042
G1 X48.928 Y165.4 E.33516
G1 X47.225 Y162.748 E.3252
G1 X46.529 Y161.413 E.15527
G1 X45.8 Y159.775 E.18499
G1 X44.863 Y157.022 E.30007
G1 X44.203 Y153.96 E.32311
G1 X43.924 Y151.132 E.29317
G1 X43.899 Y90 E6.3071
G1 X44.029 Y87.413 E.26724
G1 X44.531 Y84.297 E.32561
G1 X45.404 Y81.269 E.32518
G1 X46.636 Y78.367 E.32518
G1 X48.208 Y75.636 E.32519
G1 X50.036 Y73.187 E.31526
G1 X52.173 Y70.937 E.32015
G1 X54.554 Y68.965 E.319
G1 X54.884 Y69.363 F9000
M73 P2 R37
G1 F1200
G1 X54.914 Y69.338 E.00413
G1 X57.515 Y67.67 E.31874
G1 X60.298 Y66.328 E.31875
G1 X63.223 Y65.33 E.31887
G1 X66.245 Y64.693 E.3186
G1 X67.995 Y64.496 E.18168
G1 X69.492 Y64.421 E.15472
G1 X220.07 Y64.416 E15.53522
G1 X221.455 Y64.485 E.14317
G1 X222.832 Y64.676 E.14336
G1 X224.274 Y65.013 E.15285
G1 X225.631 Y65.469 E.14767
G1 X226.903 Y66.029 E.14338
G1 X228.199 Y66.747 E.15285
G1 X229.38 Y67.555 E.14767
G1 X230.452 Y68.441 E.14346
G1 X231.413 Y69.387 E.13915
G1 X232.282 Y70.407 E.1382
G1 X233.138 Y71.616 E.15283
G1 X233.959 Y73.073 E.17254
G1 X234.7 Y74.825 E.19624
G1 X235.062 Y75.996 E.12643
G1 X235.319 Y77.143 E.12134
G1 X235.554 Y79.035 E.1967
G1 X235.554 Y160.963 E8.45263
G1 X235.384 Y162.486 E.15802
G1 X234.888 Y164.61 E.22508
G1 X234.346 Y166.087 E.16234
G1 X233.319 Y168.09 E.23217
G1 X232.231 Y169.657 E.19686
G1 X231.062 Y170.977 E.18192
G1 X229.572 Y172.297 E.20529
G1 X227.78 Y173.503 E.2229
G1 X225.923 Y174.414 E.21341
G1 X224.089 Y175.037 E.19988
G1 X222.071 Y175.445 E.21236
G1 X220.037 Y175.585 E.21041
G1 X68.612 Y175.545 E15.6226
G1 X66.899 Y175.396 E.1774
G1 X65.203 Y175.13 E.17713
G1 X62.24 Y174.377 E.3154
G1 X60.786 Y173.866 E.15901
G1 X59.202 Y173.194 E.17753
G1 X56.553 Y171.764 E.3106
G1 X54.948 Y170.688 E.19933
M73 P3 R37
G1 X53.588 Y169.626 E.17807
G1 X51.37 Y167.533 E.31462
G1 X49.338 Y165.086 E.32808
G1 X47.67 Y162.486 E.31876
G1 X46.283 Y159.592 E.3311
G1 X45.357 Y156.868 E.29685
G1 X44.712 Y153.867 E.31669
G1 X44.441 Y151.12 E.28475
G1 X44.416 Y90 E6.30584
G1 X44.542 Y87.475 E.26079
G1 X45.033 Y84.421 E.31919
G1 X45.887 Y81.452 E.31874
G1 X47.093 Y78.608 E.31874
G1 X48.634 Y75.929 E.31875
G1 X50.435 Y73.515 E.31075
G1 X52.534 Y71.307 E.31436
G1 X54.837 Y69.401 E.30843
G1 E-.805 F3600
;WIPE_START
G1 F1200
G1 X54.914 Y69.338 E-.03452
G1 X55.672 Y68.852 E-.31048
;WIPE_END
EXCLUDE_OBJECT_START NAME=SpeedTestStructure.step_id_0_copy_0
G1 X57.127 Y72.398 F9000
G1 E1.15 F2400
;TYPE:Brim
G1 F1200
G1 X57.201 Y72.342 E.00951
G1 X58.473 Y71.486 E.15827
G1 X59.422 Y70.928 E.11357
G1 X60.79 Y70.231 E.1584
G1 X61.798 Y69.792 E.11344
G1 X63.239 Y69.265 E.15826
G1 X64.295 Y68.95 E.1137
G1 X65.788 Y68.602 E.15813
G1 X66.873 Y68.416 E.11357
G1 X68.397 Y68.25 E.15816
G1 X69.499 Y68.197 E.11384
G1 X220.442 Y68.199 E15.57294
G1 X221.186 Y68.251 E.07701
M73 P3 R36
G1 X222.064 Y68.373 E.09147
G1 X222.793 Y68.526 E.07687
G1 X223.187 Y68.629 E.04198
G1 X223.643 Y68.767 E.04915
G1 X224.345 Y69.019 E.07698
G1 X225.157 Y69.376 E.09147
G1 X225.818 Y69.723 E.07701
G1 X226.167 Y69.929 E.04183
G1 X226.569 Y70.186 E.04924
G1 X227.175 Y70.62 E.07688
G1 X227.859 Y71.185 E.09156
G1 X228.4 Y71.698 E.07692
G1 X228.678 Y71.99 E.0416
G1 X229.256 Y72.665 E.09167
G1 X229.701 Y73.264 E.077
G1 X229.926 Y73.601 E.04184
G1 X230.176 Y74.007 E.04915
G1 X230.534 Y74.66 E.07684
G1 X230.905 Y75.468 E.0917
G1 X231.167 Y76.158 E.07618
G1 X231.315 Y76.618 E.04986
G1 X231.425 Y77.008 E.04183
G1 X231.591 Y77.736 E.07701
G1 X231.728 Y78.612 E.09147
G1 X231.792 Y79.354 E.07683
G1 X231.809 Y79.832 E.0493
G1 X231.808 Y80.237 E.04183
G1 X231.769 Y80.982 E.07701
G1 X231.662 Y81.864 E.09166
G1 X231.591 Y82.261 E.04161
G1 X231.425 Y82.991 E.07725
G1 X231.295 Y83.448 E.04896
G1 X231.055 Y84.154 E.07697
G1 X230.712 Y84.972 E.09146
G1 X230.377 Y85.637 E.07688
G1 X230.177 Y85.992 E.04198
G1 X229.927 Y86.397 E.04915
G1 X229.504 Y87.01 E.07684
G1 X228.951 Y87.704 E.0916
G1 X228.447 Y88.253 E.07688
G1 X228.159 Y88.538 E.04173
G1 X227.494 Y89.127 E.09166
G1 X226.903 Y89.582 E.07697
G1 X226.512 Y89.852 E.04897
G1 X225.875 Y90.244 E.07724
G1 X225.522 Y90.439 E.0416
G1 X224.721 Y90.824 E.09166
G1 X224.036 Y91.098 E.07618
G1 X223.577 Y91.254 E.04996
G1 X223.189 Y91.371 E.04182
G1 X222.462 Y91.55 E.07723
G1 X221.996 Y91.639 E.04897
G1 X221.255 Y91.742 E.07719
G1 X220.782 Y91.783 E.04897
G1 X219.996 Y91.809 E.08112
G1 X80.019 Y91.809 E14.44167
G1 X79.445 Y91.829 E.05924
M73 P4 R36
G1 X78.606 Y91.93 E.08711
G1 X77.78 Y92.117 E.08739
G1 X76.977 Y92.389 E.08747
G1 X76.207 Y92.742 E.08747
G1 X75.477 Y93.173 E.08747
G1 X74.801 Y93.673 E.08675
G1 X74.352 Y94.07 E.06182
G1 X73.786 Y94.666 E.08479
G1 X73.268 Y95.337 E.08739
G1 X72.826 Y96.052 E.08675
G1 X72.453 Y96.821 E.08818
G1 X72.165 Y97.618 E.08748
G1 X71.961 Y98.441 E.08747
G1 X71.843 Y99.281 E.08747
G1 X71.812 Y99.872 E.06109
G1 X71.84 Y100.693 E.08472
G1 X71.912 Y101.28 E.06109
G1 X72.087 Y102.11 E.08747
G1 X72.348 Y102.917 E.08748
G1 X72.678 Y103.668 E.08472
G1 X73.094 Y104.4 E.08683
G1 X73.42 Y104.875 E.05941
G1 X73.956 Y105.526 E.08704
G1 X74.355 Y105.933 E.05879
G1 X74.795 Y106.323 E.06063
G1 X75.477 Y106.827 E.08747
G1 X76.184 Y107.246 E.0848
G1 X76.716 Y107.502 E.061
G1 X77.484 Y107.794 E.08472
G1 X78.054 Y107.955 E.06109
G1 X78.861 Y108.11 E.08479
G1 X79.705 Y108.185 E.0874
G1 X219.998 Y108.191 E14.47425
G1 X220.442 Y108.199 E.04584
G1 X221.182 Y108.25 E.07644
G1 X221.66 Y108.308 E.04968
G1 X222.395 Y108.436 E.077
G1 X223.187 Y108.629 E.08411
G1 X224.032 Y108.9 E.09162
G1 X224.409 Y109.044 E.0416
G1 X225.091 Y109.345 E.07692
G1 X225.817 Y109.722 E.08435
G1 X226.57 Y110.187 E.09128
G1 X227.231 Y110.663 E.08406
G1 X227.859 Y111.185 E.08434
G1 X228.156 Y111.459 E.04164
G1 X228.675 Y111.987 E.07635
G1 X229.211 Y112.61 E.08481
G1 X229.741 Y113.323 E.09173
G1 X229.964 Y113.66 E.04158
G1 X230.34 Y114.295 E.07625
G1 X230.713 Y115.029 E.08486
G1 X231.03 Y115.779 E.08406
G1 X231.315 Y116.618 E.09142
G1 X231.506 Y117.339 E.07688
G1 X231.591 Y117.735 E.04178
G1 X231.719 Y118.541 E.08429
G1 X231.796 Y119.424 E.09139
G1 X231.807 Y120.239 E.08412
G1 X231.769 Y120.985 E.07704
G1 X231.728 Y121.387 E.04164
G1 X231.604 Y122.194 E.08433
G1 X231.425 Y122.99 E.08418
G1 X231.169 Y123.837 E.09128
G1 X230.878 Y124.599 E.08411
G1 X230.565 Y125.277 E.07705
G1 X230.379 Y125.635 E.04161
G1 X229.926 Y126.399 E.09161
G1 X229.46 Y127.07 E.0843
G1 X229.213 Y127.389 E.04165
G1 X228.727 Y127.956 E.07704
G1 X228.157 Y128.54 E.08415
G1 X227.549 Y129.082 E.08407
G1 X226.847 Y129.622 E.09142
G1 X226.225 Y130.035 E.077
G1 X225.879 Y130.242 E.04165
G1 X225.154 Y130.625 E.08453
