;FLAVOR:Marlin
;TIME:2340
;Filament used: 3.87177m
;Layer height: 0.28
;MINX:122.063
;MINY:89.969
;MINZ:0.28
;MAXX:177.932
;MAXY:160.849
;MAXZ:41.44
;Generated with Cura_SteamEngine 5.2.2
M140 S60
M105
M190 S60
M104 S216
M105
M109 S216
M82 ;absolute extrusion mode
; M190 S0
; M109 S0 ; uncomment to remove set&wait temp gcode added automatically after this start gcode
;M220 S100 ;Reset Feedrate
;M221 S100 ;Reset Flowrate
;M109
EXTRUDER={first_layer_temperature[initial_extruder]} BED=[first_layer_bed_temperature]


G28 ; home all
BED_MESH_PROFILE LOAD=default;

G1 Z2.0 F3000 ; Move Z Axis up little to prevent scratching of Heat Bed
G1 X0.1 Y5 Z0.28 F5000.0 ; Move to start position


G92 E0 ; Reset Extruder
G1 Z2.0 F3000 ; Move Z Axis up little to prevent scratching of Heat Bed
G1 X0.1 Y10 Z0.28 F5000.0 ; Move to start position

G1 X0.1 Y200 Z0.28 F1500.0 E15 ; Draw the first line
G1 X0.4 Y200 Z0.28 F5000.0 ; Move to side a little
G1 X0.4 Y10 Z0.28 F1500.0 E30 ; Draw the second line


G92 E0 ; Reset Extruder
G1 Z0.5 F3000 ; Move Z Axis up little to prevent scratching of Heat Bed
M117 Godmode is enabled
G92 E0
G92 E0
G1 F3000 E-1.4
;LAYER_COUNT:148
;LAYER:0
M107
G0 F3600 X127.928 Y100.764 Z0.28
;TYPE:SKIRT
G1 F3000 E0
G1 F1500 X128.512 Y100.039 E0.06502
G1 X129.367 Y99.066 E0.15549
G1 X130.154 Y98.238 E0.23528
G1 X130.802 Y97.606 E0.29851
G1 X131.673 Y96.816 E0.38064
G1 X132.447 Y96.166 E0.45123
G1 X133.267 Y95.531 E0.52367
G1 X134.381 Y94.738 E0.61918
G1 X135.059 Y94.294 E0.67579
G1 X136.15 Y93.64 E0.76463
G1 X137.098 Y93.121 E0.84012
G1 X138.041 Y92.652 E0.91368
G1 X138.936 Y92.248 E0.98227
G1 X140.009 Y91.811 E1.06319
G1 X140.903 Y91.487 E1.12961
G1 X142.151 Y91.088 E1.22112
G1 X143.112 Y90.823 E1.29075
G1 X143.738 Y90.671 E1.33574
G1 X145.14 Y90.392 E1.43559
G1 X146.507 Y90.179 E1.53222
G1 X147.421 Y90.077 E1.59646
G1 X148.186 Y90.018 E1.65005
G1 X149.531 Y89.969 E1.74405
G1 X150.478 Y89.969 E1.8102
G1 X151.845 Y90.019 E1.90574
G1 X152.583 Y90.076 E1.95744
G1 X153.603 Y90.192 E2.02914
G1 X154.815 Y90.383 E2.11484
G1 X155.848 Y90.585 E2.18836
G1 X157.201 Y90.903 E2.28544
G1 X157.739 Y91.053 E2.32445
G1 X159.012 Y91.46 E2.4178
G1 X159.971 Y91.806 E2.48901
G1 X161.053 Y92.242 E2.57048
G1 X162.17 Y92.749 E2.65616
G1 X162.666 Y92.994 E2.6948
G1 X163.946 Y93.696 E2.79677
G1 X164.825 Y94.225 E2.86842
G1 X165.8 Y94.863 E2.94981
G1 X166.658 Y95.477 E3.0235
G1 X167.456 Y96.092 E3.09387
G1 X168.361 Y96.848 E3.17623
G1 X169.157 Y97.57 E3.2513
G1 X169.834 Y98.231 E3.31738
G1 X170.68 Y99.122 E3.4032
G1 X171.536 Y100.104 E3.49419
G1 X172.032 Y100.719 E3.54937
G1 X172.574 Y101.436 E3.61215
G1 X173.281 Y102.464 E3.6993
G1 X173.842 Y103.345 E3.77225
G1 X174.448 Y104.388 E3.8565
G1 X174.939 Y105.318 E3.92995
G1 X175.426 Y106.334 E4.00865
G1 X175.786 Y107.161 E4.07165
G1 X176.215 Y108.256 E4.15379
G1 X176.543 Y109.197 E4.22339
G1 X176.862 Y110.237 E4.29937
G1 X177.145 Y111.314 E4.37715
G1 X177.384 Y112.392 E4.45427
G1 X177.551 Y113.301 E4.51883
G1 X177.74 Y114.632 E4.61273
G1 X177.841 Y115.635 E4.68314
G1 X177.912 Y116.79 E4.76396
G1 X177.932 Y117.707 E4.82802
G1 X177.912 Y118.986 E4.91737
G1 X177.868 Y119.819 E4.97563
G1 X177.776 Y120.86 E5.04863
G1 X177.613 Y122.113 E5.13688
G1 X177.424 Y123.208 E5.21449
G1 X177.196 Y124.277 E5.29084
G1 X176.957 Y125.22 E5.35879
G1 X176.619 Y126.366 E5.44224
G1 X176.358 Y127.147 E5.49975
G1 X175.938 Y128.268 E5.58337
G1 X175.509 Y129.283 E5.66033
G1 X174.987 Y130.387 E5.74563
G1 X174.614 Y131.109 E5.80239
G1 X174.071 Y132.071 E5.87955
G1 X173.411 Y133.138 E5.96718
G1 X172.808 Y134.027 E6.04221
G1 X172.183 Y134.877 E6.1159
G1 X171.477 Y135.763 E6.19503
G1 X169.051 Y138.586 E6.45501
G1 X167.357 Y140.659 E6.64199
G1 X165.687 Y142.826 E6.83308
G1 X164.078 Y145.039 E7.02419
G1 X162.555 Y147.264 E7.21252
G1 X161.081 Y149.555 E7.40279
G1 X159.665 Y151.898 E7.59401
G1 X158.335 Y154.246 E7.78249
G1 X157.357 Y156.077 E7.92748
G1 X156.723 Y157.292 E8.0232
G1 X156.305 Y157.909 E8.07525
G1 X155.941 Y158.358 E8.11563
G1 X155.421 Y158.915 E8.16885
G1 X154.785 Y159.421 E8.22562
G1 X154.296 Y159.75 E8.26678
G1 X153.668 Y160.114 E8.31748
G1 X152.929 Y160.408 E8.37303
G1 X152.314 Y160.597 E8.41797
G1 X151.576 Y160.768 E8.47088
G1 X150.811 Y160.836 E8.52452
G1 X149.999 Y160.849 E8.58125
G1 X149.249 Y160.84 E8.63364
G1 X148.374 Y160.749 E8.69508
G1 X147.821 Y160.633 E8.73455
G1 X147.206 Y160.456 E8.77925
G1 X146.483 Y160.189 E8.83308
G1 X145.796 Y159.813 E8.88778
G1 X145.145 Y159.376 E8.94254
G1 X144.651 Y158.969 E8.98725
G1 X144.095 Y158.409 E9.04237
G1 X143.654 Y157.861 E9.0915
G1 X143.21 Y157.192 E9.14758
G1 X142.73 Y156.296 E9.21858
G1 X142.108 Y155.092 E9.31323
G1 X140.807 Y152.738 E9.50109
G1 X139.426 Y150.396 E9.69099
G1 X137.965 Y148.073 E9.88266
G1 X136.47 Y145.839 E10.07042
G1 X134.884 Y143.606 E10.26172
G1 X133.266 Y141.462 E10.44933
G1 X131.542 Y139.305 E10.6422
G1 X130.01 Y137.514 E10.80681
G1 X129.943 Y137.424 E10.81465
G1 X128.512 Y135.753 E10.96831
G1 X127.729 Y134.767 E11.05625
G1 X127.165 Y133.996 E11.12298
G1 X126.519 Y133.036 E11.2038
G1 X125.956 Y132.125 E11.2786
G1 X125.507 Y131.338 E11.34188
G1 X124.953 Y130.272 E11.42579
G1 X124.519 Y129.353 E11.49678
G1 X124.032 Y128.202 E11.58407
G1 X123.652 Y127.188 E11.65971
G1 X123.31 Y126.156 E11.73564
G1 X123.051 Y125.266 E11.80038
G1 X122.758 Y124.094 E11.88476
G1 X122.565 Y123.179 E11.95008
G1 X122.361 Y121.971 E12.03565
G1 X122.218 Y120.838 E12.11541
G1 X122.13 Y119.844 E12.18511
G1 X122.075 Y118.743 E12.26211
G1 X122.063 Y117.68 E12.33636
G1 X122.091 Y116.679 E12.4063
G1 X122.16 Y115.566 E12.48419
G1 X122.275 Y114.457 E12.56207
G1 X122.436 Y113.343 E12.64068
G1 X122.627 Y112.309 E12.71413
G1 X122.83 Y111.393 E12.77966
G1 X123.18 Y110.057 E12.87612
G1 X123.378 Y109.406 E12.92365
G1 X123.759 Y108.313 E13.00449
G1 X124.219 Y107.136 E13.09276
G1 X124.634 Y106.193 E13.16472
G1 X125.046 Y105.339 E13.23095
G1 X125.626 Y104.248 E13.31725
G1 X126.207 Y103.256 E13.39755
G1 X126.719 Y102.456 E13.46389
G1 X127.434 Y101.423 E13.55163
G1 X127.928 Y100.764 E13.60916
G0 F3600 X128.467 Y101.048
G1 F1500 X128.963 Y100.435 E13.66424
G1 X129.905 Y99.366 E13.76375
G1 X130.485 Y98.756 E13.82255
G1 X131.314 Y97.948 E13.9034
G1 X132.075 Y97.261 E13.97501
G1 X132.933 Y96.545 E14.05306
G1 X133.633 Y96.006 E14.11477
G1 X134.71 Y95.24 E14.20708
G1 X135.388 Y94.796 E14.26369
G1 X136.439 Y94.166 E14.34927
G1 X137.367 Y93.658 E14.42317
G1 X138.288 Y93.199 E14.49504
G1 X139.183 Y92.795 E14.56363
G1 X140.092 Y92.422 E14.63226
G1 X141.108 Y92.051 E14.7078
G1 X142.182 Y91.705 E14.78662
G1 X143.272 Y91.402 E14.86563
G1 X144.008 Y91.226 E14.91849
G1 X145.386 Y90.957 E15.01656
G1 X146.438 Y90.793 E15.09092
G1 X147.47 Y90.675 E15.16347
G1 X148.209 Y90.617 E15.21525
G1 X149.404 Y90.571 E15.29878
G1 X150.605 Y90.571 E15.38266
G1 X151.821 Y90.618 E15.46766
G1 X152.534 Y90.674 E15.51761
G1 X153.51 Y90.784 E15.58621
G1 X154.7 Y90.972 E15.67036
G1 X155.733 Y91.174 E15.74388
G1 X157.255 Y91.532 E15.85309
G1 X158.952 Y92.074 E15.97751
G1 X159.879 Y92.413 E16.04645
G1 X160.828 Y92.798 E16.11799
G1 X161.904 Y93.287 E16.20054
G1 X162.528 Y93.599 E16.24927
G1 X163.637 Y94.211 E16.33774
G1 X164.619 Y94.804 E16.41786
G1 X165.452 Y95.351 E16.48747
G1 X166.191 Y95.877 E16.55082
G1 X167.191 Y96.648 E16.63902
G1 X167.865 Y97.211 E16.70036
G1 X168.642 Y97.909 E16.77331
G1 X169.501 Y98.747 E16.85713
G1 X170.138 Y99.417 E16.9217
G1 X171.069 Y100.48 E17.0204
G1 X171.565 Y101.095 E17.07558
G1 X172.08 Y101.777 E17.13527
G1 X172.775 Y102.786 E17.22085
G1 X173.336 Y103.667 E17.2938
G1 X173.918 Y104.669 E17.37474
G1 X174.398 Y105.578 E17.44654
G1 X174.876 Y106.574 E17.5237
G1 X175.283 Y107.514 E17.59524
G1 X175.605 Y108.336 E17.65691
G1 X176.018 Y109.522 E17.74462
G1 X176.288 Y110.411 E17.80952
G1 X176.529 Y111.32 E17.8752
G1 X176.798 Y112.522 E17.96123
G1 X176.961 Y113.408 E18.02415
G1 X177.128 Y114.572 E18.10629
G1 X177.242 Y115.673 E18.1836
G1 X177.312 Y116.804 E18.26275
G1 X177.332 Y117.699 E18.32528
G1 X177.317 Y118.824 E18.40386
G1 X177.26 Y119.91 E18.47982
G1 X177.179 Y120.805 E18.54258
G1 X177.022 Y122.013 E18.62767
G1 X176.862 Y122.956 E18.69447
G1 X176.642 Y124.01 E18.76968
G1 X176.381 Y125.052 E18.84471
G1 X176.05 Y126.176 E18.92655
G1 X175.747 Y127.076 E18.99288
G1 X175.377 Y128.057 E19.06611
G1 X175.02 Y128.908 E19.13057
G1 X174.454 Y130.112 E19.22349
G1 X174.081 Y130.834 E19.28025
G1 X173.55 Y131.774 E19.35566
G1 X172.914 Y132.802 E19.44009
G1 X172.324 Y133.673 E19.51357
G1 X171.791 Y134.402 E19.57664
G1 X171.022 Y135.372 E19.6631
G1 X168.612 Y138.176 E19.92135
G1 X166.858 Y140.323 E20.11499
G1 X165.201 Y142.472 E20.30453
G1 X163.602 Y144.672 E20.49449
G1 X162.054 Y146.933 E20.68588
G1 X160.567 Y149.245 E20.87788
G1 X159.15 Y151.589 E21.06919
G1 X157.825 Y153.928 E21.25695
G1 X156.807 Y155.832 E21.40776
G1 X156.2 Y156.998 E21.49957
G1 X155.838 Y157.531 E21.54457
G1 X155.474 Y157.98 E21.58495
G1 X154.861 Y158.597 E21.6457
G1 X154.45 Y158.923 E21.68234
G1 X153.961 Y159.252 E21.7235
G1 X153.245 Y159.639 E21.78035
G1 X152.752 Y159.834 E21.81738
G1 X152.137 Y160.023 E21.86232
G1 X151.086 Y160.231 E21.93715
G1 X149.99 Y160.249 E22.01371
G1 X149.257 Y160.24 E22.06491
G1 X148.259 Y160.134 E22.13501
G1 X147.372 Y159.879 E22.19947
G1 X146.559 Y159.549 E22.26076
G1 X146.123 Y159.31 E22.29549
G1 X145.487 Y158.883 E22.34899
G1 X145.069 Y158.539 E22.3868
G1 X144.527 Y157.993 E22.44054
G1 X144.154 Y157.529 E22.48212
G1 X143.723 Y156.881 E22.53648
G1 X143.264 Y156.021 E22.60457
G1 X142.645 Y154.821 E22.69888
G1 X141.328 Y152.44 E22.88893
G1 X139.936 Y150.08 E23.0803
G1 X138.478 Y147.76 E23.27169
G1 X136.954 Y145.483 E23.46306
G1 X135.381 Y143.269 E23.65276
G1 X133.725 Y141.075 E23.84475
G1 X132.013 Y138.933 E24.03628
G1 X130.466 Y137.124 E24.20253
G1 X130.405 Y137.04 E24.20978
G1 X128.889 Y135.268 E24.37266
G1 X128.292 Y134.516 E24.43973
G1 X127.576 Y133.536 E24.5245
G1 X127.03 Y132.721 E24.59302
G1 X126.403 Y131.702 E24.67658
G1 X125.969 Y130.931 E24.73838
G1 X125.429 Y129.882 E24.82079
G1 X125.062 Y129.099 E24.88119
G1 X124.641 Y128.11 E24.95626
G1 X124.264 Y127.119 E25.03032
G1 X123.886 Y125.988 E25.11361
G1 X123.627 Y125.098 E25.17835
G1 X123.345 Y123.97 E25.25956
G1 X123.127 Y122.924 E25.33419
G1 X122.975 Y122.025 E25.39788
G1 X122.829 Y120.903 E25.47691
G1 X122.739 Y119.94 E25.54446
G1 X122.675 Y118.734 E25.62881
G1 X122.662 Y117.827 E25.69217
G1 X122.69 Y116.716 E25.76979
G1 X122.759 Y115.603 E25.84768
G1 X122.869 Y114.542 E25.92219
G1 X123.026 Y113.45 E25.99924
G1 X123.188 Y112.561 E26.06236
G1 X123.446 Y111.398 E26.14556
G1 X123.727 Y110.329 E26.22277
G1 X123.945 Y109.604 E26.27565
G1 X124.368 Y108.397 E26.36498
G1 X124.769 Y107.376 E26.44159
G1 X125.123 Y106.566 E26.50334
G1 X125.587 Y105.6 E26.57819
G1 X126.144 Y104.55 E26.66121
G1 X126.713 Y103.578 E26.73987
G1 X127.141 Y102.905 E26.79558
G1 X128.007 Y101.655 E26.90179
G1 X128.467 Y101.048 E26.95499
G1 F3000 E25.55499
;MESH:1 tea.3mf
G0 F3600 X128.648 Y105.448
G0 X129.745 Y106.117
G0 X146.787 Y141.648
G0 X148.625 Y155.452
G1 F3000 E26.95499
G0 F3600 X148.448 Y155.823
;TYPE:WALL-INNER
G1 F1500 X149.041 Y156.005 E26.99832
G1 X149.347 Y156.05 E27.01992
G1 X150.649 Y156.05 E27.11086
G1 X150.94 Y156.007 E27.1314
G1 X151.55 Y155.822 E27.17593
G1 X152.149 Y155.422 E27.22624
G1 X152.527 Y154.96 E27.26793
G1 X152.755 Y154.535 E27.30162
G1 X152.895 Y154.079 E27.33493
G1 X152.948 Y153.559 E27.37144
G1 X152.948 Y141.654 E28.20296
G1 X153.106 Y141.215 E28.23555
G1 X153.246 Y141.036 E28.25142
G1 X153.541 Y140.829 E28.27659
G1 X153.719 Y140.756 E28.29003
G1 X154.7 Y140.566 E28.35982
G1 X155.572 Y140.368 E28.42228
G1 X156.439 Y140.136 E28.48497
G1 X157.292 Y139.871 E28.54735
G1 X158.133 Y139.572 E28.6097
G1 X158.961 Y139.243 E28.67193
G1 X159.78 Y138.88 E28.7345
G1 X160.59 Y138.483 E28.7975
G1 X161.376 Y138.061 E28.85982
G1 X162.146 Y137.606 E28.92228
G1 X162.894 Y137.125 E28.9844
G1 X163.63 Y136.611 E29.0471
G1 X164.343 Y136.07 E29.10961
G1 X165.033 Y135.5 E29.17213
G1 X165.708 Y134.902 E29.23511
G1 X166.349 Y134.285 E29.29726
G1 X166.97 Y133.641 E29.35974
G1 X167.564 Y132.975 E29.42207
G1 X168.134 Y132.285 E29.48459
G1 X168.677 Y131.573 E29.54713
G1 X169.192 Y130.842 E29.60958
G1 X169.678 Y130.09 E29.67212
G1 X170.134 Y129.32 E29.73463
G1 X170.559 Y128.536 E29.79692
G1 X170.956 Y127.732 E29.85955
G1 X171.32 Y126.915 E29.92202
G1 X171.654 Y126.085 E29.98451
G1 X171.953 Y125.243 E30.04692
G1 X172.225 Y124.378 E30.11025
G1 X172.451 Y123.528 E30.17168
G1 X172.654 Y122.653 E30.23442
G1 X172.821 Y121.773 E30.29698
G1 X172.954 Y120.89 E30.35935
G1 X173.051 Y120.007 E30.4214
G1 X173.116 Y119.107 E30.48442
G1 X173.146 Y118.209 E30.54718
G1 X173.144 Y117.736 E30.58022
G1 X173.14 Y117.322 E30.60913
G1 X173.1 Y116.426 E30.67178
G1 X173.026 Y115.544 E30.7336
G1 X172.917 Y114.649 E30.79657
G1 X172.774 Y113.765 E30.85912
G1 X172.598 Y112.89 E30.92146
G1 X172.386 Y112.02 E30.98401
G1 X172.147 Y111.176 E31.04527
G1 X171.867 Y110.307 E31.10904
G1 X171.556 Y109.47 E31.17141
G1 X171.214 Y108.641 E31.23405
G1 X170.844 Y107.835 E31.29599
G1 X170.436 Y107.031 E31.35896
G1 X170 Y106.248 E31.42156
G1 X169.537 Y105.485 E31.4839
G1 X169.045 Y104.745 E31.54596
G1 X168.514 Y104.007 E31.60947
G1 X167.973 Y103.314 E31.67087
G1 X167.392 Y102.624 E31.73388
G1 X166.789 Y101.964 E31.79632
G1 X166.162 Y101.328 E31.8587
G1 X165.508 Y100.715 E31.92131
G1 X164.837 Y100.132 E31.98339
G1 X164.132 Y99.566 E32.04654
G1 X163.417 Y99.037 E32.10866
G1 X162.679 Y98.534 E32.17104
G1 X161.922 Y98.058 E32.2335
G1 X161.15 Y97.616 E32.29563
G1 X160.346 Y97.193 E32.35909
G1 X159.56 Y96.817 E32.41995
G1 X158.711 Y96.452 E32.48449
G1 X157.893 Y96.139 E32.54567
G1 X157.04 Y95.848 E32.60862
G1 X156.175 Y95.591 E32.67165
G1 X155.323 Y95.372 E32.73309
G1 X154.436 Y95.179 E32.79649
G1 X153.571 Y95.028 E32.85782
G1 X152.676 Y94.907 E32.9209
G1 X151.797 Y94.82 E32.9826
G1 X150.893 Y94.768 E33.04584
G1 X150.003 Y94.751 E33.10802
G1 X149.114 Y94.768 E33.17012
G1 X148.21 Y94.821 E33.23337
G1 X147.337 Y94.904 E33.29462
G1 X146.431 Y95.028 E33.35849
G1 X145.562 Y95.181 E33.42012
G1 X144.66 Y95.378 E33.48461
G1 X143.809 Y95.595 E33.54595
G1 X142.963 Y95.846 E33.60759
G1 X142.111 Y96.135 E33.67043
G1 X141.276 Y96.457 E33.73294
G1 X140.454 Y96.81 E33.79542
G1 X139.651 Y97.194 E33.85759
G1 X138.853 Y97.611 E33.92048
G1 X138.078 Y98.056 E33.9829
G1 X137.322 Y98.532 E34.0453
G1 X136.581 Y99.035 E34.10785
G1 X135.868 Y99.565 E34.1699
G1 X135.166 Y100.128 E34.23275
G1 X134.494 Y100.71 E34.29485
G1 X133.837 Y101.327 E34.3578
G1 X133.208 Y101.964 E34.42033
G1 X132.609 Y102.619 E34.48232
G1 X132.026 Y103.311 E34.54552
G1 X131.481 Y104.009 E34.60738
G1 X130.955 Y104.738 E34.67016
G1 X130.46 Y105.485 E34.73276
G1 X129.993 Y106.249 E34.7953
G1 X129.56 Y107.029 E34.85761
G1 X129.155 Y107.828 E34.92018
G1 X128.787 Y108.629 E34.98175
G1 X128.44 Y109.464 E35.0449
G1 X128.13 Y110.304 E35.10744
G1 X127.853 Y111.155 E35.16995
G1 X127.611 Y112.01 E35.23201
G1 X127.398 Y112.887 E35.29505
G1 X127.221 Y113.762 E35.3574
G1 X127.077 Y114.651 E35.42031
G1 X126.969 Y115.534 E35.48244
G1 X126.896 Y116.407 E35.54363
G1 X126.855 Y117.319 E35.60739
G1 X126.851 Y118.213 E35.66984
G1 X126.88 Y119.099 E35.73175
G1 X126.945 Y119.998 E35.79471
G1 X127.041 Y120.881 E35.85675
G1 X127.173 Y121.766 E35.91924
G1 X127.34 Y122.645 E35.98174
G1 X127.542 Y123.519 E36.04439
G1 X127.774 Y124.38 E36.10668
G1 X128.04 Y125.233 E36.16908
G1 X128.341 Y126.074 E36.23147
G1 X128.673 Y126.906 E36.29404
G1 X129.037 Y127.724 E36.35658
G1 X129.433 Y128.526 E36.41905
G1 X129.861 Y129.318 E36.48193
G1 X130.313 Y130.084 E36.54405
G1 X130.798 Y130.835 E36.60649
G1 X131.311 Y131.566 E36.66887
G1 X131.854 Y132.278 E36.73141
G1 X132.424 Y132.967 E36.79387
G1 X133.02 Y133.636 E36.85645
G1 X133.641 Y134.28 E36.91894
G1 X134.285 Y134.899 E36.98133
G1 X134.954 Y135.493 E37.04382
G1 X135.647 Y136.063 E37.10649
G1 X136.359 Y136.604 E37.16895
G1 X137.096 Y137.12 E37.23179
G1 X137.843 Y137.602 E37.29388
G1 X138.611 Y138.055 E37.35616
G1 X139.398 Y138.481 E37.41866
