;FLAVOR:Marlin
;TIME:3905
;Filament used: 5.16315m
;Layer height: 0.24
;MINX:84.742
;MINY:99.539
;MINZ:0.28
;MAXX:215.267
;MAXY:150.46
;MAXZ:5.08
;Generated with Cura_SteamEngine 5.2.2
M140 S60
M105
M190 S60
M104 S216
M105
M109 S216
M82 ;absolute extrusion mode
; M190 S0
; M109 S0 ; uncomment to remove set&wait temp gcode added automatically after this start gcode
;M220 S100 ;Reset Feedrate
;M221 S100 ;Reset Flowrate
;M109
EXTRUDER={first_layer_temperature[initial_extruder]} BED=[first_layer_bed_temperature]


G28 ; home all
BED_MESH_PROFILE LOAD=default;

G1 Z2.0 F3000 ; Move Z Axis up little to prevent scratching of Heat Bed
G1 X0.1 Y5 Z0.28 F5000.0 ; Move to start position


G92 E0 ; Reset Extruder
G1 Z2.0 F3000 ; Move Z Axis up little to prevent scratching of Heat Bed
G1 X0.1 Y10 Z0.28 F5000.0 ; Move to start position

G1 X0.1 Y200 Z0.28 F1500.0 E15 ; Draw the first line
G1 X0.4 Y200 Z0.28 F5000.0 ; Move to side a little
G1 X0.4 Y10 Z0.28 F1500.0 E30 ; Draw the second line


G92 E0 ; Reset Extruder
G1 Z0.5 F3000 ; Move Z Axis up little to prevent scratching of Heat Bed
M117 Godmode is enabled
G92 E0
G92 E0
G1 F3000 E-1.4
;LAYER_COUNT:21
;LAYER:0
M107
G0 F3600 X85.733 Y100.421 Z0.28
;TYPE:SKIRT
G1 F3000 E0
G1 F1500 X86.093 Y100.128 E0.03242
G1 X86.724 Y99.795 E0.08225
G1 X87.16 Y99.634 E0.11472
G1 X87.683 Y99.539 E0.15184
G1 X195.189 Y99.54 E7.66074
G1 X195.652 Y99.58 E7.6932
G1 X196.101 Y99.699 E7.72564
G1 X196.574 Y99.913 E7.7619
G1 X196.971 Y100.155 E7.79438
G1 X197.426 Y100.561 E7.83697
G1 X197.818 Y101.063 E7.88146
G1 X213.822 Y131.148 E10.2616
G1 X214.17 Y131.902 E10.3196
G1 X214.566 Y132.925 E10.39622
G1 X214.789 Y133.668 E10.45041
G1 X215.013 Y134.603 E10.51756
G1 X215.167 Y135.616 E10.58913
G1 X215.267 Y136.699 E10.66509
G1 X215.238 Y137.9 E10.749
G1 X215.178 Y138.661 E10.80232
G1 X214.961 Y140.057 E10.901
G1 X214.562 Y141.426 E11.0006
G1 X214.153 Y142.485 E11.07989
G1 X213.659 Y143.492 E11.15823
G1 X213.303 Y144.11 E11.20804
G1 X212.749 Y144.945 E11.27804
G1 X212.254 Y145.604 E11.3356
G1 X211.568 Y146.361 E11.40696
G1 X210.909 Y147.008 E11.47146
G1 X210.308 Y147.518 E11.52652
G1 X209.371 Y148.226 E11.60854
G1 X208.416 Y148.79 E11.68601
G1 X207.368 Y149.328 E11.76829
G1 X206.425 Y149.694 E11.83894
G1 X205.538 Y149.97 E11.90383
G1 X204.475 Y150.237 E11.98038
G1 X203.295 Y150.391 E12.0635
G1 X202.39 Y150.46 E12.12689
G1 X87.792 Y150.457 E20.13114
G1 X87.329 Y150.417 E20.1636
G1 X86.88 Y150.298 E20.19604
G1 X86.458 Y150.105 E20.22845
G1 X86.002 Y149.797 E20.26689
G1 X85.648 Y149.497 E20.2993
G1 X85.351 Y149.14 E20.33173
G1 X85.108 Y148.712 E20.36611
G1 X84.831 Y148.005 E20.41914
G1 X84.745 Y147.328 E20.46681
G1 X84.742 Y102.593 E23.59138
G1 X84.782 Y102.131 E23.62377
G1 X84.9 Y101.682 E23.6562
G1 X85.094 Y101.26 E23.68864
G1 X85.429 Y100.771 E23.73004
G1 X85.733 Y100.421 E23.76242
G0 F3600 X86.186 Y100.819
G1 F1500 X86.512 Y100.571 E23.79103
G1 X86.979 Y100.338 E23.82748
G1 X87.365 Y100.201 E23.85609
G1 X87.871 Y100.139 E23.8917
G1 X195.189 Y100.14 E31.38746
G1 X195.596 Y100.18 E31.41603
G1 X196.124 Y100.36 E31.45499
G1 X196.654 Y100.668 E31.4978
G1 X197.056 Y101.058 E31.53693
G1 X197.372 Y101.502 E31.57499
G1 X213.35 Y131.547 E33.95182
G1 X213.674 Y132.27 E34.00715
G1 X214.016 Y133.178 E34.07492
G1 X214.17 Y133.677 E34.1114
G1 X214.424 Y134.722 E34.18651
G1 X214.574 Y135.707 E34.2561
G1 X214.666 Y136.723 E34.32736
G1 X214.631 Y138.016 E34.4177
G1 X214.57 Y138.668 E34.46344
G1 X214.374 Y139.927 E34.55244
G1 X213.994 Y141.232 E34.64737
G1 X213.6 Y142.25 E34.72362
G1 X213.197 Y143.082 E34.78819
G1 X212.876 Y143.659 E34.8343
G1 X212.269 Y144.584 E34.91158
G1 X211.784 Y145.23 E34.968
G1 X211.241 Y145.836 E35.02484
G1 X210.453 Y146.609 E35.10193
G1 X209.947 Y147.039 E35.14831
G1 X209.043 Y147.722 E35.22745
G1 X208.142 Y148.256 E35.3006
G1 X207.117 Y148.782 E35.38107
G1 X206.159 Y149.148 E35.4527
G1 X205.36 Y149.397 E35.51116
G1 X204.357 Y149.647 E35.58336
G1 X203.093 Y149.809 E35.67236
G1 X202.292 Y149.86 E35.72843
G1 X87.792 Y149.857 E43.72582
G1 X87.385 Y149.817 E43.75439
G1 X86.993 Y149.699 E43.78298
G1 X86.575 Y149.468 E43.81634
G1 X86.041 Y149.04 E43.86414
G1 X85.79 Y148.716 E43.89277
G1 X85.533 Y148.195 E43.93334
G1 X85.401 Y147.808 E43.9619
G1 X85.345 Y147.328 E43.99566
G1 X85.342 Y102.593 E47.12023
G1 X85.382 Y102.186 E47.14879
G1 X85.5 Y101.794 E47.17739
G1 X85.745 Y101.357 E47.21238
G1 X86.186 Y100.819 E47.26097
G0 F3600 X86.633 Y101.224
G1 F1500 X86.974 Y101.003 E47.28935
G1 X87.562 Y100.771 E47.3335
G1 X87.871 Y100.739 E47.3552
G1 X195.189 Y100.74 E54.85096
G1 X195.533 Y100.78 E54.87515
G1 X196.04 Y100.988 E54.91343
G1 X196.33 Y101.177 E54.9376
G1 X196.616 Y101.467 E54.96605
G1 X196.842 Y101.784 E54.99325
G1 X212.804 Y131.795 E57.36745
G1 X213.078 Y132.398 E57.41371
G1 X213.442 Y133.355 E57.48523
G1 X213.622 Y133.947 E57.52844
G1 X213.82 Y134.775 E57.58791
G1 X213.981 Y135.797 E57.66017
G1 X214.066 Y136.751 E57.72707
G1 X214.039 Y137.871 E57.80532
G1 X213.977 Y138.576 E57.85475
G1 X213.787 Y139.797 E57.94106
G1 X213.442 Y140.98 E58.02713
G1 X213.025 Y142.061 E58.10806
G1 X212.614 Y142.903 E58.1735
G1 X212.301 Y143.451 E58.21758
G1 X211.843 Y144.148 E58.27583
G1 X211.323 Y144.845 E58.33657
G1 X210.728 Y145.505 E58.39863
G1 X210.134 Y146.088 E58.45677
G1 X209.66 Y146.5 E58.50063
G1 X208.703 Y147.226 E58.58453
G1 X207.954 Y147.675 E58.64553
G1 X206.873 Y148.233 E58.7305
G1 X206.076 Y148.542 E58.7902
G1 X205.093 Y148.849 E58.86213
G1 X204.251 Y149.056 E58.92269
G1 X203.14 Y149.201 E59.00095
G1 X202.292 Y149.26 E59.06032
G1 X87.792 Y149.257 E67.05772
G1 X87.448 Y149.217 E67.08191
G1 X87.123 Y149.1 E67.10604
G1 X86.698 Y148.819 E67.14163
G1 X86.441 Y148.588 E67.16576
G1 X86.201 Y148.217 E67.19662
G1 X85.973 Y147.618 E67.24139
G1 X85.945 Y147.328 E67.26174
G1 X85.942 Y102.593 E70.38631
G1 X85.982 Y102.25 E70.41043
G1 X86.099 Y101.924 E70.43462
G1 X86.399 Y101.478 E70.47217
G1 X86.633 Y101.224 E70.49629
G0 F3600 X87.071 Y101.641
G1 F1500 X87.489 Y101.424 E70.52918
G1 X87.871 Y101.339 E70.55652
G1 X195.189 Y101.34 E78.05228
G1 X195.454 Y101.38 E78.071
G1 X195.773 Y101.525 E78.09548
G1 X196.031 Y101.718 E78.11798
G1 X196.313 Y102.065 E78.14921
G1 X212.233 Y131.993 E80.51692
G1 X212.553 Y132.698 E80.571
G1 X212.85 Y133.476 E80.62916
G1 X213.023 Y134.031 E80.66977
G1 X213.251 Y134.988 E80.73848
G1 X213.395 Y135.946 E80.80614
G1 X213.464 Y136.813 E80.86689
G1 X213.436 Y137.912 E80.94368
G1 X213.392 Y138.422 E80.97943
G1 X213.2 Y139.669 E81.06756
G1 X212.842 Y140.884 E81.15603
G1 X212.485 Y141.8 E81.22469
G1 X212.117 Y142.559 E81.28361
G1 X211.831 Y143.069 E81.32445
G1 X211.309 Y143.864 E81.39088
G1 X210.832 Y144.494 E81.44607
G1 X210.347 Y145.035 E81.49682
G1 X209.67 Y145.699 E81.56305
G1 X209.268 Y146.045 E81.6001
G1 X208.327 Y146.752 E81.68231
G1 X207.594 Y147.189 E81.74191
G1 X206.673 Y147.662 E81.81423
G1 X205.802 Y148.002 E81.87954
G1 X204.95 Y148.266 E81.94184
G1 X204.184 Y148.454 E81.99693
G1 X203.008 Y148.612 E82.0798
G1 X202.292 Y148.66 E82.12993
G1 X87.792 Y148.657 E90.12733
G1 X87.527 Y148.617 E90.14604
G1 X87.27 Y148.49 E90.16607
G1 X86.853 Y148.145 E90.20387
G1 X86.625 Y147.7 E90.23879
G1 X86.545 Y147.328 E90.26537
G1 X86.542 Y102.593 E93.38994
G1 X86.582 Y102.328 E93.40866
G1 X86.715 Y102.063 E93.42937
G1 X87.071 Y101.641 E93.46793
G0 F3600 X87.484 Y102.089
G1 F1500 X87.871 Y101.939 E93.49692
G1 X195.189 Y101.94 E100.99269
G1 X195.323 Y101.971 E101.00229
G1 X195.592 Y102.127 E101.02401
G1 X195.783 Y102.347 E101.04436
G1 X211.711 Y132.292 E103.41338
G1 X211.992 Y132.912 E103.46093
G1 X212.296 Y133.709 E103.52051
G1 X212.455 Y134.226 E103.55829
G1 X212.658 Y135.079 E103.61953
G1 X212.797 Y135.997 E103.68438
G1 X212.864 Y136.798 E103.74052
G1 X212.838 Y137.861 E103.81479
G1 X212.794 Y138.371 E103.85054
G1 X212.608 Y139.554 E103.93419
G1 X212.282 Y140.668 E104.01526
G1 X211.945 Y141.538 E104.08042
G1 X211.577 Y142.297 E104.13934
G1 X211.298 Y142.792 E104.17903
G1 X210.829 Y143.504 E104.23858
G1 X210.402 Y144.073 E104.28827
G1 X209.887 Y144.648 E104.34218
G1 X209.279 Y145.244 E104.40165
G1 X208.862 Y145.602 E104.44004
G1 X208.045 Y146.219 E104.51155
G1 X207.32 Y146.655 E104.57064
G1 X206.37 Y147.141 E104.64517
G1 X205.642 Y147.423 E104.6997
G1 X204.807 Y147.683 E104.76078
G1 X204.041 Y147.871 E104.81587
G1 X202.966 Y148.013 E104.89161
G1 X202.292 Y148.06 E104.9388
G1 X87.792 Y148.057 E112.9362
G1 X87.618 Y148.001 E112.94897
G1 X87.393 Y147.841 E112.96825
G1 X87.294 Y147.721 E112.97912
G1 X87.145 Y147.328 E113.00847
G1 X87.142 Y102.593 E116.13305
G1 X87.2 Y102.416 E116.14605
G1 X87.484 Y102.089 E116.17631
G1 F3000 E114.77631
G0 F3600 X157.043 Y135
;TYPE:SUPPORT
G1 F3000 E116.17631
G1 F1500 X162.499 Y135 E116.55739
G0 F3600 X162 Y134.82
G1 F1500 X162 Y136.419 E116.66907
G0 F3600 X161.4 Y136.419
G1 F1500 X161.4 Y134.82 E116.78076
G0 F3600 X160.8 Y134.82
G1 F1500 X160.8 Y136.419 E116.89244
G0 F3600 X160.2 Y136.419
G1 F1500 X160.2 Y134.82 E117.00412
G0 F3600 X159.6 Y134.82
G1 F1500 X159.6 Y136.419 E117.11581
G0 F3600 X159 Y136.419
G1 F1500 X159 Y134.82 E117.22749
G0 F3600 X158.4 Y134.82
G1 F1500 X158.4 Y136.419 E117.33918
G0 F3600 X157.8 Y136.419
G1 F1500 X157.8 Y134.82 E117.45086
G0 F3600 X157.2 Y134.82
G1 F1500 X157.2 Y135.973 E117.53139
G1 X157.234 Y136.2
G1 X162.602 Y136.2 E117.90633
G1 X162.6 Y136.186
G1 X162.6 Y136.419 E117.9226
G0 F3600 X162.55 Y135.6
G1 F1500 X157.143 Y135.6 E118.30026
G0 F3600 X157.8 Y137.923
G1 F1500 X157.8 Y139.942 E118.44128
G0 F3600 X157.526 Y139.8
G1 F1500 X158.35 Y139.8 E118.49883
G1 X158.4 Y139.728
G1 X158.4 Y137.923 E118.62491
G0 F3600 X159 Y137.923
G1 F1500 X159 Y139.525 E118.7368
G0 F3600 X159.6 Y139.525
G1 F1500 X159.6 Y137.923 E118.84869
G0 F3600 X160.2 Y137.923
G1 F1500 X160.2 Y139.525 E118.96059
G0 F3600 X160.8 Y139.525
G1 F1500 X160.8 Y137.923 E119.07248
G0 F3600 X161.4 Y137.923
G1 F1500 X161.4 Y139.525 E119.18438
G0 F3600 X162 Y139.525
G1 F1500 X162 Y137.923 E119.29627
G0 F3600 X162.6 Y137.923
G1 F1500 X162.6 Y139.525 E119.40816
G0 F3600 X163.2 Y139.525
G1 F1500 X163.2 Y138.638 E119.47012
G1 X163.126 Y138.6
G1 X157.597 Y138.6 E119.8563
G0 F3600 X157.627 Y139.2
G1 F1500 X163.579 Y139.2 E120.27202
G0 F3600 X162.756 Y138
G1 F1500 X157.506 Y138 E120.63872
G1 F3000 E119.23872
G0 F3600 X162 Y134.774
G1 F3000 E120.63872
G1 F1500 X162 Y133.205 E120.7483
G1 X162.009 Y133.2
G1 X163.493 Y133.2 E120.85196
G0 F3600 X163.2 Y133.03
G1 F1500 X163.2 Y133.798 E120.9056
G1 X163.196 Y133.8
G1 X161.676 Y133.8 E121.01176
G0 F3600 X161.727 Y134.4
G1 F1500 X162.507 Y134.4 E121.06624
G1 X162.6 Y134.217
G1 X162.6 Y132.825 E121.16347
G1 F3000 E119.76347
;MESH:disk-launcher_small.stl
G0 F3600 X163.784 Y134.83
G0 X163.997 Y136.882
G1 F3000 E121.16347
G0 F3600 X162.89 Y137.165
;TYPE:WALL-INNER
G1 F1298.7 X163.156 Y137.191 E121.18503
G1 F1421.8 X163.694 Y137.224 E121.22475
G1 F1500 X164.681 Y137.224 E121.29369
G1 F1442.3 X166.844 Y137.2 E121.45082
G1 F1365.7 X167.193 Y137.159 E121.47778
G1 F1419.6 X165.038 Y135.89 E121.66235
G1 F1500 X164.124 Y135.364 E121.73601
G1 X164.118 Y135.847 E121.76975
G1 X164.011 Y136.259 E121.79948
G1 X163.782 Y136.602 E121.82828
G1 X163.539 Y136.83 E121.85156
G1 F1421.8 X163.143 Y137.079 E121.88603
G1 F1298.7 X162.89 Y137.165 E121.90758
G1 F3000 E120.50758
G0 F3600 X163.997 Y136.882
G0 X165.673 Y135.909
G0 X167.284 Y133.133
G1 F3000 E121.90758
G0 F3600 X167.856 Y133.138
G1 F1500 X167.91 Y132.811 E121.93073
G1 X168.018 Y132.539 E121.95117
G1 X168.298 Y132.178 E121.98308
G1 X168.819 Y131.858 E122.02579
G1 X169.129 Y131.774 E122.04822
G1 X169.995 Y131.775 E122.10871
G1 X170.369 Y131.867 E122.13561
G1 X173.549 Y133.699 E122.39194
G1 X173.647 Y133.333 E122.41841
G1 X173.861 Y133.004 E122.44582
G1 X174.169 Y132.69 E122.47654
G1 X174.39 Y132.525 E122.49581
G1 X174.959 Y132.336 E122.53768
G1 X176.337 Y132.167 E122.63465
G1 X174.396 Y116.266 E123.75352
G1 X174.409 Y115.802 E123.78594
G1 X174.49 Y115.479 E123.8092
G1 X174.704 Y115.021 E123.84451
G1 X174.855 Y114.795 E123.8635
G1 F1470.6 X175.295 Y114.412 E123.90506
G1 F1345.3 X175.694 Y114.168 E123.94148
G1 X175.229 Y114.232 E123.97803
G1 F1470.6 X174.594 Y114.377 E124.02444
G1 F1500 X173.74 Y114.628 E124.08661
G1 X172.857 Y114.932 E124.15184
G1 X171.985 Y115.275 E124.21729
G1 X171.194 Y115.624 E124.27767
G1 X170.377 Y116.028 E124.34133
G1 X169.568 Y116.469 E124.40569
G1 X168.772 Y116.951 E124.47068
G1 X168.051 Y117.432 E124.53122
G1 X168.022 Y117.499 E124.53632
G1 X168.376 Y118.14 E124.58747
G1 X168.779 Y119.015 E124.65475
G1 X169.163 Y120.147 E124.73824
G1 X169.382 Y121.056 E124.80355
G1 X169.558 Y122.184 E124.88329
G1 X169.593 Y123.415 E124.96931
G1 X169.545 Y124.289 E125.03044
G1 X169.412 Y125.247 E125.098
G1 X169.183 Y126.248 E125.16972
G1 X168.758 Y127.545 E125.26505
G1 X168.285 Y128.365 E125.33117
G1 X168.012 Y128.891 E125.37256
G1 X167.795 Y129.349 E125.40796
G1 X167.574 Y129.863 E125.44704
G1 X167.371 Y130.401 E125.4872
G1 X167.204 Y130.908 E125.52449
G1 X167.061 Y131.414 E125.56121
G1 X166.822 Y132.393 E125.6316
G1 X166.844 Y132.553 E125.64288
G1 X167.856 Y133.138 E125.72453
G0 F3600 X167.596 Y132.575
G0 X168.529 Y134.221
;TYPE:WALL-OUTER
G1 F1500 X168.444 Y133.245 E125.79295
G1 X168.532 Y132.849 E125.82129
G1 X168.686 Y132.636 E125.83965
G1 X168.932 Y132.463 E125.86065
G1 X169.182 Y132.377 E125.87912
G1 X169.947 Y132.377 E125.93255
G1 X170.144 Y132.431 E125.94682
G1 X174.12 Y134.72 E126.26726
G1 X174.361 Y134.719 E126.28409
G1 X174.241 Y134.557 E126.29817
G1 X174.109 Y134.063 E126.33389
G1 X174.183 Y133.604 E126.36636
G1 X174.289 Y133.424 E126.38095
G1 X174.671 Y133.055 E126.41805
G1 X175.032 Y132.932 E126.44469
G1 X176.848 Y132.709 E126.57248
G1 X176.949 Y132.643 E126.58091
G1 X176.989 Y132.558 E126.58747
G1 X174.992 Y116.193 E127.73898
G1 X175.01 Y115.785 E127.76751
G1 X175.271 Y115.226 E127.8106
G1 X175.493 Y115.013 E127.83209
G1 X175.969 Y114.761 E127.8697
G1 X176.578 Y114.747 E127.91225
G1 X176.724 Y114.781 E127.92272
G1 X177.165 Y115.012 E127.9575
G1 X177.024 Y113.865 E128.03821
G1 X176.857 Y113.579 E128.06134
G1 X176.608 Y113.414 E128.08221
G1 X176.303 Y113.376 E128.10368
G1 F1502.5 X175.347 Y113.57 E128.1717
G1 X174.425 Y113.801 E128.23797
G1 F1500 X173.558 Y114.056 E128.3011
G1 X172.673 Y114.36 E128.36645
G1 X171.788 Y114.707 E128.43285
G1 X170.94 Y115.08 E128.49756
G1 X170.1 Y115.495 E128.563
G1 X169.269 Y115.949 E128.62914
G1 X168.44 Y116.451 E128.69683
G1 X167.639 Y116.986 E128.76411
G1 X167.536 Y117.11 E128.77537
G1 X167.437 Y117.34 E128.79286
G1 X167.422 Y117.51 E128.80478
G1 X167.484 Y117.766 E128.82317
G1 X167.851 Y118.43 E128.87616
G1 X168.245 Y119.293 E128.94243
G1 X168.58 Y120.289 E129.01582
G1 X168.789 Y121.149 E129.07764
G1 X168.962 Y122.257 E129.15597
G1 X168.994 Y123.382 E129.23457
G1 X168.946 Y124.256 E129.29571
G1 X168.818 Y125.162 E129.35962
G1 X168.613 Y126.062 E129.42409
G1 X168.208 Y127.296 E129.51481
G1 X167.759 Y128.076 E129.57767
G1 X167.491 Y128.588 E129.61803
G1 X167.248 Y129.102 E129.65774
G1 X167.018 Y129.638 E129.69848
G1 X166.813 Y130.177 E129.73876
G1 X166.63 Y130.732 E129.77958
G1 X166.484 Y131.246 E129.8169
G1 X166.334 Y131.864 E129.86132
G1 X166.22 Y132.425 E129.9013
G1 X166.267 Y132.751 E129.92431
G1 X166.357 Y132.908 E129.93695
G1 X166.51 Y133.052 E129.95162
G1 X168.529 Y134.221 E130.11457
G1 F3000 E128.71457
G0 F3600 X168.127 Y133.591
G0 X168.418 Y132.411
G0 X169.992 Y132.036
G0 X173.802 Y134.179
G0 X175.125 Y134.918
G1 F3000 E130.11457
G1 F1764.7 X185.313 Y134.917 E130.71943
G1 F3000 E129.31943
G0 F3600 X187.39 Y136.831
G0 X188.85 Y135.507
G1 F3000 E130.71943
G1 F1621.6 X188.977 Y135.093 E130.74741
G1 F1685.4 X189.425 Y134.043 E130.81837
G1 X189.928 Y133.313 E130.87348
G1 F1688.6 X190.355 Y132.796 E130.91508
G1 F1669.8 X190.838 Y132.325 E130.95741
G1 F1672.9 X191.479 Y131.833 E131.00802
G1 F1691.7 X192.362 Y131.325 E131.07111
G1 F1660.5 X193.212 Y131.01 E131.1283
G1 F1669.8 X193.826 Y130.86 E131.16796
G1 F1685.4 X194.51 Y130.766 E131.21088
G1 F1669.8 X195.092 Y130.741 E131.24743
G1 F1651.4 X195.762 Y130.777 E131.29
