;FLAVOR:Marlin
;TIME:2156
;Filament used: 2.58421m
;Layer height: 0.24
;MINX:101.265
;MINY:112.189
;MINZ:0.28
;MAXX:198.436
;MAXY:135.904
;MAXZ:28.12
;Generated with Cura_SteamEngine 5.2.2
M140 S60
M105
M190 S60
M104 S216
M105
M109 S216
M82 ;absolute extrusion mode
; M190 S0
; M109 S0 ; uncomment to remove set&wait temp gcode added automatically after this start gcode
;M220 S100 ;Reset Feedrate
;M221 S100 ;Reset Flowrate
;M109
EXTRUDER={first_layer_temperature[initial_extruder]} BED=[first_layer_bed_temperature]


G28 ; home all
BED_MESH_PROFILE LOAD=default;

G1 Z2.0 F3000 ; Move Z Axis up little to prevent scratching of Heat Bed
G1 X0.1 Y5 Z0.28 F5000.0 ; Move to start position


G92 E0 ; Reset Extruder
G1 Z2.0 F3000 ; Move Z Axis up little to prevent scratching of Heat Bed
G1 X0.1 Y10 Z0.28 F5000.0 ; Move to start position

G1 X0.1 Y200 Z0.28 F1500.0 E15 ; Draw the first line
G1 X0.4 Y200 Z0.28 F5000.0 ; Move to side a little
G1 X0.4 Y10 Z0.28 F1500.0 E30 ; Draw the second line


G92 E0 ; Reset Extruder
G1 Z0.5 F3000 ; Move Z Axis up little to prevent scratching of Heat Bed
M117 Godmode is enabled
G92 E0
G92 E0
G1 F3000 E-1.4
;LAYER_COUNT:117
;LAYER:0
M107
G0 F3600 X102.161 Y123.503 Z0.28
;TYPE:SKIRT
G1 F3000 E0
G1 F1500 X102.532 Y123.223 E0.03246
G1 X102.945 Y123.012 E0.06486
G1 X103.388 Y122.874 E0.09727
G1 X103.849 Y122.814 E0.12974
G1 X104.387 Y122.845 E0.16738
G1 X108.335 Y123.472 E0.44659
G1 X108.786 Y123.584 E0.47904
G1 X109.262 Y123.801 E0.51558
G1 X118.275 Y129.004 E1.24247
G1 X118.656 Y129.27 E1.27493
G1 X118.963 Y129.575 E1.30515
G1 X119.524 Y129.268 E1.34982
G1 X119.97 Y129.14 E1.38223
G1 X120.491 Y129.089 E1.41879
G1 X191.889 Y129.089 E6.40568
G1 X191.889 Y114.889 E7.39749
G1 X191.929 Y114.426 E7.42995
G1 X192.048 Y113.977 E7.4624
G1 X192.241 Y113.555 E7.49481
G1 X192.504 Y113.173 E7.5272
G1 X192.829 Y112.841 E7.55965
G1 X193.206 Y112.57 E7.59208
G1 X193.624 Y112.367 E7.62454
G1 X194.07 Y112.239 E7.65695
G1 X194.589 Y112.189 E7.69337
G1 X195.736 Y112.189 E7.77348
G1 X196.199 Y112.229 E7.80594
G1 X196.648 Y112.348 E7.83838
G1 X197.07 Y112.541 E7.87079
G1 X197.452 Y112.804 E7.90319
G1 X197.784 Y113.129 E7.93564
G1 X198.055 Y113.506 E7.96807
G1 X198.258 Y113.924 E8.00052
G1 X198.386 Y114.37 E8.03293
G1 X198.436 Y114.889 E8.06935
G1 X198.436 Y133.089 E9.34055
G1 X198.396 Y133.552 E9.37301
G1 X198.277 Y134.001 E9.40546
G1 X198.084 Y134.423 E9.43787
G1 X197.821 Y134.805 E9.47026
G1 X197.496 Y135.137 E9.50271
G1 X197.119 Y135.408 E9.53514
G1 X196.701 Y135.611 E9.5676
G1 X196.255 Y135.739 E9.60001
G1 X195.736 Y135.789 E9.63642
G1 X120.492 Y135.789 E14.89194
G1 X120.029 Y135.749 E14.9244
G1 X119.58 Y135.63 E14.95684
G1 X119.158 Y135.437 E14.98925
G1 X118.776 Y135.174 E15.02165
G1 X118.603 Y135.004 E15.03859
G1 X118.277 Y135.24 E15.0667
G1 X117.859 Y135.443 E15.09915
G1 X117.413 Y135.571 E15.13156
G1 X116.951 Y135.621 E15.16402
G1 X116.488 Y135.592 E15.19642
G1 X116.037 Y135.483 E15.22883
G1 X115.543 Y135.261 E15.26666
G1 X109.314 Y131.668 E15.76892
G1 X108.854 Y131.388 E15.80653
G1 X106.544 Y130.061 E15.99261
G1 X104.116 Y129.677 E16.1643
G1 X103.665 Y129.565 E16.19676
G1 X103.24 Y129.378 E16.22919
G1 X102.854 Y129.12 E16.26162
G1 X102.517 Y128.801 E16.29403
G1 X102.24 Y128.428 E16.32648
G1 X102.017 Y127.976 E16.36168
G1 X101.443 Y126.478 E16.47373
G1 X101.315 Y126.032 E16.50614
G1 X101.265 Y125.57 E16.5386
G1 X101.295 Y125.107 E16.571
G1 X101.403 Y124.655 E16.60346
G1 X101.588 Y124.229 E16.6359
G1 X101.843 Y123.841 E16.66833
G1 X102.161 Y123.503 E16.70075
G0 F3600 X102.509 Y123.997
G1 F1500 X102.831 Y123.744 E16.72935
G1 X103.195 Y123.558 E16.7579
G1 X103.589 Y123.446 E16.78651
G1 X104.084 Y123.405 E16.8212
G1 X108.241 Y124.065 E17.11519
G1 X108.638 Y124.168 E17.14384
G1 X108.962 Y124.32 E17.16883
G1 X117.975 Y129.523 E17.89572
G1 X118.308 Y129.762 E17.92435
G1 X118.588 Y130.06 E17.95291
G1 X118.842 Y130.504 E17.98864
G1 X118.998 Y130.312 E18.00592
G1 X119.313 Y130.05 E18.03454
G1 X119.673 Y129.855 E18.06313
G1 X120.064 Y129.733 E18.09174
G1 X120.491 Y129.689 E18.12172
G1 X192.489 Y129.689 E23.15052
G1 X192.489 Y114.889 E24.18424
G1 X192.529 Y114.482 E24.21281
G1 X192.647 Y114.09 E24.2414
G1 X192.839 Y113.728 E24.27002
G1 X193.098 Y113.411 E24.29861
G1 X193.413 Y113.149 E24.32723
G1 X193.773 Y112.954 E24.35583
G1 X194.164 Y112.833 E24.38441
G1 X194.589 Y112.789 E24.41426
G1 X195.736 Y112.789 E24.49437
G1 X196.143 Y112.829 E24.52293
G1 X196.535 Y112.947 E24.55153
G1 X196.897 Y113.139 E24.58015
G1 X197.214 Y113.398 E24.60874
G1 X197.476 Y113.713 E24.63736
G1 X197.671 Y114.073 E24.66595
G1 X197.792 Y114.464 E24.69454
G1 X197.836 Y114.889 E24.72438
G1 X197.836 Y133.089 E25.99559
G1 X197.796 Y133.496 E26.02415
G1 X197.678 Y133.888 E26.05275
G1 X197.486 Y134.25 E26.08137
G1 X197.227 Y134.567 E26.10996
G1 X196.912 Y134.829 E26.13857
G1 X196.552 Y135.024 E26.16717
G1 X196.161 Y135.145 E26.19576
G1 X195.736 Y135.189 E26.2256
G1 X120.492 Y135.189 E31.48112
G1 X120.085 Y135.149 E31.50968
G1 X119.693 Y135.031 E31.53827
G1 X119.331 Y134.839 E31.56689
G1 X119.014 Y134.58 E31.59549
G1 X118.752 Y134.265 E31.6241
G1 X118.648 Y134.072 E31.63942
G1 X118.385 Y134.399 E31.66873
G1 X118.07 Y134.661 E31.69734
G1 X117.71 Y134.856 E31.72594
G1 X117.319 Y134.978 E31.75455
G1 X116.912 Y135.022 E31.78314
G1 X116.504 Y134.986 E31.81175
G1 X116.024 Y134.846 E31.84667
G1 X109.569 Y131.121 E32.36722
G1 X109.157 Y130.869 E32.40095
G1 X106.746 Y129.485 E32.59512
G1 X104.21 Y129.084 E32.77445
G1 X103.814 Y128.981 E32.80303
G1 X103.445 Y128.803 E32.83165
G1 X103.118 Y128.557 E32.86023
G1 X102.845 Y128.252 E32.88882
G1 X102.577 Y127.761 E32.92789
G1 X102.003 Y126.263 E33.03994
G1 X101.895 Y125.869 E33.06847
G1 X101.865 Y125.46 E33.09712
G1 X101.915 Y125.054 E33.12569
G1 X102.042 Y124.665 E33.15427
G1 X102.243 Y124.308 E33.18288
G1 X102.509 Y123.997 E33.21147
G0 F3600 X102.908 Y124.447
G1 F1500 X103.18 Y124.233 E33.23564
G1 X103.493 Y124.088 E33.25974
G1 X103.832 Y124.018 E33.28391
G1 X104.199 Y124.031 E33.30956
G1 X108.147 Y124.658 E33.58877
G1 X108.534 Y124.766 E33.61683
G1 X117.675 Y130.043 E34.35405
G1 X117.953 Y130.249 E34.37822
G1 X118.175 Y130.514 E34.40236
G1 X118.332 Y130.822 E34.42651
G1 X118.414 Y131.158 E34.45067
G1 X118.391 Y131.852 E34.49917
G1 X118.392 Y132.921 E34.57383
G1 X118.352 Y133.264 E34.59795
G1 X118.235 Y133.59 E34.62214
G1 X118.047 Y133.879 E34.64623
G1 X117.797 Y134.118 E34.67038
G1 X117.499 Y134.294 E34.69456
G1 X117.168 Y134.396 E34.71875
G1 X116.823 Y134.42 E34.7429
G1 X116.482 Y134.365 E34.76703
G1 X116.143 Y134.221 E34.79275
G1 X109.881 Y130.609 E35.29768
G1 X109.454 Y130.348 E35.33263
G1 X106.95 Y128.911 E35.53428
G1 X104.304 Y128.492 E35.7214
G1 X103.97 Y128.398 E35.74563
G1 X103.668 Y128.232 E35.7697
G1 X103.411 Y128 E35.79388
G1 X103.186 Y127.674 E35.82155
G1 X102.563 Y126.049 E35.94311
G1 X102.478 Y125.714 E35.96725
G1 X102.471 Y125.368 E35.99142
G1 X102.544 Y125.03 E36.01557
G1 X102.692 Y124.717 E36.03975
G1 X102.908 Y124.447 E36.0639
G0 F3600 X103.355 Y124.849
G1 F1500 X103.577 Y124.7 E36.08258
G1 X103.833 Y124.622 E36.10127
G1 X104.105 Y124.623 E36.12027
G1 X108.053 Y125.25 E36.39948
G1 X108.362 Y125.36 E36.42239
G1 X117.375 Y130.563 E37.14928
G1 X117.584 Y130.729 E37.16792
G1 X117.735 Y130.95 E37.18661
G1 X117.815 Y131.206 E37.20535
G1 X117.791 Y131.821 E37.24833
G1 X117.792 Y132.921 E37.32517
G1 X117.752 Y133.186 E37.34388
G1 X117.637 Y133.427 E37.36254
G1 X117.455 Y133.624 E37.38127
G1 X117.224 Y133.758 E37.39992
G1 X116.964 Y133.819 E37.41857
G1 X116.697 Y133.801 E37.43727
G1 X116.442 Y133.702 E37.45637
G1 X110.194 Y130.097 E37.9602
G1 X109.763 Y129.834 E37.99547
G1 X107.152 Y128.335 E38.20576
G1 X104.397 Y127.899 E38.40058
G1 X104.142 Y127.818 E38.41926
G1 X103.922 Y127.666 E38.43794
G1 X103.736 Y127.43 E38.45893
G1 X103.124 Y125.834 E38.57832
G1 X103.066 Y125.573 E38.59699
G1 X103.088 Y125.306 E38.61571
G1 X103.187 Y125.058 E38.63436
G1 X103.355 Y124.849 E38.65309
G0 F3600 X103.729 Y125.326
G1 F1500 X103.852 Y125.234 E38.66381
G1 X104.011 Y125.216 E38.67499
G1 X108.015 Y125.852 E38.95816
G1 X117.075 Y131.082 E39.68884
G1 X117.184 Y131.19 E39.69955
G1 X117.224 Y131.365 E39.71209
G1 X117.191 Y131.803 E39.74277
G1 X117.192 Y132.922 E39.82093
G1 X117.153 Y133.07 E39.83162
G1 X117.045 Y133.18 E39.84239
G1 X116.897 Y133.222 E39.85313
G1 X116.742 Y133.182 E39.86431
G1 X110.507 Y129.585 E40.36708
G1 X110.055 Y129.309 E40.40407
G1 X107.356 Y127.759 E40.62146
G1 X104.491 Y127.306 E40.82406
G1 X104.351 Y127.244 E40.83475
G1 X104.258 Y127.117 E40.84574
G1 X103.684 Y125.619 E40.95779
G1 X103.667 Y125.467 E40.96847
G1 X103.729 Y125.326 E40.97923
G1 F3000 E39.57923
G0 F3600 X119.148 Y131.121
G1 F3000 E40.97923
G1 F1500 X119.336 Y130.831 E41.00337
G1 X119.586 Y130.592 E41.02753
G1 X119.885 Y130.417 E41.05173
G1 X120.215 Y130.315 E41.07585
G1 X120.491 Y130.289 E41.09522
G1 X193.089 Y130.289 E46.16592
G1 X193.089 Y114.889 E47.24155
G1 X193.129 Y114.545 E47.26574
G1 X193.246 Y114.22 E47.28986
G1 X193.435 Y113.93 E47.31404
G1 X193.685 Y113.692 E47.33815
G1 X193.984 Y113.517 E47.36235
G1 X194.394 Y113.389 E47.39235
G1 X195.736 Y113.389 E47.48608
G1 X196.08 Y113.429 E47.51027
G1 X196.405 Y113.546 E47.5344
G1 X196.695 Y113.735 E47.55858
G1 X196.933 Y113.985 E47.58268
G1 X197.108 Y114.284 E47.60688
G1 X197.236 Y114.694 E47.63688
G1 X197.236 Y133.089 E48.92171
G1 X197.196 Y133.433 E48.94589
G1 X197.079 Y133.758 E48.97002
G1 X196.89 Y134.048 E48.9942
G1 X196.64 Y134.286 E49.01831
G1 X196.341 Y134.461 E49.0425
G1 X195.931 Y134.589 E49.0725
G1 X120.492 Y134.589 E54.34164
G1 X120.148 Y134.549 E54.36583
G1 X119.823 Y134.432 E54.38995
G1 X119.533 Y134.243 E54.41413
G1 X119.295 Y133.993 E54.43824
G1 X119.12 Y133.694 E54.46244
G1 X118.992 Y133.284 E54.49244
G1 X118.991 Y131.79 E54.59679
G1 X119.031 Y131.447 E54.62091
G1 X119.148 Y131.121 E54.6451
G0 F3600 X119.746 Y131.284
G1 F1500 X119.928 Y131.087 E54.66383
G1 X120.159 Y130.952 E54.68252
G1 X120.491 Y130.889 E54.70612
G1 X193.689 Y130.889 E59.81873
G1 X193.689 Y114.889 E60.93627
G1 X193.729 Y114.624 E60.95499
G1 X193.845 Y114.383 E60.97367
G1 X194.026 Y114.187 E60.99231
G1 X194.258 Y114.052 E61.01106
G1 X194.589 Y113.989 E61.03459
G1 X195.736 Y113.989 E61.1147
G1 X196.001 Y114.029 E61.13342
G1 X196.242 Y114.145 E61.1521
G1 X196.438 Y114.326 E61.17074
G1 X196.573 Y114.558 E61.18949
G1 X196.636 Y114.889 E61.21302
G1 X196.636 Y133.089 E62.48422
G1 X196.596 Y133.354 E62.50294
G1 X196.48 Y133.595 E62.52162
G1 X196.299 Y133.791 E62.54026
G1 X196.067 Y133.926 E62.55901
G1 X195.736 Y133.989 E62.58254
G1 X120.492 Y133.989 E67.83805
G1 X120.227 Y133.949 E67.85677
G1 X119.986 Y133.833 E67.87545
G1 X119.79 Y133.652 E67.89409
G1 X119.655 Y133.42 E67.91284
G1 X119.592 Y133.09 E67.9363
G1 X119.591 Y131.79 E68.0271
G1 X119.631 Y131.525 E68.04582
G1 X119.746 Y131.284 E68.06447
G0 F3600 X120.23 Y131.641
G1 F1500 X120.338 Y131.531 E68.07524
G1 X120.491 Y131.489 E68.08632
G1 X194.289 Y131.489 E73.24084
G1 X194.289 Y114.889 E74.40029
G1 X194.328 Y114.74 E74.41104
G1 X194.436 Y114.631 E74.42176
G1 X194.589 Y114.589 E74.43284
G1 X195.736 Y114.589 E74.51296
G1 X195.885 Y114.628 E74.52371
G1 X195.994 Y114.736 E74.53443
G1 X196.036 Y114.889 E74.54551
G1 X196.036 Y133.089 E75.81672
G1 X195.997 Y133.238 E75.82747
G1 X195.889 Y133.347 E75.83819
G1 X195.736 Y133.389 E75.84927
G1 X120.492 Y133.389 E81.10479
G1 X120.343 Y133.35 E81.11554
G1 X120.234 Y133.242 E81.12626
G1 X120.192 Y133.089 E81.13734
G1 X120.191 Y131.789 E81.22814
G1 X120.23 Y131.641 E81.23883
G1 F3000 E79.83883
G0 F3600 X117.28 Y131.4
;TYPE:SUPPORT
G1 F3000 E81.23883
G1 F1500 X113.531 Y131.4 E81.50069
G1 X113.4 Y131.323
G1 X113.4 Y128.892 E81.67048
G1 X113.587 Y129
G1 X109.396 Y129 E81.96321
G1 X109.2 Y128.886
G1 X109.2 Y126.467 E82.13217
G1 X109.431 Y126.6
G1 X103.994 Y126.6 E82.51192
G0 F3600 X103.8 Y126.089
G1 F1500 X103.8 Y125.143 E82.578
G0 F3600 X103.591 Y125.4
G1 F1500 X105.557 Y125.4 E82.71531
G1 X105.6 Y125.407
G1 X105.6 Y127.542 E82.86444
G0 F3600 X105 Y127.448
G1 F1500 X105 Y125.312 E83.01363
G0 F3600 X104.4 Y125.217
G1 F1500 X104.4 Y127.353 E83.16282
G1 X104.157 Y127.2
G1 X110.47 Y127.2 E83.60376
G1 X110.4 Y127.16
G1 X110.4 Y129.59 E83.77348
G1 X110.414 Y129.6
G1 X114.626 Y129.6 E84.06768
G1 X114.6 Y129.585
G1 X114.6 Y132.015 E84.2374
G1 X114.571 Y132
G1 X117.251 Y132 E84.42459
G0 F3600 X117.251 Y132.6
G1 F1500 X115.611 Y132.6 E84.53914
G1 X115.8 Y132.708
G1 X115.8 Y130.278 E84.70887
G1 X115.666 Y130.2
G1 X111.45 Y130.2 E85.00334
G1 X111.6 Y130.285
G1 X111.6 Y127.853 E85.1732
G1 X111.509 Y127.8
G1 X107.225 Y127.8 E85.47243
G1 X107.4 Y127.854
G1 X107.4 Y125.692 E85.62343
G0 F3600 X106.8 Y125.597
G1 F1500 X106.8 Y127.732 E85.77256
G0 F3600 X106.2 Y127.637
G1 F1500 X106.2 Y125.502 E85.92168
G0 F3600 X108 Y125.787
G1 F1500 X108 Y128.198 E86.09008
G0 F3600 X108.349 Y128.4
G1 F1500 X112.548 Y128.4 E86.38336
G1 X112.8 Y128.546
G1 X112.8 Y130.977 E86.55316
G0 F3600 X112.49 Y130.8
G1 F1500 X116.705 Y130.8 E86.84756
G0 F3600 X117 Y130.971
G1 F1500 X117 Y133.276 E87.00856
G1 X117.129 Y133.2
G1 X116.651 Y133.2 E87.04194
G1 X116.4 Y133.054
G1 X116.4 Y130.624 E87.21167
G0 F3600 X115.2 Y129.931
G1 F1500 X115.2 Y132.362 E87.38146
G0 F3600 X114 Y131.669
G1 F1500 X114 Y129.238 E87.55126
G0 F3600 X112.2 Y128.199
G1 F1500 X112.2 Y130.631 E87.72113
G0 F3600 X111 Y129.939
G1 F1500 X111 Y127.506 E87.89106
G0 F3600 X109.8 Y126.813
G1 F1500 X109.8 Y129.23 E88.05988
G0 F3600 X108.6 Y128.542
G1 F1500 X108.6 Y126.12 E88.22905
G1 X108.392 Y126
G1 X103.764 Y126 E88.5523
G1 F3000 E87.1523
;MESH:Part Studio 1 - Part 1 (12).3mf
G0 F3600 X119.827 Y132.404
G0 X120.817 Y132.764
;TYPE:WALL-OUTER
G1 F3000 E88.5523
G1 F1382.5 X157.684 Y132.763 E91.3462
G1 F1378.3 X194.551 Y132.762 E94.14868
G1 F1285.7 X195.364 Y132.717 E94.21503
G1 F1208.1 X195.364 Y132.344 E94.24738
G1 F1361.6 X195.448 Y131.738 E94.29446
G1 F1565.2 X195.45 Y115.463 E95.38384
G1 F1570.7 X195.45 Y115.176 E95.40298
G1 X194.876 Y115.176 E95.44127
G1 F1565.2 X194.874 Y131.689 E96.54659
G1 F1361.6 X194.766 Y132.047 E96.57536
G1 F1285.7 X194.495 Y132.112 E96.59807
G1 F1378.3 X157.656 Y132.113 E99.39842
G1 F1382.5 X120.817 Y132.114 E102.1902
G1 F1384.6 X120.817 Y132.764 E102.23939
G1 F3000 E100.83939
;MESH:NONMESH
G0 F600 X120.817 Y132.764 Z0.52
G0 F3600 X121.162 Y132.418
G0 X119.827 Y132.404
G0 X104.4 Y125.703
;TIME_ELAPSED:68.808669
;LAYER:1
M106 S255
;TYPE:SUPPORT
G1 F3000 E102.23939
G1 F2250 X104.4 Y126.315 E102.27602
G1 X104.15 Y125.663 E102.31783
G1 X105 Y125.798 E102.36936
G1 X105 Y126.962 E102.43904
G1 X105.6 Y127.056 E102.4754
G1 X105.6 Y125.893 E102.54503
G1 X106.2 Y125.988 E102.5814
G1 X106.2 Y127.151 E102.65102
G1 X106.8 Y127.245 E102.68738
G1 X106.8 Y126.083 E102.75695
G1 X107.4 Y126.178 E102.79332
G1 X107.4 Y127.34 E102.86288
G1 X107.495 Y127.355 E102.86864
G1 X108 Y127.645 E102.90351
G1 X108 Y126.329 E102.98229
G1 X108.6 Y126.675 E103.02376
G1 X108.6 Y127.989 E103.10243
G1 X109.2 Y128.334 E103.14386
G1 X109.2 Y127.021 E103.22247
G1 X109.8 Y127.368 E103.26396
G1 X109.8 Y128.678 E103.34239
G1 X110.4 Y129.027 E103.38395
G1 X110.4 Y127.714 E103.46255
G1 X111 Y128.061 E103.50405
G1 X111 Y129.384 E103.58326
G1 X111.6 Y129.73 E103.62472
G1 X111.6 Y128.407 E103.70393
G1 X112.2 Y128.753 E103.74539
G1 X112.2 Y130.076 E103.8246
G1 X112.8 Y130.422 E103.86606
G1 X112.8 Y129.1 E103.94521
G1 X113.4 Y129.446 E103.98668
G1 X113.4 Y130.768 E104.06582
G1 X114 Y131.114 E104.10729
G1 X114 Y129.793 E104.18637
G1 X114.6 Y130.139 E104.22784
G1 X114.6 Y131.46 E104.30692
G1 X115.2 Y131.806 E104.34839
G1 X115.2 Y130.485 E104.42748
G1 X115.8 Y130.832 E104.46897
G1 X115.8 Y132.152 E104.548
G1 X116.4 Y132.498 E104.58946
G1 X116.4 Y131.178 E104.66849
G1 X117 Y131.525 E104.70998
G1 X117 Y132.844 E104.78895
G1 X117.476 Y133.119 E104.82186
G1 X118.026 Y133.119 E104.85479
G1 X118.025 Y131.759 E104.93621
G1 X117.6 Y131.759 E104.96165
G1 X117.6 Y133.119 E105.04308
G1 F3000 E103.64308
;MESH:Part Studio 1 - Part 1 (12).3mf
G0 F5400 X120.26 Y132.625
G0 X120.046 Y132.839
;TYPE:WALL-OUTER
G1 F3000 E105.04308
