; HEADER_BLOCK_START
; generated by OrcaSlicer 1.7.0 on 2023-10-27 at 16:27:02
; total layer number: 214
; HEADER_BLOCK_END

; THUMBNAIL_BLOCK_START
; THUMBNAIL_BLOCK_END

; external perimeters extrusion width = 0.60mm
; perimeters extrusion width = 0.60mm
; infill extrusion width = 0.60mm
; solid infill extrusion width = 0.60mm
; top infill extrusion width = 0.60mm
; first layer extrusion width = 0.62mm

; EXECUTABLE_BLOCK_START
M73 P0 R52
;TYPE:Custom
M104 S230 ; set extruder temp
M140 S60 ; set bed temp
M190 S60 ; wait for bed temp
M109 S230 ; wait for extruder temp

G28 ; home all
BED_MESH_PROFILE LOAD=default;

G1 Z2.0 F3000 ; Move Z Axis up little to prevent scratching of Heat Bed
G1 X0.1 Y5 Z0.28 F5000.0 ; Move to start position


G92 E0 ; Reset Extruder
G1 Z2.0 F3000 ; Move Z Axis up little to prevent scratching of Heat Bed
G1 X0.1 Y10 Z0.28 F5000.0 ; Move to start position

G1 X0.1 Y200 Z0.28 F1500.0 E15 ; Draw the first line
G1 X0.4 Y200 Z0.28 F5000.0 ; Move to side a little
G1 X0.4 Y10 Z0.28 F1500.0 E30 ; Draw the second line


G92 E0 ; Reset Extruder
G1 Z0.5 F3000 ; Move Z Axis up little to prevent scratching of Heat Bed
M117 Godmode is enabled
G90
G21
M83 ; use relative distances for extrusion
; filament start gcode
M106 S0
;LAYER_CHANGE
;Z:0.26
;HEIGHT:0.26
;BEFORE_LAYER_CHANGE
;0.26
G92 E0

G1 E-1.15 F3600
;_SET_FAN_SPEED_CHANGING_LAYER
M104 S230 ; set nozzle temperature
G1 X121.28 Y109.197 F9000
G1 Z.26
G1 E1.15 F2400
;TYPE:Skirt
;WIDTH:0.62
G1 F1200
G1 X122.802 Y107.972 E.11911
G1 X123.935 Y107.368 E.07834
G1 X125.146 Y106.939 E.07834
G1 X126.407 Y106.693 E.07834
G1 X127.251 Y106.631 E.05159
G1 X157.911 Y106.63 E1.86991
G1 X159.787 Y106.788 E.11483
G1 X161.025 Y107.076 E.07749
G1 X162.266 Y107.558 E.0812
G1 X163.873 Y108.564 E.11564
G1 X164.819 Y109.433 E.07834
G1 X165.984 Y111 E.11911
G1 X166.545 Y112.156 E.07834
G1 X166.928 Y113.382 E.07834
G1 X167.158 Y115.337 E.12008
G1 X167.158 Y124.663 E.56874
G1 X167.006 Y126.247 E.09704
G1 X166.433 Y128.114 E.11911
G1 X165.489 Y129.758 E.11564
G1 X164.656 Y130.736 E.07834
G1 X163.134 Y131.96 E.11911
G1 X162.001 Y132.565 E.07834
G1 X160.342 Y133.098 E.10622
G1 X158.972 Y133.313 E.08461
G1 X157.954 Y133.369 E.06216
G1 X127.113 Y133.361 E1.88095
G1 X125.836 Y133.22 E.07834
G1 X124.594 Y132.891 E.07834
G1 X122.833 Y132.047 E.11911
G1 X121.347 Y130.87 E.11564
G1 X120.122 Y129.348 E.11911
G1 X119.29 Y127.644 E.11564
G1 X118.948 Y126.406 E.07834
G1 X118.797 Y125.269 E.06997
G1 X118.778 Y115.27 E.60982
G1 X118.839 Y114.293 E.05968
G1 X119.259 Y112.444 E.11564
G1 X120.103 Y110.683 E.11911
G1 X121.243 Y109.244 E.11198
G1 X121.69 Y109.656 F9000
G1 F1200
G1 X122.156 Y109.15 E.04192
G1 X123.58 Y108.17 E.10543
G1 X125.316 Y107.477 E.114
G1 X126.495 Y107.251 E.07323
G1 X127.274 Y107.195 E.04762
G1 X157.911 Y107.194 E1.8685
G1 X159.712 Y107.347 E.11022
G1 X160.885 Y107.622 E.07351
G1 X162.041 Y108.075 E.0757
G1 X163.507 Y108.992 E.10543
G1 X164.393 Y109.802 E.07323
G1 X165.508 Y111.302 E.114
G1 X166.207 Y112.884 E.10543
G1 X166.494 Y114.129 E.07797
G1 X166.594 Y115.337 E.07394
G1 X166.594 Y124.663 E.56874
G1 X166.534 Y125.597 E.05711
G1 X166.307 Y126.776 E.07323
G1 X165.678 Y128.387 E.10543
G1 X164.63 Y129.934 E.114
G1 X163.367 Y131.115 E.10543
G1 X162.356 Y131.763 E.07323
G1 X161.145 Y132.288 E.08052
G1 X160.191 Y132.554 E.0604
G1 X158.903 Y132.753 E.07951
G1 X157.931 Y132.805 E.05935
G1 X127.42 Y132.808 E1.8608
G1 X126.485 Y132.748 E.05711
G1 X124.8 Y132.365 E.10543
G1 X123.114 Y131.558 E.114
G1 X122.149 Y130.844 E.07323
G1 X121.3 Y129.994 E.07323
G1 X120.32 Y128.57 E.10543
G1 X119.627 Y126.834 E.114
G1 X119.36 Y125.246 E.09823
G1 X119.342 Y115.27 E.60841
G1 X119.481 Y113.811 E.08937
G1 X120.029 Y112.024 E.114
G1 X120.89 Y110.525 E.10543
G1 X121.65 Y109.7 E.06842
G1 E-.805 F3600
;WIPE_START
G1 F1200
G1 X122.156 Y109.15 E-.25785
G1 X122.364 Y109.007 E-.08715
;WIPE_END
G1 X124.308 Y112.403 F9000
G1 E1.15 F2400
;TYPE:Brim
G1 F1200
M73 P1 R52
G1 X124.768 Y111.974 E.03838
G1 X125.286 Y111.617 E.03838
G1 X125.852 Y111.341 E.03838
G1 X126.452 Y111.151 E.03838
G1 X127.078 Y111.053 E.03867
G1 X127.426 Y111.038 E.02122
G1 X157.903 Y111.04 E1.85872
G1 X158.634 Y111.083 E.04468
G1 X159.182 Y111.157 E.03371
G1 X159.912 Y111.344 E.04598
G1 X160.488 Y111.594 E.03828
G1 X161.021 Y111.928 E.03838
G1 X161.499 Y112.337 E.03838
G1 X161.911 Y112.813 E.03838
G1 X162.248 Y113.344 E.03838
G1 X162.503 Y113.92 E.03838
G1 X162.668 Y114.524 E.03819
G1 X162.748 Y115.351 E.0507
G1 X162.748 Y124.652 E.56727
G1 X162.7 Y125.29 E.03902
G1 X162.561 Y125.904 E.03838
G1 X162.332 Y126.49 E.03838
G1 X162.019 Y127.036 E.03838
G1 X161.628 Y127.529 E.03838
G1 X161.168 Y127.959 E.03838
G1 X160.65 Y128.316 E.03838
G1 X160.089 Y128.59 E.03809
G1 X159.18 Y128.843 E.05754
G1 X158.442 Y128.934 E.04535
G1 X157.778 Y128.962 E.04051
G1 X127.43 Y128.962 E1.85085
G1 X126.792 Y128.914 E.03902
G1 X126.179 Y128.775 E.03838
G1 X125.592 Y128.546 E.03838
G1 X125.047 Y128.233 E.03838
G1 X124.553 Y127.842 E.03838
G1 X124.124 Y127.382 E.03838
G1 X123.767 Y126.864 E.03838
G1 X123.491 Y126.298 E.03838
G1 X123.301 Y125.698 E.03838
G1 X123.203 Y125.072 E.03867
G1 X123.188 Y124.724 E.02122
G1 X123.188 Y115.28 E.57597
G1 X123.236 Y114.642 E.03902
M73 P1 R51
G1 X123.375 Y114.029 E.03838
G1 X123.604 Y113.442 E.03838
G1 X123.917 Y112.897 E.03838
G1 X124.271 Y112.45 E.03472
G1 X124.713 Y112.803 F9000
G1 F1200
G1 X124.734 Y112.778 E.00197
G1 X125.113 Y112.423 E.03171
G1 X125.561 Y112.112 E.03324
G1 X126.05 Y111.872 E.03324
G1 X126.594 Y111.7 E.03477
G1 X127.124 Y111.617 E.03275
G1 X127.441 Y111.603 E.01933
G1 X157.881 Y111.604 E1.85649
G1 X158.573 Y111.645 E.04228
G1 X159.064 Y111.71 E.0302
G1 X159.715 Y111.876 E.04099
G1 X160.213 Y112.089 E.033
G1 X160.676 Y112.377 E.03324
G1 X161.109 Y112.748 E.03477
G1 X161.464 Y113.161 E.03324
G1 X161.742 Y113.6 E.03171
G1 X161.964 Y114.098 E.03324
G1 X162.112 Y114.64 E.03431
G1 X162.184 Y115.386 E.0457
G1 X162.184 Y124.625 E.56344
G1 X162.138 Y125.219 E.03632
G1 X162.023 Y125.726 E.03171
G1 X161.826 Y126.234 E.03324
G1 X161.543 Y126.728 E.03477
G1 X161.203 Y127.155 E.03324
G1 X160.823 Y127.51 E.03171
G1 X160.375 Y127.82 E.03324
G1 X159.902 Y128.053 E.03218
G1 X159.057 Y128.29 E.05352
G1 X158.402 Y128.371 E.04019
G1 X157.763 Y128.397 E.03902
G1 X127.445 Y128.397 E1.84903
G1 X126.889 Y128.355 E.03402
G1 X126.357 Y128.237 E.03324
G1 X125.849 Y128.04 E.03324
G1 X125.375 Y127.77 E.03324
G1 X124.947 Y127.434 E.03324
G1 X124.573 Y127.037 E.03324
G1 X124.262 Y126.589 E.03324
G1 X124.022 Y126.1 E.03324
G1 X123.85 Y125.556 E.03477
G1 X123.767 Y125.026 E.03275
G1 X123.753 Y124.709 E.01933
G1 X123.753 Y115.308 E.57338
G1 X123.795 Y114.739 E.03479
G1 X123.921 Y114.183 E.03477
G1 X124.121 Y113.676 E.03324
G1 X124.394 Y113.204 E.03324
G1 X124.676 Y112.85 E.02761
G1 X125.117 Y113.205 F9000
G1 F1200
G1 X125.158 Y113.154 E.004
G1 X125.479 Y112.856 E.02669
G1 X125.838 Y112.607 E.02664
G1 X126.249 Y112.402 E.02802
G1 X126.736 Y112.249 E.03112
G1 X127.171 Y112.18 E.0269
G1 X127.457 Y112.167 E.01744
G1 X157.86 Y112.169 E1.8542
G1 X158.513 Y112.206 E.03991
G1 X158.947 Y112.264 E.02672
G1 X159.521 Y112.408 E.03606
G1 X159.939 Y112.586 E.02773
G1 X160.33 Y112.827 E.02801
G1 X160.699 Y113.14 E.02951
G1 X161.016 Y113.508 E.02963
G1 X161.249 Y113.879 E.02669
G1 X161.426 Y114.276 E.02654
G1 X161.557 Y114.757 E.03037
G1 X161.62 Y115.421 E.04072
G1 X161.619 Y124.597 E.55959
G1 X161.58 Y125.122 E.03211
G1 X161.484 Y125.549 E.02667
G1 X161.32 Y125.978 E.02806
G1 X161.067 Y126.42 E.03108
G1 X160.795 Y126.761 E.02657
G1 X160.477 Y127.061 E.02669
G1 X160.098 Y127.326 E.02814
G1 X159.713 Y127.517 E.02623
G1 X158.933 Y127.737 E.04946
G1 X158.349 Y127.808 E.03586
G1 X157.748 Y127.833 E.0367
G1 X127.46 Y127.832 E1.84719
G1 X126.984 Y127.797 E.0291
G1 X126.533 Y127.698 E.02814
G1 X126.103 Y127.534 E.0281
G1 X125.702 Y127.307 E.0281
G1 X125.338 Y127.024 E.0281
G1 X125.021 Y126.69 E.0281
G1 X124.757 Y126.312 E.0281
G1 X124.552 Y125.901 E.02802
G1 X124.399 Y125.414 E.03112
G1 X124.33 Y124.979 E.0269
G1 X124.317 Y124.693 E.01744
G1 X124.317 Y115.335 E.57075
G1 X124.353 Y114.835 E.03054
G1 X124.466 Y114.338 E.03111
G1 X124.637 Y113.911 E.02802
G1 X124.869 Y113.513 E.0281
G1 X125.079 Y113.252 E.02048
G1 X125.518 Y113.608 F9000
G1 F1200
G1 X125.581 Y113.531 E.00606
G1 X125.843 Y113.29 E.02171
G1 X126.137 Y113.089 E.02172
G1 X126.474 Y112.923 E.02288
G1 X126.878 Y112.798 E.02581
G1 X127.22 Y112.744 E.02111
G1 X127.474 Y112.731 E.01555
G1 X157.838 Y112.733 E1.85185
G1 X158.453 Y112.768 E.03755
G1 X158.831 Y112.818 E.02327
G1 X159.328 Y112.942 E.03119
G1 X159.668 Y113.084 E.02249
G1 X159.987 Y113.278 E.02278
G1 X160.309 Y113.551 E.02577
G1 X160.568 Y113.855 E.02432
G1 X160.744 Y114.135 E.02016
G1 X160.888 Y114.454 E.02137
G1 X161.001 Y114.872 E.02642
G1 X161.055 Y115.456 E.03575
G1 X161.055 Y124.569 E.55578
G1 X161.021 Y125.026 E.02798
G1 X160.945 Y125.374 E.02167
G1 X160.814 Y125.724 E.0228
G1 X160.591 Y126.112 E.02733
G1 X160.37 Y126.386 E.02144
G1 X160.128 Y126.614 E.02026
G1 X159.82 Y126.832 E.02306
G1 X159.524 Y126.981 E.02021
G1 X158.809 Y127.183 E.04533
G1 X158.296 Y127.246 E.03149
G1 X157.733 Y127.269 E.0344
G1 X127.475 Y127.268 E1.84537
G1 X127.078 Y127.238 E.02426
G1 X126.708 Y127.159 E.02309
G1 X126.355 Y127.026 E.02296
G1 X126.027 Y126.843 E.02296
G1 X125.729 Y126.613 E.02296
G1 X125.468 Y126.341 E.02296
G1 X125.251 Y126.034 E.02296
G1 X125.073 Y125.677 E.02432
G1 X124.948 Y125.272 E.02581
G1 X124.894 Y124.93 E.02111
G1 X124.881 Y124.676 E.01555
G1 X124.881 Y115.361 E.56807
G1 X124.912 Y114.931 E.02629
G1 X125.012 Y114.494 E.02738
G1 X125.151 Y114.148 E.02271
G1 X125.343 Y113.824 E.02296
G1 X125.48 Y113.655 E.01332
G1 X125.934 Y114.004 F9000
G1 F1200
G1 X126.002 Y113.915 E.00686
G1 X126.118 Y113.806 E.00968
G1 X126.377 Y113.616 E.01959
G1 X126.735 Y113.436 E.02445
G1 X127.111 Y113.329 E.02385
G1 X127.449 Y113.295 E.02071
G1 X157.771 Y113.295 E1.84925
G1 X158.356 Y113.325 E.03575
G1 X158.748 Y113.376 E.02406
G1 X159.21 Y113.505 E.02928
G1 X159.503 Y113.646 E.01984
G1 X159.745 Y113.807 E.01772
G1 X160.064 Y114.134 E.02787
G1 X160.2 Y114.349 E.01551
G1 X160.359 Y114.691 E.02299
G1 X160.417 Y114.894 E.01287
G1 X160.48 Y115.259 E.02262
G1 X160.491 Y124.622 E.57099
G1 X160.403 Y125.173 E.03403
G1 X160.321 Y125.428 E.01638
G1 X160.133 Y125.775 E.02405
G1 X159.922 Y126.029 E.02015
G1 X159.727 Y126.194 E.01559
G1 X159.372 Y126.414 E.02544
G1 X159.029 Y126.552 E.02254
G1 X158.814 Y126.611 E.01362
G1 X158.343 Y126.676 E.029
G1 X157.84 Y126.703 E.03069
G1 X127.461 Y126.705 E1.85277
G1 X126.91 Y126.617 E.03403
G1 X126.652 Y126.534 E.01656
G1 X126.41 Y126.414 E.01644
G1 X126.145 Y126.221 E.01998
G1 X125.839 Y125.884 E.02775
G1 X125.693 Y125.648 E.01694
G1 X125.586 Y125.415 E.01564
G1 X125.501 Y125.151 E.0169
G1 X125.458 Y124.89 E.01612
G1 X125.445 Y115.311 E.5842
G1 X125.533 Y114.76 E.03405
G1 X125.616 Y114.502 E.01656
G1 X125.736 Y114.26 E.01646
G1 X125.897 Y114.051 E.01607
G1 X126.328 Y114.406 F9000
G1 F1200
G1 X126.442 Y114.267 E.01099
G1 X126.722 Y114.063 E.0211
G1 X126.98 Y113.944 E.01735
G1 X127.162 Y113.891 E.01157
G1 X127.441 Y113.859 E.0171
G1 X157.775 Y113.859 E1.85003
G1 X158.332 Y113.889 E.03403
G1 X158.683 Y113.936 E.02158
G1 X158.953 Y114.008 E.017
G1 X159.27 Y114.16 E.02146
G1 X159.427 Y114.272 E.01179
G1 X159.588 Y114.438 E.01409
G1 X159.689 Y114.588 E.01103
G1 X159.82 Y114.858 E.01828
G1 X159.86 Y114.981 E.00788
G1 X159.927 Y115.37 E.02407
G1 X159.927 Y124.635 E.56508
G1 X159.846 Y125.082 E.02773
G1 X159.787 Y125.245 E.01055
G1 X159.696 Y125.419 E.01199
G1 X159.554 Y125.601 E.01409
G1 X159.419 Y125.722 E.01103
G1 X159.175 Y125.885 E.01792
G1 X158.809 Y126.032 E.02401
G1 X158.676 Y126.064 E.00836
G1 X158.265 Y126.117 E.02527
G1 X157.809 Y126.14 E.02789
G1 X127.448 Y126.141 E1.85165
G1 X127 Y126.06 E.02773
G1 X126.838 Y126.001 E.01055
G1 X126.663 Y125.91 E.01201
G1 X126.482 Y125.769 E.01398
G1 X126.316 Y125.584 E.01515
G1 X126.21 Y125.422 E.01183
G1 X126.094 Y125.17 E.01691
G1 X126.04 Y124.986 E.01168
G1 X126.016 Y124.806 E.0111
G1 X126.009 Y115.298 E.57988
G1 X126.09 Y114.85 E.02773
G1 X126.149 Y114.687 E.01055
G1 X126.242 Y114.511 E.01217
G1 X126.29 Y114.452 E.00462
G1 X126.749 Y114.758 F9000
G1 F1200
G1 X126.842 Y114.664 E.00803
G1 X126.948 Y114.58 E.00828
G1 X127.227 Y114.451 E.01875
G1 X127.431 Y114.424 E.01256
G1 X157.78 Y114.424 E1.85089
G1 X158.25 Y114.447 E.02872
G1 X158.618 Y114.497 E.02264
G1 X158.805 Y114.552 E.01189
G1 X158.93 Y114.61 E.00839
G1 X159.111 Y114.74 E.01362
M73 P2 R51
G1 X159.227 Y114.912 E.01268
G1 X159.307 Y115.092 E.01199
G1 X159.363 Y115.355 E.0164
G1 X159.363 Y124.65 E.56688
G1 X159.293 Y124.973 E.02012
G1 X159.189 Y125.17 E.01362
G1 X159.034 Y125.309 E.01268
G1 X158.868 Y125.412 E.01198
G1 X158.613 Y125.504 E.01648
G1 X158.187 Y125.558 E.02623
G1 X157.78 Y125.576 E.0248
G1 X127.433 Y125.576 E1.85085
G1 X127.11 Y125.507 E.02012
G1 X126.912 Y125.403 E.01363
G1 X126.728 Y125.198 E.01685
G1 X126.601 Y124.923 E.01845
G1 X126.574 Y124.719 E.01256
G1 X126.574 Y115.283 E.57549
G1 X126.643 Y114.96 E.02012
G1 X126.721 Y114.811 E.01028
G1 X127.187 Y115.111 F9000
G1 F1200
G1 X127.316 Y115.007 E.01013
G1 X127.42 Y114.988 E.00642
G1 X157.784 Y114.988 E1.85185
G1 X158.167 Y115.005 E.02341
G1 X158.555 Y115.058 E.02385
G1 X158.706 Y115.128 E.01013
G1 X158.799 Y115.337 E.01397
G1 X158.798 Y124.663 E.56874
G1 X158.75 Y124.821 E.01013
G1 X158.555 Y124.942 E.01397
G1 X158.167 Y124.995 E.02384
G1 X157.784 Y125.012 E.02341
G1 X127.42 Y125.012 E1.85185
G1 X127.261 Y124.963 E.01013
G1 X127.157 Y124.834 E.01013
G1 X127.138 Y124.73 E.00642
G1 X127.138 Y115.27 E.57696
G1 X127.169 Y115.168 E.00647
G1 E-.805 F3600
;WIPE_START
G1 F1200
G1 X127.316 Y115.007 E-.07532
G1 X127.42 Y114.988 E-.03634
G1 X128.096 Y114.988 E-.23334
;WIPE_END
G1 X156.978 Y123.192 F9000
G1 E1.15 F2400
;TYPE:Inner wall
;WIDTH:0.62
G1 F1200
G1 X132.15 Y123.192 E1.4385
G1 X128.958 Y123.192 E.18491
G1 X128.958 Y116.808 E.36984
G1 X156.978 Y116.812 E1.62342
G1 X156.978 Y123.132 E.36617
G1 X157.542 Y123.756 F9000
G1 F1200
G1 X132.15 Y123.756 E1.47119
G1 X128.394 Y123.756 E.2176
G1 X128.394 Y116.244 E.43522
G1 X157.542 Y116.248 E1.6888
G1 X157.542 Y123.696 E.43155
G1 X157.77 Y124.32 F9000
;TYPE:Outer wall
G1 F1200
G1 X132.15 Y124.32 E1.4844
G1 X127.83 Y124.32 E.25029
G1 X127.83 Y115.68 E.5006
G1 X157.882 Y115.683 E1.74117
G1 X158.106 Y115.703 E.01305
G1 X158.106 Y124.293 E.49772
G1 X157.83 Y124.315 E.01607
G1 E-.805 F3600
;WIPE_START
G1 F1200
G1 X156.83 Y124.316 E-.345
;WIPE_END
G1 X155.647 Y116.992 F9000
G1 E1.15 F2400
;TYPE:Bottom surface
;WIDTH:0.624689
G1 F2100
M106 S0
G1 X156.544 Y117.889 E.0726
G1 X156.544 Y118.693 E.04606
G1 X155.096 Y117.246 E.11719
G1 X154.292 Y117.246 E.04607
G1 X156.544 Y119.498 E.18233
G1 X156.544 Y120.302 E.04606
G1 X153.487 Y117.246 E.24748
G1 X152.682 Y117.246 E.04607
G1 X156.544 Y121.107 E.31263
G1 X156.544 Y121.911 E.04606
G1 X151.878 Y117.246 E.37777
G1 X151.073 Y117.245 E.04607
G1 X156.544 Y122.716 E.44292
G1 X156.544 Y122.757 E.00237
G1 X155.78 Y122.757 E.04369
G1 X150.268 Y117.245 E.44628
G1 X149.464 Y117.245 E.04607
G1 X154.976 Y122.757 E.44629
G1 X154.171 Y122.757 E.04606
G1 X148.659 Y117.245 E.4463
G1 X147.855 Y117.245 E.04607
G1 X153.367 Y122.757 E.4463
G1 X152.562 Y122.757 E.04606
G1 X147.05 Y117.245 E.44631
G1 X146.245 Y117.245 E.04607
G1 X151.758 Y122.757 E.44632
G1 X150.953 Y122.757 E.04606
G1 X145.441 Y117.245 E.44633
G1 X144.636 Y117.245 E.04607
G1 X150.149 Y122.757 E.44633
G1 X149.344 Y122.757 E.04606
G1 X143.831 Y117.245 E.44634
G1 X143.027 Y117.244 E.04607
G1 X148.54 Y122.757 E.44635
G1 X147.735 Y122.757 E.04606
G1 X142.222 Y117.244 E.44636
G1 X141.418 Y117.244 E.04607
G1 X146.931 Y122.757 E.44636
G1 X146.126 Y122.757 E.04606
G1 X140.613 Y117.244 E.44637
G1 X139.808 Y117.244 E.04607
G1 X145.321 Y122.757 E.44638
G1 X144.517 Y122.757 E.04606
G1 X139.004 Y117.244 E.44639
G1 X138.199 Y117.244 E.04607
G1 X143.712 Y122.757 E.44639
G1 X142.908 Y122.757 E.04606
G1 X137.394 Y117.244 E.4464
