; HEADER_BLOCK_START
; generated by OrcaSlicer 1.7.0 on 2023-10-21 at 20:56:24
; total layer number: 50
; HEADER_BLOCK_END

; THUMBNAIL_BLOCK_START
; THUMBNAIL_BLOCK_END

; external perimeters extrusion width = 0.60mm
; perimeters extrusion width = 0.60mm
; infill extrusion width = 0.60mm
; solid infill extrusion width = 0.60mm
; top infill extrusion width = 0.60mm
; first layer extrusion width = 0.62mm

; EXECUTABLE_BLOCK_START
EXCLUDE_OBJECT_DEFINE NAME=Test.STL_id_0_copy_0 CENTER=140,120 POLYGON=[[116.559,106.813],[163.441,106.813],[163.441,133.187],[116.559,133.187],[116.559,106.813]]
M73 P0 R12
;TYPE:Custom
M104 S216 ; set extruder temp
M140 S60 ; set bed temp
M190 S60 ; wait for bed temp
M109 S216 ; wait for extruder temp

G28 ; home all
BED_MESH_PROFILE LOAD=default;

G1 Z2.0 F3000 ; Move Z Axis up little to prevent scratching of Heat Bed
G1 X0.1 Y5 Z0.28 F5000.0 ; Move to start position


G92 E0 ; Reset Extruder
G1 Z2.0 F3000 ; Move Z Axis up little to prevent scratching of Heat Bed
G1 X0.1 Y10 Z0.28 F5000.0 ; Move to start position

G1 X0.1 Y200 Z0.28 F1500.0 E15 ; Draw the first line
G1 X0.4 Y200 Z0.28 F5000.0 ; Move to side a little
M73 P1 R12
G1 X0.4 Y10 Z0.28 F1500.0 E30 ; Draw the second line


G92 E0 ; Reset Extruder
G1 Z0.5 F3000 ; Move Z Axis up little to prevent scratching of Heat Bed
M117 Godmode is enabled
G90
G21
M83 ; use relative distances for extrusion
; filament start gcode
M106 S0
;LAYER_CHANGE
;Z:0.26
;HEIGHT:0.26
;BEFORE_LAYER_CHANGE
;0.26
G92 E0

M73 P2 R11
G1 E-1.15 F3600
;_SET_FAN_SPEED_CHANGING_LAYER
G1 X113.936 Y103.625 F9000
G1 Z.26
G1 E1.15 F2400
;TYPE:Skirt
;WIDTH:0.62
G1 F1200
G1 X115.548 Y102.81 E.11016
G1 X116.559 Y102.684 E.06216
G1 X163.441 Y102.684 E2.85922
G1 X165.203 Y103.08 E.11016
G1 X166.629 Y104.189 E.11016
G1 X167.443 Y105.801 E.11016
G1 X167.569 Y106.813 E.06216
G1 X167.569 Y133.187 E1.60851
G1 X167.174 Y134.95 E.11016
G1 X166.064 Y136.375 E.11016
M73 P3 R11
G1 X164.452 Y137.19 E.11016
G1 X163.441 Y137.316 E.06216
G1 X116.559 Y137.316 E2.85922
G1 X114.797 Y136.92 E.11016
G1 X113.371 Y135.811 E.11016
G1 X112.557 Y134.199 E.11016
G1 X112.431 Y133.187 E.06216
G1 X112.431 Y106.813 E1.60851
G1 X112.826 Y105.05 E.11016
G1 X113.899 Y103.673 E.1065
G1 X114.354 Y104.066 F9000
G1 F1200
G1 X114.485 Y103.914 E.01222
G1 X116.559 Y103.249 E.13284
G1 X163.441 Y103.249 E2.85922
G1 X165.071 Y103.643 E.10226
G1 X166.34 Y104.739 E.10226
G1 X167.005 Y106.813 E.13284
G1 X167.005 Y133.187 E1.60851
G1 X166.611 Y134.817 E.10226
M73 P4 R11
G1 X165.515 Y136.086 E.10226
G1 X163.441 Y136.751 E.13284
G1 X116.559 Y136.751 E2.85922
G1 X114.929 Y136.357 E.10226
G1 X113.66 Y135.261 E.10226
G1 X112.995 Y133.187 E.13284
G1 X112.995 Y106.813 E1.60851
G1 X113.389 Y105.183 E.10226
G1 X114.315 Y104.111 E.08638
G1 E-.805 F3600
;WIPE_START
G1 F1200
G1 X114.485 Y103.914 E-.08982
G1 X115.189 Y103.688 E-.25518
;WIPE_END
EXCLUDE_OBJECT_START NAME=Test.STL_id_0_copy_0
G1 X118.098 Y131.649 F9000
G1 E1.15 F2400
;TYPE:Inner wall
;WIDTH:0.62
G1 F1200
G1 X118.098 Y120.845 E.62597
G1 X118.294 Y121.55 E.04244
G1 X118.615 Y122.194 E.04168
G1 X119.03 Y122.794 E.04227
G1 X119.526 Y123.347 E.04302
G1 X120.085 Y123.848 E.04348
G1 X120.729 Y124.326 E.04649
G1 X121.429 Y124.761 E.04772
G1 X122.197 Y125.166 E.0503
G1 X123.036 Y125.543 E.05334
G1 X123.923 Y125.882 E.055
G1 X124.866 Y126.188 E.05746
G1 X125.863 Y126.461 E.05987
G1 X126.922 Y126.702 E.06293
G1 X128.004 Y126.901 E.06373
G1 X129.144 Y127.066 E.06672
M73 P5 R11
G1 X130.295 Y127.188 E.06705
G1 X131.443 Y127.268 E.06667
G1 X132.686 Y127.311 E.07208
G1 X133.919 Y127.309 E.07142
G1 X135.126 Y127.262 E.07
G1 X136.359 Y127.17 E.07165
G1 X137.587 Y127.03 E.07159
G1 X138.689 Y126.862 E.06459
G1 X139.59 Y126.691 E.05316
G1 X153.808 Y123.496 E.84429
G1 X154.747 Y123.235 E.05647
G1 X155.583 Y122.902 E.05212
G1 X156.342 Y122.473 E.05055
G1 X157.003 Y121.92 E.04994
G1 X157.33 Y121.526 E.02967
G1 X157.665 Y120.906 E.04082
G1 X157.782 Y120.47 E.02614
G1 X157.83 Y119.786 E.03975
G1 X157.704 Y119.211 E.03409
G1 X157.539 Y118.822 E.02447
G1 X157.294 Y118.426 E.02699
G1 X157.061 Y118.14 E.02139
G1 X156.419 Y117.585 E.04916
G1 X155.421 Y117.023 E.06633
G1 X154.611 Y116.72 E.05011
G1 X153.791 Y116.5 E.04918
G1 X139.544 Y113.3 E.846
G1 X138.688 Y113.138 E.05051
G1 X137.547 Y112.965 E.06687
G1 X136.358 Y112.83 E.06931
G1 X135.126 Y112.738 E.07159
G1 X133.918 Y112.691 E.07
G1 X132.294 Y112.702 E.09414
G1 X131.443 Y112.732 E.04934
G1 X130.295 Y112.812 E.06667
G1 X129.144 Y112.934 E.06705
G1 X127.95 Y113.108 E.06987
G1 X126.922 Y113.298 E.06058
G1 X125.859 Y113.54 E.06318
G1 X124.809 Y113.829 E.06307
G1 X123.846 Y114.146 E.05878
G1 X122.716 Y114.599 E.07053
G1 X122.113 Y114.875 E.03841
G1 X121.339 Y115.291 E.05091
G1 X120.625 Y115.746 E.04905
G1 X119.98 Y116.239 E.04704
G1 X119.409 Y116.774 E.04534
G1 X118.919 Y117.352 E.0439
G1 X118.511 Y117.988 E.04378
G1 X118.292 Y118.453 E.02976
G1 X118.098 Y119.154 E.04216
G1 X118.098 Y108.351 E.62589
G1 X161.902 Y108.351 E2.53799
G1 X161.902 Y112.901 E.26361
G1 X161.902 Y131.649 E1.08621
G1 X118.158 Y131.649 E2.53451
M73 P6 R11
G1 X117.533 Y132.213 F9000
G1 F1200
G1 X117.533 Y121.28 E.63345
;WIDTH:0.662004
G1 X117.554 Y121.133 E.00922
;WIDTH:0.704008
G1 X117.575 Y120.986 E.00986
;WIDTH:0.746011
G1 X117.596 Y120.84 E.0105
;WIDTH:0.788015
G1 X117.617 Y120.693 E.01114
;WIDTH:0.830019
G1 X117.638 Y120.546 E.01178
;WIDTH:0.850003
G1 X117.648 Y120.235 E.02544
;WIDTH:0.867651
G1 X117.657 Y119.456 E.06491
G1 X117.632 Y119.31 E.01235
;WIDTH:0.818121
G1 X117.608 Y119.164 E.01159
;WIDTH:0.768591
G1 X117.583 Y119.018 E.01084
;WIDTH:0.71906
G1 X117.558 Y118.872 E.01009
;WIDTH:0.66953
G1 X117.533 Y118.726 E.00933
;WIDTH:0.62
G1 X117.533 Y107.787 E.63379
G1 X162.467 Y107.787 E2.60337
G1 X162.467 Y112.901 E.2963
G1 X162.467 Y132.213 E1.1189
G1 X117.593 Y132.213 E2.59989
M73 P7 R11
G1 X116.969 Y132.777 F9000
;TYPE:Outer wall
G1 F1200
G1 X116.969 Y107.223 E1.48057
G1 X163.031 Y107.223 E2.66874
G1 X163.031 Y112.901 E.32899
G1 X163.031 Y132.777 E1.15159
G1 X117.029 Y132.777 E2.66527
G1 E-.805 F3600
;WIPE_START
M73 P8 R11
G1 F1200
G1 X117.027 Y131.777 E-.345
;WIPE_END
G1 X142.972 Y125.353 F9000
G1 E1.15 F2400
;TYPE:Inner wall
G1 F1200
G1 X139.466 Y126.14 E.20816
G1 X138.603 Y126.304 E.05089
G1 X137.501 Y126.472 E.06459
G1 X136.295 Y126.61 E.07033
G1 X135.084 Y126.7 E.07037
G1 X133.897 Y126.745 E.06882
G1 X132.686 Y126.747 E.07019
G1 X131.513 Y126.707 E.068
G1 X130.334 Y126.625 E.06845
G1 X129.172 Y126.501 E.06773
G1 X128.053 Y126.337 E.06551
G1 X126.99 Y126.14 E.06262
G1 X125.989 Y125.911 E.05953
G1 X125.016 Y125.644 E.05845
G1 X124.098 Y125.346 E.05592
G1 X123.239 Y125.016 E.05332
G1 X122.429 Y124.652 E.05145
G1 X121.693 Y124.263 E.04821
G1 X121.029 Y123.848 E.04536
G1 X120.424 Y123.397 E.04374
G1 X119.907 Y122.93 E.04039
G1 X119.455 Y122.422 E.03938
G1 X119.084 Y121.881 E.03802
G1 X118.804 Y121.31 E.03682
;WIDTH:0.662004
G1 X118.739 Y121.138 E.01145
;WIDTH:0.704008
G1 X118.674 Y120.966 E.01224
;WIDTH:0.746011
G1 X118.608 Y120.794 E.01304
;WIDTH:0.788015
G1 X118.543 Y120.622 E.01383
;WIDTH:0.830019
G1 X118.477 Y120.45 E.01462
;WIDTH:0.850003
G1 X118.443 Y120.235 E.0178
;WIDTH:0.867651
G1 X118.459 Y119.548 E.05731
G1 X118.516 Y119.411 E.01235
;WIDTH:0.818121
G1 X118.573 Y119.274 E.01159
;WIDTH:0.768591
G1 X118.63 Y119.137 E.01084
;WIDTH:0.71906
G1 X118.687 Y119.001 E.01009
;WIDTH:0.66953
G1 X118.744 Y118.864 E.00933
;WIDTH:0.62
G1 X119.022 Y118.229 E.04017
G1 X119.387 Y117.665 E.03892
G1 X119.833 Y117.146 E.03966
G1 X120.361 Y116.656 E.04175
G1 X120.964 Y116.197 E.04389
G1 X121.64 Y115.768 E.04635
G1 X122.378 Y115.373 E.04851
G1 X122.949 Y115.113 E.03634
G1 X124.048 Y114.672 E.06863
G1 X124.985 Y114.365 E.05711
G1 X125.985 Y114.09 E.06009
G1 X127.025 Y113.853 E.06181
G1 X128.085 Y113.657 E.06247
G1 X129.172 Y113.499 E.06362
G1 X130.304 Y113.378 E.06597
G1 X131.482 Y113.294 E.06844
G1 X132.298 Y113.266 E.04729
G1 X133.897 Y113.255 E.09266
G1 X135.084 Y113.3 E.06882
G1 X136.295 Y113.39 E.07034
G1 X137.462 Y113.522 E.06804
G1 X138.603 Y113.696 E.06687
G1 X139.439 Y113.854 E.0493
G1 X153.667 Y117.05 E.84492
G1 X154.463 Y117.265 E.04775
G1 X155.219 Y117.55 E.0468
G1 X156.134 Y118.072 E.06105
G1 X156.674 Y118.55 E.04178
G1 X157.058 Y119.118 E.03975
G1 X157.243 Y119.681 E.0343
G1 X157.269 Y119.892 E.01234
G1 X157.221 Y120.413 E.03028
G1 X157.15 Y120.674 E.01569
G1 X156.895 Y121.166 E.03208
G1 X156.569 Y121.56 E.02967
G1 X155.998 Y122.026 E.04271
G1 X155.316 Y122.405 E.0452
G1 X154.545 Y122.708 E.048
G1 X153.684 Y122.946 E.05173
G1 X143.03 Y125.339 E.63265
G1 X142.848 Y124.802 F9000
;TYPE:Outer wall
G1 F1200
G1 X139.343 Y125.59 E.20816
G1 X138.528 Y125.745 E.04803
M73 P9 R11
G1 X137.405 Y125.916 E.06581
G1 X136.221 Y126.05 E.06906
G1 X135.043 Y126.137 E.06846
G1 X133.876 Y126.181 E.06764
G1 X132.686 Y126.183 E.06896
G1 X131.532 Y126.143 E.06689
G1 X130.364 Y126.061 E.06785
G1 X129.253 Y125.942 E.06473
G1 X128.167 Y125.784 E.06361
G1 X127.128 Y125.592 E.06121
G1 X126.115 Y125.361 E.06021
G1 X125.166 Y125.1 E.05702
G1 X124.273 Y124.809 E.05437
G1 X123.441 Y124.49 E.05164
G1 X122.662 Y124.138 E.04957
G1 X121.958 Y123.765 E.04613
G1 X121.329 Y123.37 E.043
G1 X120.763 Y122.946 E.041
G1 X120.287 Y122.513 E.0373
G1 X119.879 Y122.05 E.03574
G1 X119.553 Y121.567 E.03378
G1 X119.315 Y121.069 E.03196
G1 X119.129 Y120.299 E.04593
G1 X119.122 Y119.766 E.03087
G1 X119.293 Y118.991 E.04598
G1 X119.532 Y118.47 E.03322
G1 X119.856 Y117.979 E.03407
G1 X120.258 Y117.518 E.03542
G1 X120.742 Y117.072 E.03817
G1 X121.303 Y116.648 E.04073
G1 X121.94 Y116.246 E.04364
G1 X122.643 Y115.872 E.04611
G1 X123.181 Y115.627 E.03428
G1 X124.251 Y115.199 E.06674
G1 X125.16 Y114.901 E.05544
G1 X126.111 Y114.64 E.05711
G1 X127.116 Y114.41 E.05976
G1 X128.158 Y114.217 E.06142
G1 X129.264 Y114.056 E.06471
G1 X130.374 Y113.938 E.06469
G1 X131.522 Y113.857 E.06667
G1 X132.302 Y113.83 E.04523
G1 X133.865 Y113.819 E.09058
G1 X135.043 Y113.863 E.06826
G1 X136.232 Y113.951 E.06908
G1 X137.377 Y114.08 E.06677
G1 X138.518 Y114.254 E.06687
G1 X139.334 Y114.408 E.04809
G1 X153.544 Y117.601 E.84383
G1 X154.315 Y117.809 E.04632
G1 X155.017 Y118.077 E.04348
G1 X155.85 Y118.559 E.05576
G1 X156.287 Y118.961 E.03442
G1 X156.578 Y119.415 E.03124
G1 X156.705 Y119.892 E.02863
G1 X156.636 Y120.442 E.03212
G1 X156.461 Y120.806 E.02336
G1 X156.134 Y121.2 E.02967
G1 X155.653 Y121.58 E.0355
G1 X155.049 Y121.908 E.03986
G1 X154.343 Y122.182 E.04388
G1 X153.573 Y122.392 E.04626
G1 X142.907 Y124.789 E.63338
G1 E-.805 F3600
;WIPE_START
G1 F1200
G1 X141.931 Y125.008 E-.345
;WIPE_END
G1 X160.577 Y108.532 F9000
G1 E1.15 F2400
;TYPE:Bottom surface
;WIDTH:0.622275
G1 F2100
M106 S0
G1 X161.468 Y109.423 E.07187
G1 X161.468 Y110.224 E.04567
G1 X160.029 Y108.786 E.11599
G1 X159.228 Y108.786 E.04567
G1 X161.468 Y111.026 E.18058
G1 X161.468 Y111.827 E.04567
G1 X158.427 Y108.786 E.24517
G1 X157.626 Y108.786 E.04567
G1 X161.468 Y112.628 E.30975
G1 X161.468 Y113.429 E.04567
G1 X156.825 Y108.786 E.37434
G1 X156.024 Y108.786 E.04567
G1 X161.468 Y114.23 E.43893
G1 X161.468 Y115.031 E.04567
G1 X155.223 Y108.786 E.50352
G1 X154.422 Y108.786 E.04567
G1 X161.468 Y115.832 E.56811
G1 X161.468 Y116.633 E.04567
G1 X153.62 Y108.786 E.63269
G1 X152.819 Y108.786 E.04567
G1 X161.468 Y117.434 E.69728
G1 X161.468 Y118.236 E.04567
M73 P10 R11
G1 X152.018 Y108.786 E.76187
G1 X151.217 Y108.786 E.04567
G1 X161.468 Y119.037 E.82646
G1 X161.468 Y119.838 E.04567
G1 X150.416 Y108.786 E.89105
G1 X149.615 Y108.786 E.04567
G1 X161.468 Y120.639 E.95564
M73 P10 R10
G1 X161.468 Y121.44 E.04567
G1 X148.814 Y108.786 E1.02022
G1 X148.013 Y108.786 E.04567
G1 X161.468 Y122.241 E1.08481
G1 X161.468 Y123.042 E.04567
G1 X158.262 Y119.836 E.25847
G1 X158.203 Y120.578 E.04242
G1 X161.468 Y123.843 E.26326
G1 X161.468 Y124.645 E.04567
G1 X158.013 Y121.19 E.27853
G1 X157.922 Y121.393 E.0127
G1 X157.727 Y121.705 E.02096
G1 X161.468 Y125.446 E.3016
G1 X161.468 Y126.247 E.04567
G1 X157.374 Y122.153 E.33005
G1 X156.963 Y122.543 E.03231
G1 X161.468 Y127.048 E.36319
G1 X161.468 Y127.849 E.04567
G1 X156.504 Y122.885 E.40022
G1 X155.993 Y123.175 E.0335
G1 X161.468 Y128.65 E.4414
G1 X161.468 Y129.451 E.04567
G1 X155.447 Y123.43 E.48542
G1 X154.863 Y123.648 E.03551
G1 X161.468 Y130.252 E.53248
G1 X161.468 Y131.054 E.04567
G1 X154.243 Y123.829 E.58249
G1 X153.601 Y123.988 E.0377
G1 X160.828 Y131.214 E.5826
G1 X160.027 Y131.214 E.04567
G1 X152.947 Y124.135 E.57075
G1 X152.293 Y124.282 E.03822
M73 P11 R10
G1 X159.225 Y131.214 E.55891
G1 X158.424 Y131.214 E.04567
G1 X151.639 Y124.429 E.54706
G1 X150.985 Y124.576 E.03822
G1 X157.623 Y131.214 E.53522
G1 X156.822 Y131.214 E.04567
G1 X150.33 Y124.723 E.52337
G1 X149.676 Y124.87 E.03822
G1 X156.021 Y131.214 E.51152
G1 X155.22 Y131.214 E.04567
G1 X149.022 Y125.017 E.49968
G1 X148.368 Y125.163 E.03822
G1 X154.419 Y131.214 E.48783
G1 X153.618 Y131.214 E.04567
G1 X147.714 Y125.31 E.47599
G1 X147.06 Y125.457 E.03822
G1 X152.816 Y131.214 E.46414
G1 X152.015 Y131.214 E.04567
G1 X146.405 Y125.604 E.45229
G1 X145.751 Y125.751 E.03822
G1 X151.214 Y131.214 E.44045
G1 X150.413 Y131.214 E.04567
G1 X145.097 Y125.898 E.4286
G1 X144.443 Y126.045 E.03822
G1 X149.612 Y131.214 E.41676
G1 X148.811 Y131.214 E.04567
G1 X143.789 Y126.192 E.40491
G1 X143.134 Y126.339 E.03822
G1 X148.01 Y131.214 E.39306
G1 X147.209 Y131.214 E.04567
G1 X142.48 Y126.486 E.38122
G1 X141.826 Y126.633 E.03822
G1 X146.407 Y131.214 E.36937
G1 X145.606 Y131.214 E.04567
G1 X141.172 Y126.78 E.35753
G1 X140.518 Y126.927 E.03822
G1 X144.805 Y131.214 E.34568
G1 X144.004 Y131.214 E.04567
G1 X139.863 Y127.074 E.33383
G1 X139.197 Y127.208 E.03876
G1 X143.203 Y131.214 E.32297
G1 X142.402 Y131.214 E.04567
G1 X138.515 Y127.327 E.31338
G1 X137.819 Y127.433 E.0401
G1 X141.601 Y131.214 E.30486
G1 X140.8 Y131.214 E.04567
G1 X137.107 Y127.522 E.29767
G1 X136.387 Y127.603 E.04132
G1 X139.999 Y131.214 E.29116
G1 X139.197 Y131.214 E.04567
M73 P12 R10
G1 X135.642 Y127.659 E.28663
G1 X134.889 Y127.707 E.04305
G1 X138.396 Y131.214 E.28279
G1 X137.595 Y131.214 E.04567
G1 X134.116 Y127.735 E.28051
G1 X133.324 Y127.744 E.04515
G1 X136.794 Y131.214 E.27977
G1 X135.993 Y131.214 E.04567
G1 X132.519 Y127.741 E.28005
G1 X131.689 Y127.712 E.04736
G1 X135.192 Y131.214 E.28239
G1 X134.391 Y131.214 E.04567
G1 X130.838 Y127.661 E.28645
G1 X129.965 Y127.589 E.04995
G1 X133.59 Y131.214 E.29226
G1 X132.788 Y131.214 E.04567
G1 X129.067 Y127.493 E.3
G1 X128.131 Y127.358 E.05393
G1 X131.987 Y131.214 E.31089
G1 X131.186 Y131.214 E.04567
G1 X127.159 Y127.187 E.3247
G1 X126.14 Y126.969 E.05938
G1 X130.385 Y131.214 E.34224
G1 X129.584 Y131.214 E.04567
G1 X125.06 Y126.69 E.36474
G1 X124.671 Y126.583 E.02299
G1 X123.9 Y126.331 E.04624
G1 X128.783 Y131.214 E.39367
G1 X127.982 Y131.214 E.04567
G1 X122.583 Y125.815 E.43528
G1 X122.014 Y125.56 E.03556
G1 X121.22 Y125.142 E.0511
G1 X120.925 Y124.959 E.0198
G1 X127.181 Y131.214 E.50431
G1 X126.379 Y131.214 E.04567
G1 X118.532 Y123.367 E.63266
G1 X118.532 Y124.168 E.04567
G1 X125.578 Y131.214 E.56807
G1 X124.777 Y131.214 E.04567
G1 X118.532 Y124.969 E.50349
G1 X118.532 Y125.77 E.04567
G1 X123.976 Y131.214 E.4389
G1 X123.175 Y131.214 E.04567
G1 X118.532 Y126.571 E.37432
G1 X118.532 Y127.373 E.04567
G1 X122.374 Y131.214 E.30973
G1 X121.573 Y131.214 E.04567
G1 X118.532 Y128.174 E.24515
G1 X118.532 Y128.975 E.04567
G1 X120.772 Y131.214 E.18056
G1 X119.971 Y131.214 E.04567
G1 X118.532 Y129.776 E.11597
G1 X118.532 Y130.577 E.04567
G1 X119.423 Y131.468 E.07186
G1 E-.805 F3600
;WIPE_START
G1 F2100
G1 X118.716 Y130.761 E-.345
;WIPE_END
G1 X146.958 Y108.532 F9000
G1 E1.15 F2400
G1 F2100
M73 P13 R10
G1 X154.739 Y116.313 E.62733
G1 X153.646 Y116.022 E.06444
G1 X146.41 Y108.786 E.5834
G1 X145.609 Y108.786 E.04567
G1 X152.613 Y115.79 E.56468
G1 X151.58 Y115.558 E.06037
G1 X144.808 Y108.786 E.54597
G1 X144.007 Y108.786 E.04567
G1 X150.547 Y115.326 E.52725
G1 X149.514 Y115.093 E.06037
G1 X143.206 Y108.786 E.50854
G1 X142.405 Y108.786 E.04567
G1 X148.48 Y114.861 E.48983
G1 X147.447 Y114.629 E.06037
