; HEADER_BLOCK_START
; generated by OrcaSlicer 1.7.0 on 2023-10-22 at 19:16:19
; total layer number: 143
; HEADER_BLOCK_END

; THUMBNAIL_BLOCK_START
; THUMBNAIL_BLOCK_END

; external perimeters extrusion width = 0.60mm
; perimeters extrusion width = 0.60mm
; infill extrusion width = 0.60mm
; solid infill extrusion width = 0.60mm
; top infill extrusion width = 0.60mm
; first layer extrusion width = 0.62mm

; EXECUTABLE_BLOCK_START
M73 P0 R18
;TYPE:Custom
M104 S216 ; set extruder temp
M140 S60 ; set bed temp
M190 S60 ; wait for bed temp
M109 S216 ; wait for extruder temp

G28 ; home all
BED_MESH_PROFILE LOAD=default;

G1 Z2.0 F3000 ; Move Z Axis up little to prevent scratching of Heat Bed
G1 X0.1 Y5 Z0.28 F5000.0 ; Move to start position


G92 E0 ; Reset Extruder
G1 Z2.0 F3000 ; Move Z Axis up little to prevent scratching of Heat Bed
G1 X0.1 Y10 Z0.28 F5000.0 ; Move to start position

G1 X0.1 Y200 Z0.28 F1500.0 E15 ; Draw the first line
G1 X0.4 Y200 Z0.28 F5000.0 ; Move to side a little
G1 X0.4 Y10 Z0.28 F1500.0 E30 ; Draw the second line


G92 E0 ; Reset Extruder
G1 Z0.5 F3000 ; Move Z Axis up little to prevent scratching of Heat Bed
M117 Godmode is enabled
G90
G21
M83 ; use relative distances for extrusion
; filament start gcode
M106 S0
;LAYER_CHANGE
;Z:0.26
;HEIGHT:0.26
;BEFORE_LAYER_CHANGE
;0.26
G92 E0

M73 P1 R17
G1 E-1.15 F3600
;_SET_FAN_SPEED_CHANGING_LAYER
G1 X127.549 Y108.937 F9000
G1 Z.26
G1 E1.15 F2400
;TYPE:Skirt
;WIDTH:0.62
G1 F1200
G1 X127.977 Y108.435 E.04024
G1 X129.934 Y106.697 E.15965
G1 X130.458 Y106.316 E.03951
G1 X132.717 Y104.992 E.15965
G1 X135.154 Y104.037 E.15965
G1 X137.711 Y103.476 E.15965
G1 X139.676 Y103.321 E.12023
G1 X142.031 Y103.455 E.14386
G1 X142.929 Y103.577 E.05526
G1 X144.846 Y104.037 E.12023
G1 X145.462 Y104.237 E.03951
G1 X147.861 Y105.286 E.15965
G1 X149.542 Y106.316 E.12023
G1 X151.565 Y107.977 E.15965
G1 X153.303 Y109.934 E.15965
G1 X154.714 Y112.139 E.15965
G1 X155.763 Y114.538 E.15965
G1 X155.963 Y115.154 E.03951
G1 X156.524 Y117.711 E.15965
G1 X156.679 Y119.676 E.12023
G1 X156.524 Y122.289 E.15965
G1 X155.963 Y124.846 E.15965
G1 X155.763 Y125.462 E.03951
G1 X154.714 Y127.861 E.15965
G1 X153.684 Y129.542 E.12023
G1 X152.023 Y131.565 E.15965
G1 X150.066 Y133.303 E.15965
G1 X147.861 Y134.714 E.15965
G1 X147.283 Y135.008 E.03951
G1 X144.846 Y135.963 E.15965
G1 X142.289 Y136.524 E.15965
G1 X140.324 Y136.679 E.12023
G1 X137.711 Y136.524 E.15965
G1 X137.071 Y136.423 E.03951
G1 X134.538 Y135.763 E.15965
G1 X132.139 Y134.714 E.15965
G1 X129.934 Y133.303 E.15965
G1 X128.435 Y132.023 E.12023
G1 X126.697 Y130.066 E.15965
M73 P2 R17
G1 X125.286 Y127.861 E.15965
G1 X124.992 Y127.283 E.03951
G1 X124.037 Y124.846 E.15965
G1 X123.476 Y122.289 E.15965
G1 X123.321 Y120.324 E.12023
G1 X123.476 Y117.711 E.15965
G1 X124.037 Y115.154 E.15965
G1 X124.893 Y112.956 E.14386
G1 X125.286 Y112.139 E.05526
G1 X126.697 Y109.934 E.15965
G1 X127.51 Y108.983 E.07633
G1 X127.939 Y109.349 F9000
G1 F1200
G1 X128.406 Y108.802 E.0439
G1 X130.301 Y107.126 E.15426
G1 X132.932 Y105.513 E.18824
G1 X135.286 Y104.586 E.15426
G1 X137.755 Y104.038 E.15426
G1 X139.72 Y103.883 E.12023
G1 X141.987 Y104.018 E.13847
G1 X142.797 Y104.126 E.04986
G1 X144.714 Y104.586 E.12023
G1 X147.566 Y105.767 E.18824
G1 X149.699 Y107.126 E.15426
G1 X151.198 Y108.406 E.12023
G1 X152.874 Y110.301 E.15426
G1 X154.233 Y112.434 E.15426
G1 X155.414 Y115.286 E.18824
G1 X155.962 Y117.755 E.15426
G1 X156.117 Y119.72 E.12023
G1 X155.962 Y122.245 E.15426
G1 X155.414 Y124.714 E.15426
G1 X154.233 Y127.566 E.18824
G1 X152.874 Y129.699 E.15426
G1 X151.594 Y131.198 E.12023
G1 X149.699 Y132.874 E.15426
G1 X147.068 Y134.487 E.18824
G1 X144.714 Y135.414 E.15426
G1 X142.245 Y135.962 E.15426
G1 X140.28 Y136.117 E.12023
G1 X137.755 Y135.962 E.15426
G1 X135.286 Y135.414 E.15426
G1 X132.434 Y134.233 E.18824
G1 X130.301 Y132.874 E.15426
G1 X128.802 Y131.594 E.12023
G1 X127.126 Y129.699 E.15426
G1 X125.767 Y127.566 E.15426
G1 X124.586 Y124.714 E.18824
G1 X124.038 Y122.245 E.15426
G1 X123.883 Y120.28 E.12023
G1 X124.038 Y117.755 E.15426
G1 X124.586 Y115.286 E.15426
G1 X125.767 Y112.434 E.18824
G1 X127.126 Y110.301 E.15426
G1 X127.9 Y109.395 E.07268
G1 E-.805 F3600
;WIPE_START
G1 F1200
G1 X128.406 Y108.802 E-.26903
G1 X128.571 Y108.656 E-.07597
;WIPE_END
G1 X140 Y131.02 F9000
G1 E1.15 F2400
;TYPE:Inner wall
;WIDTH:0.62
G1 F1200
G1 X138.276 Y130.884 E.10019
G1 X136.595 Y130.481 E.10019
G1 X134.997 Y129.819 E.10019
G1 X133.523 Y128.915 E.10019
G1 X132.208 Y127.792 E.10019
G1 X131.085 Y126.477 E.10019
G1 X130.181 Y125.003 E.10019
G1 X129.519 Y123.405 E.10019
G1 X129.116 Y121.724 E.10019
G1 X128.98 Y120 E.10019
G1 X129.116 Y118.276 E.10019
G1 X129.519 Y116.595 E.10019
G1 X130.181 Y114.997 E.10019
G1 X131.085 Y113.523 E.10019
G1 X132.208 Y112.208 E.10019
G1 X133.523 Y111.085 E.10019
G1 X134.997 Y110.181 E.10019
G1 X136.595 Y109.519 E.10019
G1 X138.276 Y109.116 E.10019
G1 X140 Y108.98 E.10019
G1 X141.724 Y109.116 E.10019
G1 X143.405 Y109.519 E.10019
G1 X145.003 Y110.181 E.10019
G1 X146.477 Y111.085 E.10019
G1 X147.792 Y112.208 E.10019
G1 X148.859 Y113.456 E.09514
G1 X148.915 Y113.523 E.00505
G1 X149.819 Y114.997 E.10019
G1 X150.481 Y116.595 E.10019
G1 X150.884 Y118.276 E.10019
G1 X151.02 Y120 E.10019
G1 X150.884 Y121.724 E.10019
G1 X150.481 Y123.405 E.10019
G1 X149.819 Y125.003 E.10019
G1 X148.915 Y126.477 E.10019
G1 X147.792 Y127.792 E.10019
G1 X146.477 Y128.915 E.10019
G1 X145.003 Y129.819 E.10019
G1 X143.405 Y130.481 E.10019
G1 X141.724 Y130.884 E.10019
G1 X140.06 Y131.015 E.09671
G1 X140 Y131.586 F9000
G1 F1200
G1 X138.188 Y131.443 E.10534
G1 X136.42 Y131.019 E.10534
G1 X134.74 Y130.323 E.10534
G1 X133.19 Y129.373 E.10534
G1 X131.807 Y128.193 E.10534
G1 X130.627 Y126.81 E.10534
M73 P3 R17
G1 X129.677 Y125.26 E.10534
G1 X128.981 Y123.58 E.10534
G1 X128.557 Y121.812 E.10534
G1 X128.414 Y120 E.10534
G1 X128.557 Y118.188 E.10534
G1 X128.981 Y116.42 E.10534
G1 X129.677 Y114.74 E.10534
G1 X130.627 Y113.19 E.10534
G1 X131.807 Y111.807 E.10534
G1 X133.19 Y110.627 E.10534
G1 X134.74 Y109.677 E.10534
G1 X136.42 Y108.981 E.10534
G1 X138.188 Y108.557 E.10534
G1 X140 Y108.414 E.10534
G1 X141.812 Y108.557 E.10534
G1 X143.58 Y108.981 E.10534
G1 X145.26 Y109.677 E.10534
G1 X146.81 Y110.627 E.10534
G1 X148.193 Y111.807 E.10534
G1 X149.288 Y113.09 E.09771
G1 X149.373 Y113.19 E.00762
G1 X150.323 Y114.74 E.10534
G1 X151.019 Y116.42 E.10534
G1 X151.443 Y118.188 E.10534
G1 X151.586 Y120 E.10534
G1 X151.443 Y121.812 E.10534
G1 X151.019 Y123.58 E.10534
G1 X150.323 Y125.26 E.10534
G1 X149.373 Y126.81 E.10534
G1 X148.193 Y128.193 E.10534
G1 X146.81 Y129.373 E.10534
G1 X145.26 Y130.323 E.10534
G1 X143.58 Y131.019 E.10534
G1 X141.812 Y131.443 E.10534
G1 X140.06 Y131.581 E.10186
G1 X140 Y132.152 F9000
;TYPE:Outer wall
G1 F1200
G1 X138.099 Y132.002 E.11048
G1 X136.245 Y131.557 E.11048
G1 X134.483 Y130.828 E.11048
G1 X132.857 Y129.831 E.11048
G1 X131.407 Y128.593 E.11048
G1 X130.169 Y127.143 E.11048
G1 X129.172 Y125.517 E.11048
G1 X128.443 Y123.755 E.11048
G1 X127.998 Y121.901 E.11048
G1 X127.848 Y120 E.11048
G1 X127.998 Y118.099 E.11048
G1 X128.443 Y116.245 E.11048
G1 X129.172 Y114.483 E.11048
G1 X130.169 Y112.857 E.11048
G1 X131.407 Y111.407 E.11048
G1 X132.857 Y110.169 E.11048
G1 X134.483 Y109.172 E.11048
G1 X136.245 Y108.443 E.11048
G1 X138.099 Y107.998 E.11048
G1 X140 Y107.848 E.11048
G1 X141.901 Y107.998 E.11048
G1 X143.755 Y108.443 E.11048
G1 X145.517 Y109.172 E.11048
G1 X147.143 Y110.169 E.11048
G1 X148.593 Y111.407 E.11048
G1 X149.717 Y112.723 E.10029
G1 X149.831 Y112.857 E.01019
G1 X150.828 Y114.483 E.11048
G1 X151.557 Y116.245 E.11048
G1 X152.002 Y118.099 E.11048
G1 X152.152 Y120 E.11048
G1 X152.002 Y121.901 E.11048
G1 X151.557 Y123.755 E.11048
G1 X150.828 Y125.517 E.11048
G1 X149.831 Y127.143 E.11048
G1 X148.593 Y128.593 E.11048
G1 X147.143 Y129.831 E.11048
G1 X145.517 Y130.828 E.11048
G1 X143.755 Y131.557 E.11048
G1 X141.901 Y132.002 E.11048
G1 X140.06 Y132.147 E.107
G1 E-.805 F3600
;WIPE_START
G1 F1200
G1 X139.063 Y132.074 E-.345
;WIPE_END
G1 X139.975 Y128.824 F9000
G1 E1.15 F2400
;TYPE:Inner wall
G1 F1200
G1 X139.877 Y128.824 E.00569
G1 X138.589 Y128.711 E.07492
G1 X138.347 Y128.668 E.01425
G1 X137.098 Y128.333 E.07492
G1 X135.967 Y127.83 E.0717
G1 X135.482 Y127.58 E.03163
G1 X134.423 Y126.838 E.07492
G1 X133.32 Y125.766 E.08912
G1 X132.42 Y124.518 E.08912
G1 X132.17 Y124.033 E.03163
G1 X131.751 Y123.133 E.0575
G1 X131.634 Y122.779 E.02162
G1 X131.332 Y121.653 E.06753
G1 X131.289 Y121.411 E.01425
G1 X131.176 Y120.123 E.07492
G1 X131.176 Y119.877 E.01425
G1 X131.289 Y118.589 E.07492
G1 X131.332 Y118.347 E.01425
G1 X131.667 Y117.098 E.07492
G1 X132.17 Y115.967 E.0717
G1 X132.42 Y115.482 E.03163
G1 X133.162 Y114.423 E.07492
G1 X134.234 Y113.32 E.08912
G1 X135.482 Y112.42 E.08912
G1 X135.967 Y112.17 E.03163
G1 X136.867 Y111.751 E.0575
G1 X137.221 Y111.634 E.02162
G1 X138.347 Y111.332 E.06753
G1 X138.589 Y111.289 E.01425
G1 X139.877 Y111.176 E.07492
G1 X140.123 Y111.176 E.01425
G1 X141.411 Y111.289 E.07492
G1 X141.653 Y111.332 E.01425
G1 X142.902 Y111.667 E.07492
G1 X144.033 Y112.17 E.0717
G1 X144.518 Y112.42 E.03163
G1 X145.577 Y113.162 E.07492
G1 X146.68 Y114.234 E.08912
G1 X147.58 Y115.482 E.08912
G1 X147.83 Y115.967 E.03163
G1 X148.249 Y116.867 E.0575
G1 X148.366 Y117.221 E.02162
G1 X148.668 Y118.347 E.06753
G1 X148.711 Y118.589 E.01424
G1 X148.824 Y119.877 E.07492
G1 X148.824 Y120.123 E.01425
G1 X148.711 Y121.411 E.07492
G1 X148.668 Y121.653 E.01424
G1 X148.333 Y122.902 E.07492
G1 X147.83 Y124.033 E.0717
G1 X147.58 Y124.518 E.03163
G1 X146.838 Y125.577 E.07492
G1 X145.766 Y126.68 E.08912
G1 X144.518 Y127.58 E.08912
G1 X144.033 Y127.83 E.03163
G1 X143.133 Y128.249 E.0575
G1 X142.779 Y128.366 E.02162
G1 X141.653 Y128.668 E.06753
G1 X141.411 Y128.711 E.01425
G1 X140.123 Y128.824 E.07492
G1 X140.035 Y128.824 E.00508
G1 X140.048 Y128.261 F9000
G1 F1200
G1 X139.926 Y128.261 E.00705
G1 X138.493 Y128.123 E.08344
G1 X137.244 Y127.788 E.07492
G1 X136.206 Y127.319 E.06602
G1 X135.805 Y127.118 E.02594
G1 X134.746 Y126.376 E.07492
G1 X133.719 Y125.367 E.08344
G1 X132.882 Y124.195 E.08344
G1 X132.262 Y122.895 E.08344
G1 X131.877 Y121.507 E.08344
G1 X131.851 Y121.362 E.00855
G1 X131.739 Y119.926 E.08344
G1 X131.877 Y118.493 E.08344
M73 P4 R17
G1 X132.212 Y117.244 E.07492
G1 X132.681 Y116.206 E.06602
G1 X132.882 Y115.805 E.02594
G1 X133.624 Y114.746 E.07492
G1 X134.633 Y113.719 E.08344
G1 X135.805 Y112.882 E.08344
G1 X137.105 Y112.262 E.08344
G1 X138.493 Y111.877 E.08344
G1 X138.638 Y111.851 E.00855
G1 X140.074 Y111.739 E.08344
G1 X141.507 Y111.877 E.08344
G1 X142.756 Y112.212 E.07492
G1 X143.794 Y112.681 E.06602
G1 X144.195 Y112.882 E.02594
G1 X145.254 Y113.624 E.07492
G1 X146.281 Y114.633 E.08344
G1 X147.118 Y115.805 E.08344
G1 X147.738 Y117.105 E.08344
G1 X148.123 Y118.493 E.08344
G1 X148.149 Y118.638 E.00855
G1 X148.261 Y120.074 E.08344
G1 X148.123 Y121.507 E.08344
G1 X147.788 Y122.756 E.07492
G1 X147.319 Y123.794 E.06602
G1 X147.118 Y124.195 E.02594
G1 X146.376 Y125.254 E.07492
G1 X145.367 Y126.281 E.08344
G1 X144.195 Y127.118 E.08344
G1 X142.895 Y127.738 E.08344
G1 X141.507 Y128.123 E.08344
G1 X140.108 Y128.258 E.08146
G1 X140.012 Y127.696 F9000
;TYPE:Outer wall
G1 F1200
G1 X139.975 Y127.699 E.00212
G1 X138.639 Y127.578 E.07776
G1 X137.39 Y127.243 E.07492
G1 X136.444 Y126.807 E.06034
G1 X136.129 Y126.656 E.02026
G1 X135.07 Y125.914 E.07492
G1 X134.118 Y124.968 E.07776
G1 X133.344 Y123.871 E.07776
G1 X132.773 Y122.656 E.07776
G1 X132.422 Y121.361 E.07776
G1 X132.301 Y119.975 E.0806
G1 X132.422 Y118.639 E.07776
G1 X132.757 Y117.39 E.07492
G1 X133.193 Y116.444 E.06034
G1 X133.344 Y116.129 E.02026
G1 X134.086 Y115.07 E.07492
G1 X135.032 Y114.118 E.07776
G1 X136.129 Y113.344 E.07776
G1 X137.344 Y112.773 E.07776
G1 X138.639 Y112.422 E.07776
G1 X140.025 Y112.301 E.0806
G1 X141.361 Y112.422 E.07776
G1 X142.61 Y112.757 E.07492
G1 X143.556 Y113.193 E.06034
G1 X143.871 Y113.344 E.02026
G1 X144.93 Y114.086 E.07492
G1 X145.882 Y115.032 E.07776
G1 X146.656 Y116.129 E.07776
G1 X147.227 Y117.344 E.07776
G1 X147.578 Y118.639 E.07776
G1 X147.699 Y120.025 E.0806
G1 X147.578 Y121.361 E.07776
G1 X147.243 Y122.61 E.07492
G1 X146.807 Y123.556 E.06034
G1 X146.656 Y123.871 E.02026
G1 X145.914 Y124.93 E.07492
G1 X144.968 Y125.882 E.07776
G1 X143.871 Y126.656 E.07776
G1 X142.656 Y127.227 E.07776
G1 X141.361 Y127.578 E.07776
G1 X140.072 Y127.691 E.075
G1 E-.805 F3600
;WIPE_START
G1 F1200
G1 X139.975 Y127.699 E-.03334
G1 X139.076 Y127.618 E-.31166
;WIPE_END
G1 X149.047 Y114.083 F9000
G1 E1.15 F2400
;TYPE:Bottom surface
;WIDTH:0.627761
G1 F2100
M106 S0
G1 X147.455 Y112.49 E.12964
G1 X146.221 Y111.437 E.09336
G1 X144.805 Y110.569 E.0956
G1 X144.668 Y110.512 E.00857
G1 X149.488 Y115.332 E.39237
G1 X150.06 Y116.713 E.08603
G1 X143.287 Y109.94 E.55134
G1 X142.219 Y109.681 E.06327
G1 X144.418 Y111.881 E.17906
G1 X144.67 Y112 E.01604
G1 X145.832 Y112.81 E.0815
G1 X146.069 Y113.008 E.01777
G1 X147.087 Y114.034 E.0832
G1 X147.939 Y115.238 E.08491
G1 X148.138 Y115.601 E.02384
G1 X150.663 Y118.125 E.20547
G1 E-.805 F3600
;WIPE_START
G1 F2100
G1 X149.955 Y117.418 E-.345
;WIPE_END
G1 X148.32 Y116.592 F9000
G1 E1.15 F2400
G1 F2100
G1 X150.487 Y118.758 E.17635
G1 X150.556 Y119.636 E.05069
G1 X149.063 Y118.143 E.12153
G1 X149.143 Y118.546 E.02364
G1 X149.187 Y119.076 E.03064
G1 X150.55 Y120.439 E.11092
G1 X150.491 Y121.189 E.0433
G1 X149.26 Y119.958 E.10016
G1 X149.205 Y120.712 E.04348
G1 X150.395 Y121.902 E.09689
G1 X150.238 Y122.554 E.03861
G1 X149.143 Y121.458 E.08921
G1 X149.101 Y121.715 E.01499
G1 X148.993 Y122.118 E.02397
G1 X150.082 Y123.206 E.08863
G1 X150.066 Y123.271 E.00381
G1 X149.853 Y123.786 E.03212
G1 X148.822 Y122.756 E.08388
G1 X148.751 Y123.021 E.01581
G1 X148.621 Y123.364 E.02109
G1 X149.616 Y124.358 E.08096
G1 X149.431 Y124.805 E.02785
G1 X149.364 Y124.915 E.0074
G1 X148.364 Y123.915 E.08136
G1 X148.107 Y124.467 E.03504
G1 X149.056 Y125.416 E.07728
G1 X148.749 Y125.918 E.03386
G1 X147.796 Y124.965 E.07758
G1 X147.461 Y125.438 E.0334
G1 X148.416 Y126.394 E.07776
G1 X148.043 Y126.83 E.03302
G1 X147.125 Y125.912 E.07472
G1 X146.73 Y126.326 E.03293
G1 X147.671 Y127.266 E.07657
G1 X147.484 Y127.484 E.01651
G1 X147.266 Y127.671 E.01651
G1 X146.327 Y126.732 E.07645
G1 X145.911 Y127.124 E.03294
G1 X146.83 Y128.043 E.07481
G1 X146.394 Y128.416 E.03302
G1 X145.441 Y127.463 E.07756
G1 X144.964 Y127.795 E.03344
G1 X145.918 Y128.749 E.07764
G1 X145.416 Y129.056 E.03386
G1 X144.46 Y128.1 E.07787
G1 X143.911 Y128.36 E.03496
G1 X144.915 Y129.364 E.08173
G1 X144.805 Y129.431 E.00739
G1 X144.358 Y129.616 E.02785
G1 X143.362 Y128.62 E.08111
G1 X143.02 Y128.752 E.02112
G1 X142.756 Y128.822 E.01572
G1 X143.786 Y129.853 E.08388
G1 X143.271 Y130.066 E.03211
G1 X143.206 Y130.082 E.00382
G1 X142.118 Y128.993 E.08863
G1 X141.715 Y129.101 E.02396
G1 X141.458 Y129.143 E.015
G1 X142.554 Y130.238 E.08921
G1 X141.902 Y130.395 E.03861
G1 X140.711 Y129.205 E.09689
G1 X139.958 Y129.26 E.04348
G1 X141.189 Y130.491 E.10016
G1 X140.439 Y130.55 E.0433
G1 X139.076 Y129.187 E.11093
G1 X138.546 Y129.143 E.03063
G1 X138.143 Y129.063 E.02365
G1 X139.636 Y130.556 E.12154
G1 X138.758 Y130.487 E.05069
G1 X136.584 Y128.313 E.17693
G1 E-.805 F3600
;WIPE_START
G1 F2100
G1 X137.291 Y129.02 E-.345
;WIPE_END
G1 X143.415 Y111.687 F9000
G1 E1.15 F2400
G1 F2100
G1 X141.242 Y109.513 E.17692
G1 X140.364 Y109.444 E.05069
M73 P5 R17
G1 X141.856 Y110.937 E.12147
G1 X141.487 Y110.86 E.02172
G1 X140.921 Y110.81 E.03267
G1 X139.568 Y109.457 E.11019
G1 X138.814 Y109.512 E.04351
G1 X140.044 Y110.742 E.10014
G1 X139.861 Y110.742 E.01056
G1 X139.285 Y110.792 E.03323
G1 X138.098 Y109.605 E.09665
G1 X137.446 Y109.762 E.03861
G1 X138.542 Y110.857 E.08921
G1 X138.284 Y110.9 E.01503
G1 X137.882 Y111.007 E.02393
G1 X136.794 Y109.918 E.08863
G1 X136.729 Y109.934 E.00381
G1 X136.214 Y110.147 E.03212
G1 X137.244 Y111.178 E.08388
G1 X136.979 Y111.249 E.01581
G1 X136.636 Y111.379 E.02109
G1 X135.642 Y110.384 E.08096
G1 X135.195 Y110.569 E.02785
